P3
100 150
255
10 10 10 10 10 10 10 10 10 10 10 10 10 10 10 10 10 10 10 10 10 10 10 10 10 10 10 10 10 10 10 10 10 10 10 10 40 200 40 10 10 10 10 10 10 10 10 10 10 10 10 10 10 10 10 10 10 76 172 40 10 10 10 10 10 10 10 10 10 10 10 10 10 10 10 10 10 10 10 10 10 10 10 10 10 10 10 76 172 40 10 10 10 10 10 10 10 10 10 220 60 40 10 10 10 184 88 40 10 10 10 184 88 40 10 10 10 10 10 10 10 10 10 10 10 10 112 144 40 10 10 10 10 10 10 10 10 10 10 10 10 10 10 10 10 10 10 10 10 10 10 10 10 10 10 10 40 200 40 10 10 10 10 10 10 10 10 10 10 10 10 76 172 40 10 10 10 10 10 10 10 10 10 10 10 10 10 10 10 10 10 10 148 116 40 220 60 40 220 60 40 220 60 40 220 60 40 220 60 40 220 60 40 220 60 40 220 60 40 220 60 40 220 60 40 220 60 40 220 60 40 10 10 10 184 88 40 220 60 40 10 10 10 220 60 40 10 10 10 10 10 10 184 88 40 10 10 10 10 10 10 10 10 10 10 10 10 10 10 10 10 10 10 10 10 10 10 10 10 76 172 40 10 10 10 10 10 10 10 10 10 10 10 10 10 10 10 76 172 40 
10 10 10 10 10 10 10 10 10 10 10 10 40 200 40 10 10 10 10 10 10 10 10 10 10 10 10 10 10 10 10 10 10 10 10 10 10 10 10 10 10 10 10 10 10 10 10 10 10 10 10 40 200 40 10 10 10 10 10 10 10 10 10 10 10 10 10 10 10 10 10 10 40 200 40 10 10 10 10 10 10 10 10 10 10 10 10 10 10 10 10 10 10 148 116 40 10 10 10 220 60 40 10 10 10 10 10 10 184 88 40 10 10 10 184 88 40 10 10 10 10 10 10 10 10 10 10 10 10 10 10 10 10 10 10 112 144 40 10 10 10 10 10 10 10 10 10 10 10 10 10 10 10 10 10 10 10 10 10 10 10 10 10 10 10 112 144 40 10 10 10 10 10 10 10 10 10 10 10 10 10 10 10 10 10 10 40 200 40 10 10 10 220 60 40 220 60 40 220 60 40 220 60 40 220 60 40 220 60 40 220 60 40 220 60 40 220 60 40 220 60 40 220 60 40 220 60 40 10 10 10 184 88 40 220 60 40 220 60 40 10 10 10 10 10 10 184 88 40 10 10 10 10 10 10 10 10 10 148 116 40 10 10 10 10 10 10 10 10 10 10 10 10 10 10 10 10 10 10 10 10 10 10 10 10 10 10 10 10 10 10 10 10 10 40 200 40 10 10 10 
10 10 10 10 10 10 10 10 10 40 200 40 10 10 10 10 10 10 10 10 10 10 10 10 10 10 10 40 200 40 10 10 10 10 10 10 10 10 10 10 10 10 10 10 10 10 10 10 10 10 10 10 10 10 10 10 10 10 10 10 10 10 10 10 10 10 40 200 40 10 10 10 10 10 10 10 10 10 10 10 10 10 10 10 10 10 10 40 200 40 10 10 10 220 60 40 10 10 10 220 60 40 10 10 10 10 10 10 220 60 40 10 10 10 10 10 10 10 10 10 148 116 40 10 10 10 10 10 10 10 10 10 10 10 10 10 10 10 10 10 10 10 10 10 10 10 10 76 172 40 10 10 10 10 10 10 10 10 10 10 10 10 10 10 10 10 10 10 10 10 10 10 10 10 10 10 10 76 172 40 10 10 10 10 10 10 220 60 40 10 10 10 220 60 40 220 60 40 220 60 40 220 60 40 220 60 40 220 60 40 220 60 40 220 60 40 220 60 40 220 60 40 220 60 40 10 10 10 184 88 40 220 60 40 220 60 40 10 10 10 184 88 40 10 10 10 10 10 10 10 10 10 148 116 40 10 10 10 10 10 10 10 10 10 148 116 40 10 10 10 10 10 10 10 10 10 10 10 10 10 10 10 10 10 10 10 10 10 10 10 10 10 10 10 10 10 10 10 10 10 
10 10 10 10 10 10 10 10 10 10 10 10 10 10 10 10 10 10 10 10 10 10 10 10 40 200 40 10 10 10 10 10 10 10 10 10 10 10 10 76 172 40 10 10 10 10 10 10 10 10 10 10 10 10 10 10 10 10 10 10 10 10 10 10 10 10 10 10 10 10 10 10 10 10 10 10 10 10 10 10 10 40 200 40 10 10 10 220 60 40 10 10 10 10 10 10 184 88 40 10 10 10 184 88 40 10 10 10 220 60 40 10 10 10 10 10 10 10 10 10 10 10 10 10 10 10 10 10 10 112 144 40 10 10 10 10 10 10 10 10 10 10 10 10 10 10 10 10 10 10 10 10 10 10 10 10 10 10 10 10 10 10 40 200 40 10 10 10 10 10 10 10 10 10 10 10 10 10 10 10 10 10 10 148 116 40 10 10 10 184 88 40 220 60 40 220 60 40 220 60 40 220 60 40 220 60 40 220 60 40 220 60 40 220 60 40 220 60 40 220 60 40 10 10 10 184 88 40 220 60 40 220 60 40 220 60 40 10 10 10 10 10 10 10 10 10 148 116 40 10 10 10 10 10 10 10 10 10 10 10 10 112 144 40 10 10 10 10 10 10 148 116 40 10 10 10 10 10 10 10 10 10 10 10 10 10 10 10 10 10 10 10 10 10 10 10 10 10 10 10 
10 10 10 10 10 10 10 10 10 10 10 10 10 10 10 10 10 10 10 10 10 10 10 10 10 10 10 10 10 10 10 10 10 10 10 10 76 172 40 10 10 10 10 10 10 10 10 10 10 10 10 76 172 40 10 10 10 10 10 10 10 10 10 10 10 10 10 10 10 10 10 10 10 10 10 10 10 10 10 10 10 10 10 10 184 88 40 220 60 40 10 10 10 10 10 10 10 10 10 184 88 40 10 10 10 184 88 40 10 10 10 184 88 40 10 10 10 10 10 10 10 10 10 10 10 10 10 10 10 10 10 10 10 10 10 10 10 10 10 10 10 76 172 40 10 10 10 10 10 10 10 10 10 10 10 10 10 10 10 10 10 10 10 10 10 10 10 10 10 10 10 10 10 10 76 172 40 10 10 10 10 10 10 10 10 10 184 88 40 220 60 40 220 60 40 220 60 40 220 60 40 220 60 40 220 60 40 220 60 40 220 60 40 220 60 40 220 60 40 10 10 10 184 88 40 220 60 40 220 60 40 220 60 40 220 60 40 10 10 10 10 10 10 10 10 10 10 10 10 10 10 10 10 10 10 112 144 40 10 10 10 10 10 10 184 88 40 10 10 10 10 10 10 10 10 10 10 10 10 112 144 40 10 10 10 10 10 10 10 10 10 10 10 10 10 10 10 10 10 10 
10 10 10 10 10 10 10 10 10 10 10 10 10 10 10 10 10 10 10 10 10 10 10 10 10 10 10 10 10 10 10 10 10 10 10 10 10 10 10 10 10 10 10 10 10 112 144 40 10 10 10 10 10 10 10 10 10 10 10 10 10 10 10 10 10 10 40 200 40 10 10 10 10 10 10 10 10 10 10 10 10 10 10 10 220 60 40 10 10 10 184 88 40 10 10 10 10 10 10 10 10 10 184 88 40 10 10 10 184 88 40 10 10 10 10 10 10 148 116 40 10 10 10 10 10 10 10 10 10 10 10 10 10 10 10 10 10 10 10 10 10 10 10 10 10 10 10 10 10 10 10 10 10 10 10 10 40 200 40 10 10 10 10 10 10 10 10 10 10 10 10 10 10 10 10 10 10 10 10 10 10 10 10 112 144 40 220 60 40 220 60 40 220 60 40 220 60 40 220 60 40 220 60 40 220 60 40 220 60 40 220 60 40 220 60 40 220 60 40 10 10 10 220 60 40 220 60 40 220 60 40 220 60 40 10 10 10 184 88 40 10 10 10 10 10 10 10 10 10 10 10 10 10 10 10 10 10 10 10 10 10 148 116 40 10 10 10 184 88 40 10 10 10 10 10 10 10 10 10 10 10 10 10 10 10 10 10 10 112 144 40 10 10 10 10 10 10 10 10 10 
76 172 40 10 10 10 10 10 10 10 10 10 10 10 10 10 10 10 10 10 10 10 10 10 10 10 10 10 10 10 10 10 10 10 10 10 10 10 10 10 10 10 10 10 10 10 10 10 10 10 10 10 10 10 10 10 10 76 172 40 10 10 10 10 10 10 10 10 10 10 10 10 10 10 10 10 10 10 10 10 10 40 200 40 10 10 10 184 88 40 10 10 10 10 10 10 148 116 40 10 10 10 10 10 10 184 88 40 10 10 10 184 88 40 10 10 10 10 10 10 10 10 10 10 10 10 112 144 40 10 10 10 10 10 10 10 10 10 10 10 10 10 10 10 10 10 10 10 10 10 10 10 10 10 10 10 10 10 10 10 10 10 10 10 10 10 10 10 76 172 40 10 10 10 10 10 10 10 10 10 10 10 10 220 60 40 220 60 40 220 60 40 220 60 40 220 60 40 220 60 40 220 60 40 220 60 40 220 60 40 220 60 40 220 60 40 10 10 10 184 88 40 220 60 40 220 60 40 220 60 40 10 10 10 184 88 40 10 10 10 10 10 10 148 116 40 10 10 10 10 10 10 10 10 10 10 10 10 10 10 10 10 10 10 184 88 40 10 10 10 10 10 10 148 116 40 10 10 10 10 10 10 10 10 10 10 10 10 10 10 10 10 10 10 10 10 10 10 10 10 
10 10 10 10 10 10 10 10 10 10 10 10 10 10 10 40 200 40 10 10 10 10 10 10 10 10 10 10 10 10 10 10 10 10 10 10 10 10 10 10 10 10 10 10 10 10 10 10 10 10 10 10 10 10 10 10 10 10 10 10 10 10 10 10 10 10 10 10 10 10 10 10 40 200 40 10 10 10 10 10 10 10 10 10 184 88 40 10 10 10 184 88 40 10 10 10 10 10 10 10 10 10 148 116 40 10 10 10 184 88 40 10 10 10 10 10 10 148 116 40 10 10 10 10 10 10 10 10 10 10 10 10 10 10 10 112 144 40 10 10 10 10 10 10 10 10 10 10 10 10 10 10 10 10 10 10 10 10 10 10 10 10 10 10 10 10 10 10 10 10 10 10 10 10 10 10 10 10 10 10 76 172 40 220 60 40 220 60 40 220 60 40 220 60 40 220 60 40 220 60 40 220 60 40 220 60 40 220 60 40 220 60 40 10 10 10 184 88 40 220 60 40 220 60 40 220 60 40 10 10 10 184 88 40 10 10 10 184 88 40 10 10 10 10 10 10 10 10 10 10 10 10 112 144 40 10 10 10 10 10 10 10 10 10 10 10 10 10 10 10 148 116 40 10 10 10 10 10 10 10 10 10 112 144 40 10 10 10 10 10 10 10 10 10 10 10 10 10 10 10 
10 10 10 10 10 10 10 10 10 10 10 10 10 10 10 10 10 10 10 10 10 10 10 10 10 10 10 10 10 10 40 200 40 10 10 10 10 10 10 10 10 10 10 10 10 10 10 10 10 10 10 10 10 10 10 10 10 10 10 10 10 10 10 10 10 10 10 10 10 10 10 10 10 10 10 10 10 10 10 10 10 112 144 40 10 10 10 184 88 40 10 10 10 10 10 10 148 116 40 10 10 10 10 10 10 184 88 40 10 10 10 184 88 40 10 10 10 10 10 10 10 10 10 148 116 40 10 10 10 10 10 10 10 10 10 10 10 10 10 10 10 10 10 10 10 10 10 76 172 40 10 10 10 10 10 10 10 10 10 10 10 10 10 10 10 10 10 10 10 10 10 10 10 10 10 10 10 10 10 10 220 60 40 220 60 40 220 60 40 220 60 40 220 60 40 220 60 40 220 60 40 220 60 40 220 60 40 220 60 40 10 10 10 184 88 40 220 60 40 220 60 40 220 60 40 10 10 10 184 88 40 10 10 10 184 88 40 10 10 10 184 88 40 10 10 10 10 10 10 10 10 10 10 10 10 10 10 10 10 10 10 10 10 10 76 172 40 10 10 10 10 10 10 10 10 10 10 10 10 112 144 40 10 10 10 10 10 10 10 10 10 10 10 10 76 172 40 10 10 10 
10 10 10 10 10 10 10 10 10 40 200 40 10 10 10 10 10 10 10 10 10 10 10 10 10 10 10 10 10 10 10 10 10 10 10 10 10 10 10 10 10 10 10 10 10 40 200 40 10 10 10 10 10 10 10 10 10 10 10 10 10 10 10 10 10 10 10 10 10 10 10 10 10 10 10 10 10 10 10 10 10 10 10 10 184 88 40 10 10 10 10 10 10 148 116 40 10 10 10 10 10 10 148 116 40 10 10 10 184 88 40 10 10 10 184 88 40 10 10 10 10 10 10 10 10 10 10 10 10 10 10 10 112 144 40 10 10 10 10 10 10 10 10 10 10 10 10 10 10 10 10 10 10 10 10 10 10 10 10 76 172 40 10 10 10 10 10 10 10 10 10 10 10 10 10 10 10 10 10 10 220 60 40 220 60 40 220 60 40 220 60 40 220 60 40 220 60 40 220 60 40 220 60 40 220 60 40 10 10 10 184 88 40 220 60 40 220 60 40 220 60 40 10 10 10 184 88 40 220 60 40 10 10 10 10 10 10 184 88 40 10 10 10 184 88 40 10 10 10 10 10 10 10 10 10 10 10 10 10 10 10 10 10 10 10 10 10 10 10 10 10 10 10 112 144 40 10 10 10 10 10 10 10 10 10 10 10 10 112 144 40 10 10 10 10 10 10 10 10 10 
76 172 40 10 10 10 10 10 10 10 10 10 10 10 10 10 10 10 10 10 10 76 172 40 10 10 10 10 10 10 10 10 10 10 10 10 10 10 10 10 10 10 10 10 10 10 10 10 10 10 10 10 10 10 10 10 10 76 172 40 10 10 10 10 10 10 10 10 10 10 10 10 10 10 10 10 10 10 10 10 10 10 10 10 10 10 10 184 88 40 10 10 10 10 10 10 10 10 10 148 116 40 220 60 40 10 10 10 10 10 10 184 88 40 10 10 10 10 10 10 148 116 40 10 10 10 10 10 10 10 10 10 10 10 10 10 10 10 10 10 10 112 144 40 10 10 10 10 10 10 10 10 10 10 10 10 10 10 10 10 10 10 10 10 10 10 10 10 10 10 10 10 10 10 40 200 40 10 10 10 220 60 40 220 60 40 220 60 40 220 60 40 220 60 40 220 60 40 220 60 40 220 60 40 10 10 10 184 88 40 220 60 40 220 60 40 220 60 40 220 60 40 10 10 10 220 60 40 10 10 10 184 88 40 10 10 10 220 60 40 10 10 10 10 10 10 184 88 40 10 10 10 10 10 10 10 10 10 10 10 10 10 10 10 10 10 10 10 10 10 10 10 10 10 10 10 10 10 10 10 10 10 112 144 40 10 10 10 10 10 10 10 10 10 10 10 10 10 10 10 
10 10 10 10 10 10 10 10 10 10 10 10 76 172 40 10 10 10 10 10 10 10 10 10 10 10 10 10 10 10 10 10 10 76 172 40 10 10 10 10 10 10 10 10 10 10 10 10 10 10 10 10 10 10 10 10 10 10 10 10 10 10 10 10 10 10 10 10 10 10 10 10 40 200 40 10 10 10 10 10 10 10 10 10 10 10 10 10 10 10 10 10 10 148 116 40 10 10 10 220 60 40 10 10 10 184 88 40 10 10 10 10 10 10 10 10 10 148 116 40 10 10 10 10 10 10 10 10 10 112 144 40 10 10 10 10 10 10 10 10 10 10 10 10 10 10 10 10 10 10 10 10 10 76 172 40 10 10 10 10 10 10 10 10 10 10 10 10 10 10 10 10 10 10 10 10 10 184 88 40 220 60 40 220 60 40 220 60 40 220 60 40 220 60 40 220 60 40 220 60 40 10 10 10 184 88 40 220 60 40 220 60 40 220 60 40 220 60 40 10 10 10 184 88 40 10 10 10 184 88 40 220 60 40 10 10 10 220 60 40 10 10 10 10 10 10 10 10 10 184 88 40 10 10 10 10 10 10 10 10 10 10 10 10 10 10 10 10 10 10 10 10 10 10 10 10 10 10 10 10 10 10 10 10 10 10 10 10 10 10 10 10 10 10 76 172 40 10 10 10 
10 10 10 10 10 10 10 10 10 40 200 40 10 10 10 10 10 10 10 10 10 10 10 10 76 172 40 10 10 10 10 10 10 10 10 10 10 10 10 10 10 10 10 10 10 10 10 10 40 200 40 10 10 10 10 10 10 10 10 10 10 10 10 10 10 10 10 10 10 10 10 10 10 10 10 10 10 10 10 10 10 10 10 10 10 10 10 40 200 40 10 10 10 220 60 40 10 10 10 10 10 10 184 88 40 10 10 10 10 10 10 148 116 40 10 10 10 10 10 10 10 10 10 148 116 40 10 10 10 10 10 10 10 10 10 10 10 10 10 10 10 76 172 40 10 10 10 10 10 10 10 10 10 10 10 10 10 10 10 10 10 10 10 10 10 10 10 10 40 200 40 10 10 10 10 10 10 220 60 40 220 60 40 220 60 40 220 60 40 220 60 40 220 60 40 220 60 40 220 60 40 10 10 10 220 60 40 220 60 40 220 60 40 220 60 40 10 10 10 184 88 40 10 10 10 184 88 40 220 60 40 10 10 10 184 88 40 10 10 10 184 88 40 10 10 10 10 10 10 10 10 10 10 10 10 148 116 40 10 10 10 10 10 10 10 10 10 10 10 10 10 10 10 10 10 10 10 10 10 10 10 10 10 10 10 10 10 10 10 10 10 10 10 10 10 10 10 10 10 10 
10 10 10 10 10 10 10 10 10 10 10 10 10 10 10 10 10 10 112 144 40 10 10 10 10 10 10 10 10 10 10 10 10 10 10 10 10 10 10 40 200 40 10 10 10 10 10 10 10 10 10 10 10 10 10 10 10 10 10 10 10 10 10 40 200 40 10 10 10 10 10 10 10 10 10 10 10 10 10 10 10 10 10 10 10 10 10 220 60 40 10 10 10 220 60 40 10 10 10 10 10 10 10 10 10 184 88 40 10 10 10 10 10 10 10 10 10 10 10 10 112 144 40 10 10 10 10 10 10 10 10 10 112 144 40 10 10 10 10 10 10 10 10 10 10 10 10 10 10 10 10 10 10 76 172 40 10 10 10 10 10 10 10 10 10 10 10 10 10 10 10 10 10 10 148 116 40 220 60 40 220 60 40 220 60 40 220 60 40 220 60 40 220 60 40 220 60 40 10 10 10 184 88 40 220 60 40 220 60 40 220 60 40 10 10 10 184 88 40 220 60 40 10 10 10 220 60 40 10 10 10 184 88 40 220 60 40 10 10 10 10 10 10 10 10 10 148 116 40 10 10 10 10 10 10 10 10 10 10 10 10 10 10 10 112 144 40 10 10 10 10 10 10 10 10 10 10 10 10 10 10 10 10 10 10 10 10 10 10 10 10 10 10 10 10 10 10 10 10 10 
10 10 10 10 10 10 10 10 10 10 10 10 10 10 10 10 10 10 10 10 10 10 10 10 10 10 10 10 10 10 76 172 40 10 10 10 10 10 10 10 10 10 10 10 10 10 10 10 10 10 10 10 10 10 40 200 40 10 10 10 10 10 10 10 10 10 10 10 10 10 10 10 10 10 10 10 10 10 40 200 40 10 10 10 10 10 10 10 10 10 184 88 40 220 60 40 10 10 10 10 10 10 10 10 10 10 10 10 10 10 10 148 116 40 10 10 10 10 10 10 10 10 10 10 10 10 10 10 10 112 144 40 10 10 10 10 10 10 10 10 10 10 10 10 76 172 40 10 10 10 10 10 10 10 10 10 10 10 10 10 10 10 10 10 10 10 10 10 40 200 40 10 10 10 220 60 40 220 60 40 220 60 40 220 60 40 220 60 40 220 60 40 220 60 40 10 10 10 184 88 40 220 60 40 220 60 40 220 60 40 220 60 40 10 10 10 220 60 40 10 10 10 184 88 40 220 60 40 10 10 10 220 60 40 220 60 40 10 10 10 10 10 10 10 10 10 10 10 10 10 10 10 10 10 10 112 144 40 10 10 10 10 10 10 10 10 10 10 10 10 10 10 10 10 10 10 76 172 40 10 10 10 10 10 10 10 10 10 10 10 10 10 10 10 10 10 10 10 10 10 
10 10 10 10 10 10 10 10 10 10 10 10 10 10 10 10 10 10 10 10 10 10 10 10 10 10 10 10 10 10 10 10 10 10 10 10 10 10 10 10 10 10 10 10 10 40 200 40 10 10 10 10 10 10 10 10 10 10 10 10 10 10 10 10 10 10 10 10 10 40 200 40 10 10 10 10 10 10 10 10 10 10 10 10 148 116 40 10 10 10 220 60 40 10 10 10 184 88 40 10 10 10 10 10 10 10 10 10 10 10 10 10 10 10 10 10 10 10 10 10 112 144 40 10 10 10 10 10 10 10 10 10 10 10 10 10 10 10 10 10 10 76 172 40 10 10 10 10 10 10 10 10 10 10 10 10 10 10 10 40 200 40 10 10 10 10 10 10 10 10 10 184 88 40 220 60 40 220 60 40 220 60 40 220 60 40 220 60 40 220 60 40 10 10 10 184 88 40 220 60 40 220 60 40 220 60 40 220 60 40 10 10 10 184 88 40 220 60 40 10 10 10 220 60 40 10 10 10 184 88 40 220 60 40 220 60 40 10 10 10 10 10 10 10 10 10 10 10 10 10 10 10 10 10 10 10 10 10 10 10 10 10 10 10 10 10 10 76 172 40 10 10 10 10 10 10 10 10 10 10 10 10 10 10 10 10 10 10 76 172 40 10 10 10 10 10 10 10 10 10 
76 172 40 10 10 10 10 10 10 10 10 10 10 10 10 10 10 10 10 10 10 10 10 10 10 10 10 10 10 10 10 10 10 10 10 10 10 10 10 10 10 10 10 10 10 10 10 10 10 10 10 10 10 10 10 10 10 10 10 10 40 200 40 10 10 10 10 10 10 10 10 10 10 10 10 10 10 10 10 10 10 76 172 40 10 10 10 184 88 40 220 60 40 10 10 10 10 10 10 10 10 10 148 116 40 10 10 10 10 10 10 10 10 10 10 10 10 10 10 10 10 10 10 10 10 10 10 10 10 10 10 10 76 172 40 10 10 10 10 10 10 10 10 10 10 10 10 10 10 10 10 10 10 10 10 10 40 200 40 10 10 10 10 10 10 10 10 10 112 144 40 220 60 40 220 60 40 220 60 40 220 60 40 220 60 40 220 60 40 10 10 10 184 88 40 220 60 40 220 60 40 220 60 40 220 60 40 10 10 10 184 88 40 220 60 40 10 10 10 184 88 40 10 10 10 184 88 40 220 60 40 220 60 40 10 10 10 184 88 40 10 10 10 10 10 10 10 10 10 10 10 10 10 10 10 10 10 10 10 10 10 10 10 10 10 10 10 10 10 10 10 10 10 10 10 10 10 10 10 10 10 10 40 200 40 10 10 10 10 10 10 10 10 10 10 10 10 10 10 10 
10 10 10 10 10 10 10 10 10 10 10 10 10 10 10 40 200 40 10 10 10 10 10 10 10 10 10 10 10 10 10 10 10 10 10 10 10 10 10 10 10 10 10 10 10 10 10 10 10 10 10 10 10 10 10 10 10 10 10 10 10 10 10 10 10 10 10 10 10 10 10 10 10 10 10 40 200 40 10 10 10 10 10 10 184 88 40 220 60 40 10 10 10 184 88 40 10 10 10 10 10 10 10 10 10 10 10 10 10 10 10 112 144 40 10 10 10 10 10 10 10 10 10 10 10 10 10 10 10 10 10 10 10 10 10 10 10 10 10 10 10 10 10 10 10 10 10 40 200 40 10 10 10 10 10 10 10 10 10 10 10 10 10 10 10 112 144 40 220 60 40 220 60 40 220 60 40 220 60 40 220 60 40 220 60 40 10 10 10 184 88 40 220 60 40 220 60 40 220 60 40 220 60 40 10 10 10 184 88 40 220 60 40 10 10 10 184 88 40 10 10 10 184 88 40 220 60 40 220 60 40 10 10 10 184 88 40 10 10 10 184 88 40 10 10 10 10 10 10 10 10 10 10 10 10 10 10 10 10 10 10 10 10 10 10 10 10 10 10 10 10 10 10 10 10 10 10 10 10 10 10 10 10 10 10 10 10 10 10 10 10 10 10 10 10 10 10 40 200 40 
10 10 10 10 10 10 10 10 10 76 172 40 10 10 10 10 10 10 10 10 10 10 10 10 10 10 10 76 172 40 10 10 10 10 10 10 10 10 10 10 10 10 10 10 10 10 10 10 10 10 10 10 10 10 10 10 10 10 10 10 10 10 10 10 10 10 10 10 10 10 10 10 10 10 10 10 10 10 10 10 10 148 116 40 220 60 40 10 10 10 184 88 40 10 10 10 184 88 40 10 10 10 10 10 10 10 10 10 10 10 10 10 10 10 10 10 10 10 10 10 10 10 10 76 172 40 10 10 10 10 10 10 10 10 10 10 10 10 10 10 10 10 10 10 10 10 10 10 10 10 10 10 10 10 10 10 10 10 10 10 10 10 40 200 40 220 60 40 220 60 40 220 60 40 220 60 40 220 60 40 220 60 40 10 10 10 184 88 40 220 60 40 220 60 40 220 60 40 220 60 40 10 10 10 184 88 40 220 60 40 10 10 10 184 88 40 10 10 10 184 88 40 220 60 40 220 60 40 10 10 10 184 88 40 220 60 40 10 10 10 10 10 10 184 88 40 10 10 10 10 10 10 10 10 10 10 10 10 10 10 10 10 10 10 10 10 10 10 10 10 10 10 10 10 10 10 10 10 10 10 10 10 10 10 10 10 10 10 10 10 10 10 10 10 10 10 10 10 10 10 
10 10 10 10 10 10 10 10 10 10 10 10 10 10 10 10 10 10 10 10 10 10 10 10 40 200 40 10 10 10 10 10 10 10 10 10 10 10 10 10 10 10 40 200 40 10 10 10 10 10 10 10 10 10 10 10 10 10 10 10 10 10 10 10 10 10 10 10 10 10 10 10 10 10 10 10 10 10 10 10 10 220 60 40 10 10 10 184 88 40 220 60 40 10 10 10 10 10 10 10 10 10 148 116 40 10 10 10 10 10 10 10 10 10 10 10 10 10 10 10 10 10 10 10 10 10 10 10 10 10 10 10 10 10 10 10 10 10 40 200 40 10 10 10 10 10 10 10 10 10 10 10 10 10 10 10 10 10 10 10 10 10 220 60 40 220 60 40 220 60 40 220 60 40 220 60 40 220 60 40 220 60 40 10 10 10 220 60 40 220 60 40 220 60 40 220 60 40 10 10 10 184 88 40 220 60 40 10 10 10 184 88 40 10 10 10 184 88 40 220 60 40 220 60 40 10 10 10 184 88 40 220 60 40 10 10 10 184 88 40 10 10 10 10 10 10 184 88 40 10 10 10 10 10 10 10 10 10 10 10 10 10 10 10 10 10 10 10 10 10 10 10 10 10 10 10 10 10 10 10 10 10 10 10 10 10 10 10 10 10 10 10 10 10 10 10 10 10 10 10 
10 10 10 10 10 10 10 10 10 10 10 10 10 10 10 10 10 10 10 10 10 10 10 10 10 10 10 10 10 10 10 10 10 10 10 10 10 10 10 40 200 40 10 10 10 10 10 10 10 10 10 10 10 10 10 10 10 40 200 40 10 10 10 10 10 10 10 10 10 10 10 10 10 10 10 10 10 10 10 10 10 10 10 10 184 88 40 220 60 40 220 60 40 10 10 10 10 10 10 10 10 10 10 10 10 10 10 10 10 10 10 112 144 40 10 10 10 10 10 10 10 10 10 10 10 10 10 10 10 10 10 10 10 10 10 10 10 10 10 10 10 10 10 10 10 10 10 10 10 10 76 172 40 10 10 10 10 10 10 10 10 10 220 60 40 220 60 40 220 60 40 220 60 40 220 60 40 220 60 40 220 60 40 10 10 10 220 60 40 220 60 40 220 60 40 10 10 10 184 88 40 220 60 40 10 10 10 184 88 40 220 60 40 10 10 10 220 60 40 220 60 40 220 60 40 10 10 10 220 60 40 10 10 10 184 88 40 10 10 10 10 10 10 148 116 40 10 10 10 10 10 10 148 116 40 10 10 10 10 10 10 10 10 10 10 10 10 10 10 10 10 10 10 10 10 10 10 10 10 10 10 10 10 10 10 10 10 10 10 10 10 10 10 10 10 10 10 10 10 10 
10 10 10 10 10 10 10 10 10 10 10 10 10 10 10 10 10 10 10 10 10 10 10 10 10 10 10 10 10 10 10 10 10 10 10 10 10 10 10 10 10 10 10 10 10 10 10 10 10 10 10 10 10 10 40 200 40 10 10 10 10 10 10 10 10 10 10 10 10 10 10 10 40 200 40 10 10 10 10 10 10 10 10 10 220 60 40 220 60 40 10 10 10 184 88 40 10 10 10 10 10 10 10 10 10 10 10 10 10 10 10 10 10 10 10 10 10 10 10 10 10 10 10 76 172 40 10 10 10 10 10 10 10 10 10 10 10 10 10 10 10 10 10 10 10 10 10 10 10 10 10 10 10 10 10 10 148 116 40 10 10 10 220 60 40 220 60 40 220 60 40 220 60 40 220 60 40 220 60 40 220 60 40 10 10 10 220 60 40 220 60 40 10 10 10 184 88 40 220 60 40 10 10 10 184 88 40 220 60 40 220 60 40 10 10 10 220 60 40 220 60 40 10 10 10 184 88 40 10 10 10 184 88 40 10 10 10 10 10 10 148 116 40 10 10 10 184 88 40 10 10 10 10 10 10 10 10 10 10 10 10 112 144 40 10 10 10 10 10 10 10 10 10 10 10 10 10 10 10 10 10 10 10 10 10 10 10 10 10 10 10 10 10 10 10 10 10 10 10 10 
10 10 10 10 10 10 10 10 10 10 10 10 10 10 10 10 10 10 10 10 10 10 10 10 10 10 10 10 10 10 10 10 10 10 10 10 10 10 10 10 10 10 10 10 10 10 10 10 10 10 10 10 10 10 10 10 10 10 10 10 10 10 10 10 10 10 10 10 10 40 200 40 10 10 10 10 10 10 10 10 10 112 144 40 220 60 40 10 10 10 184 88 40 10 10 10 184 88 40 10 10 10 10 10 10 10 10 10 10 10 10 10 10 10 10 10 10 10 10 10 10 10 10 10 10 10 10 10 10 10 10 10 10 10 10 10 10 10 40 200 40 10 10 10 10 10 10 10 10 10 10 10 10 10 10 10 10 10 10 184 88 40 220 60 40 220 60 40 220 60 40 220 60 40 220 60 40 220 60 40 220 60 40 10 10 10 220 60 40 220 60 40 10 10 10 220 60 40 10 10 10 184 88 40 220 60 40 220 60 40 10 10 10 184 88 40 220 60 40 10 10 10 184 88 40 220 60 40 10 10 10 10 10 10 10 10 10 148 116 40 10 10 10 184 88 40 10 10 10 184 88 40 10 10 10 10 10 10 10 10 10 10 10 10 10 10 10 10 10 10 112 144 40 10 10 10 10 10 10 10 10 10 10 10 10 10 10 10 10 10 10 10 10 10 10 10 10 10 10 10 
10 10 10 10 10 10 10 10 10 10 10 10 10 10 10 10 10 10 10 10 10 10 10 10 10 10 10 10 10 10 10 10 10 10 10 10 10 10 10 10 10 10 10 10 10 10 10 10 10 10 10 10 10 10 10 10 10 10 10 10 10 10 10 10 10 10 10 10 10 10 10 10 10 10 10 10 10 10 112 144 40 220 60 40 220 60 40 10 10 10 220 60 40 10 10 10 10 10 10 10 10 10 148 116 40 10 10 10 10 10 10 10 10 10 10 10 10 10 10 10 10 10 10 10 10 10 10 10 10 10 10 10 10 10 10 10 10 10 10 10 10 10 10 10 10 10 10 10 10 10 10 10 10 40 200 40 10 10 10 220 60 40 220 60 40 220 60 40 220 60 40 220 60 40 220 60 40 220 60 40 10 10 10 184 88 40 220 60 40 10 10 10 184 88 40 10 10 10 184 88 40 220 60 40 220 60 40 220 60 40 10 10 10 220 60 40 10 10 10 184 88 40 220 60 40 220 60 40 10 10 10 10 10 10 10 10 10 220 60 40 10 10 10 220 60 40 10 10 10 10 10 10 10 10 10 148 116 40 10 10 10 10 10 10 10 10 10 10 10 10 10 10 10 10 10 10 10 10 10 10 10 10 76 172 40 10 10 10 10 10 10 10 10 10 10 10 10 10 10 10 
10 10 10 10 10 10 10 10 10 10 10 10 10 10 10 10 10 10 10 10 10 10 10 10 10 10 10 10 10 10 10 10 10 10 10 10 10 10 10 10 10 10 10 10 10 10 10 10 10 10 10 10 10 10 10 10 10 10 10 10 10 10 10 10 10 10 10 10 10 10 10 10 10 10 10 10 10 10 220 60 40 220 60 40 10 10 10 184 88 40 10 10 10 184 88 40 10 10 10 10 10 10 10 10 10 10 10 10 10 10 10 112 144 40 10 10 10 10 10 10 10 10 10 10 10 10 10 10 10 10 10 10 10 10 10 10 10 10 10 10 10 10 10 10 10 10 10 10 10 10 10 10 10 10 10 10 184 88 40 220 60 40 220 60 40 220 60 40 220 60 40 220 60 40 220 60 40 220 60 40 10 10 10 220 60 40 10 10 10 184 88 40 220 60 40 10 10 10 220 60 40 220 60 40 220 60 40 220 60 40 10 10 10 10 10 10 184 88 40 220 60 40 220 60 40 220 60 40 10 10 10 10 10 10 10 10 10 10 10 10 184 88 40 220 60 40 10 10 10 10 10 10 10 10 10 10 10 10 10 10 10 10 10 10 112 144 40 10 10 10 10 10 10 10 10 10 10 10 10 10 10 10 10 10 10 10 10 10 10 10 10 10 10 10 10 10 10 40 200 40 
10 10 10 10 10 10 10 10 10 10 10 10 40 200 40 10 10 10 10 10 10 10 10 10 10 10 10 10 10 10 10 10 10 10 10 10 10 10 10 10 10 10 10 10 10 10 10 10 10 10 10 10 10 10 10 10 10 10 10 10 10 10 10 10 10 10 10 10 10 10 10 10 10 10 10 10 10 10 220 60 40 10 10 10 184 88 40 10 10 10 184 88 40 10 10 10 10 10 10 148 116 40 10 10 10 10 10 10 10 10 10 10 10 10 10 10 10 10 10 10 10 10 10 76 172 40 10 10 10 10 10 10 10 10 10 10 10 10 10 10 10 10 10 10 10 10 10 10 10 10 10 10 10 10 10 10 220 60 40 220 60 40 220 60 40 220 60 40 220 60 40 220 60 40 220 60 40 220 60 40 10 10 10 220 60 40 10 10 10 220 60 40 10 10 10 184 88 40 220 60 40 220 60 40 220 60 40 10 10 10 184 88 40 10 10 10 220 60 40 220 60 40 220 60 40 10 10 10 184 88 40 10 10 10 10 10 10 10 10 10 220 60 40 220 60 40 10 10 10 10 10 10 10 10 10 10 10 10 10 10 10 10 10 10 10 10 10 10 10 10 10 10 10 10 10 10 76 172 40 10 10 10 10 10 10 10 10 10 10 10 10 10 10 10 10 10 10 10 10 10 
10 10 10 10 10 10 10 10 10 10 10 10 10 10 10 10 10 10 10 10 10 10 10 10 10 10 10 40 200 40 10 10 10 10 10 10 10 10 10 10 10 10 10 10 10 10 10 10 10 10 10 10 10 10 10 10 10 10 10 10 10 10 10 10 10 10 10 10 10 10 10 10 10 10 10 10 10 10 220 60 40 10 10 10 10 10 10 184 88 40 10 10 10 10 10 10 148 116 40 10 10 10 10 10 10 10 10 10 112 144 40 10 10 10 10 10 10 10 10 10 10 10 10 10 10 10 10 10 10 10 10 10 10 10 10 76 172 40 10 10 10 10 10 10 10 10 10 10 10 10 10 10 10 10 10 10 220 60 40 220 60 40 220 60 40 220 60 40 220 60 40 220 60 40 220 60 40 220 60 40 10 10 10 10 10 10 184 88 40 10 10 10 184 88 40 220 60 40 220 60 40 220 60 40 220 60 40 10 10 10 10 10 10 184 88 40 220 60 40 220 60 40 10 10 10 184 88 40 10 10 10 10 10 10 148 116 40 10 10 10 220 60 40 220 60 40 10 10 10 10 10 10 10 10 10 10 10 10 10 10 10 10 10 10 10 10 10 10 10 10 10 10 10 10 10 10 10 10 10 10 10 10 10 10 10 10 10 10 10 10 10 40 200 40 10 10 10 10 10 10 
10 10 10 10 10 10 40 200 40 10 10 10 10 10 10 10 10 10 10 10 10 10 10 10 10 10 10 10 10 10 10 10 10 10 10 10 10 10 10 76 172 40 10 10 10 10 10 10 10 10 10 10 10 10 10 10 10 10 10 10 10 10 10 10 10 10 10 10 10 10 10 10 10 10 10 10 10 10 10 10 10 184 88 40 10 10 10 10 10 10 184 88 40 10 10 10 10 10 10 10 10 10 10 10 10 112 144 40 10 10 10 10 10 10 10 10 10 10 10 10 76 172 40 10 10 10 10 10 10 10 10 10 10 10 10 10 10 10 10 10 10 10 10 10 10 10 10 10 10 10 40 200 40 10 10 10 220 60 40 220 60 40 220 60 40 220 60 40 220 60 40 220 60 40 220 60 40 220 60 40 10 10 10 10 10 10 220 60 40 10 10 10 220 60 40 220 60 40 220 60 40 220 60 40 220 60 40 10 10 10 10 10 10 220 60 40 220 60 40 10 10 10 184 88 40 10 10 10 10 10 10 148 116 40 10 10 10 184 88 40 220 60 40 10 10 10 184 88 40 10 10 10 10 10 10 10 10 10 10 10 10 10 10 10 10 10 10 10 10 10 10 10 10 10 10 10 10 10 10 10 10 10 10 10 10 10 10 10 10 10 10 10 10 10 10 10 10 10 10 10 
10 10 10 10 10 10 10 10 10 10 10 10 10 10 10 10 10 10 10 10 10 40 200 40 10 10 10 10 10 10 10 10 10 10 10 10 10 10 10 10 10 10 10 10 10 10 10 10 10 10 10 10 10 10 40 200 40 10 10 10 10 10 10 10 10 10 10 10 10 10 10 10 10 10 10 10 10 10 10 10 10 10 10 10 10 10 10 148 116 40 10 10 10 10 10 10 148 116 40 10 10 10 10 10 10 10 10 10 10 10 10 10 10 10 10 10 10 76 172 40 10 10 10 10 10 10 10 10 10 10 10 10 76 172 40 10 10 10 10 10 10 10 10 10 10 10 10 10 10 10 10 10 10 184 88 40 220 60 40 220 60 40 220 60 40 220 60 40 220 60 40 220 60 40 220 60 40 10 10 10 184 88 40 10 10 10 10 10 10 184 88 40 220 60 40 220 60 40 220 60 40 220 60 40 10 10 10 184 88 40 10 10 10 220 60 40 220 60 40 10 10 10 10 10 10 10 10 10 148 116 40 10 10 10 184 88 40 220 60 40 220 60 40 10 10 10 10 10 10 10 10 10 148 116 40 10 10 10 10 10 10 10 10 10 10 10 10 10 10 10 10 10 10 10 10 10 10 10 10 10 10 10 10 10 10 10 10 10 10 10 10 10 10 10 10 10 10 10 10 10 
10 10 10 10 10 10 10 10 10 10 10 10 10 10 10 10 10 10 10 10 10 10 10 10 10 10 10 10 10 10 10 10 10 10 10 10 40 200 40 10 10 10 10 10 10 10 10 10 10 10 10 10 10 10 10 10 10 10 10 10 10 10 10 10 10 10 10 10 10 40 200 40 10 10 10 10 10 10 10 10 10 10 10 10 10 10 10 10 10 10 10 10 10 148 116 40 10 10 10 10 10 10 148 116 40 10 10 10 10 10 10 10 10 10 10 10 10 10 10 10 10 10 10 10 10 10 10 10 10 76 172 40 10 10 10 10 10 10 10 10 10 10 10 10 10 10 10 40 200 40 10 10 10 220 60 40 220 60 40 220 60 40 220 60 40 220 60 40 220 60 40 220 60 40 10 10 10 184 88 40 10 10 10 184 88 40 10 10 10 220 60 40 220 60 40 220 60 40 220 60 40 220 60 40 10 10 10 10 10 10 184 88 40 220 60 40 220 60 40 10 10 10 10 10 10 10 10 10 10 10 10 184 88 40 220 60 40 220 60 40 10 10 10 184 88 40 10 10 10 10 10 10 10 10 10 10 10 10 10 10 10 112 144 40 10 10 10 10 10 10 10 10 10 10 10 10 10 10 10 10 10 10 10 10 10 10 10 10 10 10 10 10 10 10 10 10 10 10 10 10 
10 10 10 10 10 10 10 10 10 10 10 10 10 10 10 10 10 10 10 10 10 10 10 10 10 10 10 10 10 10 10 10 10 10 10 10 10 10 10 10 10 10 10 10 10 10 10 10 10 10 10 40 200 40 10 10 10 10 10 10 10 10 10 10 10 10 10 10 10 10 10 10 10 10 10 10 10 10 10 10 10 10 10 10 40 200 40 10 10 10 10 10 10 10 10 10 10 10 10 148 116 40 10 10 10 10 10 10 10 10 10 112 144 40 10 10 10 10 10 10 10 10 10 10 10 10 10 10 10 10 10 10 10 10 10 10 10 10 10 10 10 76 172 40 10 10 10 10 10 10 184 88 40 220 60 40 220 60 40 220 60 40 220 60 40 220 60 40 220 60 40 220 60 40 10 10 10 10 10 10 184 88 40 10 10 10 184 88 40 220 60 40 220 60 40 220 60 40 220 60 40 10 10 10 184 88 40 10 10 10 220 60 40 220 60 40 10 10 10 184 88 40 10 10 10 10 10 10 10 10 10 220 60 40 220 60 40 10 10 10 184 88 40 10 10 10 184 88 40 10 10 10 10 10 10 10 10 10 10 10 10 10 10 10 10 10 10 10 10 10 112 144 40 10 10 10 10 10 10 10 10 10 10 10 10 10 10 10 10 10 10 10 10 10 10 10 10 10 10 10 
10 10 10 10 10 10 10 10 10 10 10 10 10 10 10 10 10 10 10 10 10 10 10 10 10 10 10 10 10 10 10 10 10 10 10 10 10 10 10 10 10 10 10 10 10 10 10 10 10 10 10 10 10 10 10 10 10 10 10 10 10 10 10 76 172 40 10 10 10 10 10 10 10 10 10 10 10 10 10 10 10 10 10 10 10 10 10 10 10 10 10 10 10 10 10 10 76 172 40 10 10 10 10 10 10 10 10 10 112 144 40 10 10 10 10 10 10 10 10 10 10 10 10 76 172 40 10 10 10 10 10 10 10 10 10 10 10 10 10 10 10 10 10 10 10 10 10 148 116 40 220 60 40 220 60 40 220 60 40 220 60 40 220 60 40 220 60 40 220 60 40 10 10 10 184 88 40 10 10 10 10 10 10 184 88 40 220 60 40 220 60 40 220 60 40 220 60 40 10 10 10 184 88 40 10 10 10 184 88 40 220 60 40 10 10 10 184 88 40 10 10 10 10 10 10 148 116 40 10 10 10 220 60 40 10 10 10 184 88 40 10 10 10 184 88 40 10 10 10 10 10 10 148 116 40 10 10 10 10 10 10 10 10 10 10 10 10 10 10 10 10 10 10 10 10 10 10 10 10 112 144 40 10 10 10 10 10 10 10 10 10 10 10 10 10 10 10 10 10 10 
10 10 10 10 10 10 10 10 10 10 10 10 10 10 10 10 10 10 10 10 10 10 10 10 10 10 10 10 10 10 10 10 10 10 10 10 10 10 10 10 10 10 10 10 10 10 10 10 10 10 10 10 10 10 10 10 10 10 10 10 10 10 10 10 10 10 10 10 10 10 10 10 10 10 10 10 10 10 40 200 40 10 10 10 10 10 10 10 10 10 10 10 10 10 10 10 10 10 10 10 10 10 148 116 40 10 10 10 10 10 10 10 10 10 10 10 10 10 10 10 76 172 40 10 10 10 10 10 10 10 10 10 10 10 10 76 172 40 10 10 10 10 10 10 10 10 10 220 60 40 220 60 40 220 60 40 220 60 40 220 60 40 220 60 40 220 60 40 10 10 10 184 88 40 10 10 10 10 10 10 148 116 40 220 60 40 220 60 40 220 60 40 220 60 40 10 10 10 184 88 40 10 10 10 184 88 40 220 60 40 220 60 40 10 10 10 10 10 10 10 10 10 148 116 40 10 10 10 184 88 40 220 60 40 10 10 10 10 10 10 184 88 40 10 10 10 10 10 10 148 116 40 10 10 10 10 10 10 10 10 10 112 144 40 10 10 10 10 10 10 10 10 10 10 10 10 10 10 10 10 10 10 10 10 10 10 10 10 10 10 10 76 172 40 10 10 10 10 10 10 
10 10 10 10 10 10 40 200 40 10 10 10 10 10 10 10 10 10 10 10 10 10 10 10 10 10 10 10 10 10 10 10 10 10 10 10 10 10 10 10 10 10 10 10 10 10 10 10 10 10 10 10 10 10 10 10 10 10 10 10 10 10 10 10 10 10 10 10 10 10 10 10 10 10 10 10 10 10 10 10 10 10 10 10 10 10 10 10 10 10 10 10 10 40 200 40 10 10 10 10 10 10 10 10 10 10 10 10 10 10 10 112 144 40 10 10 10 10 10 10 10 10 10 10 10 10 10 10 10 112 144 40 10 10 10 10 10 10 10 10 10 148 116 40 10 10 10 220 60 40 220 60 40 220 60 40 220 60 40 220 60 40 220 60 40 10 10 10 184 88 40 10 10 10 10 10 10 148 116 40 220 60 40 220 60 40 220 60 40 220 60 40 10 10 10 184 88 40 220 60 40 10 10 10 220 60 40 220 60 40 10 10 10 184 88 40 10 10 10 10 10 10 10 10 10 184 88 40 220 60 40 10 10 10 184 88 40 10 10 10 10 10 10 184 88 40 10 10 10 10 10 10 10 10 10 10 10 10 112 144 40 10 10 10 10 10 10 10 10 10 10 10 10 76 172 40 10 10 10 10 10 10 10 10 10 10 10 10 10 10 10 10 10 10 10 10 10 10 10 10 
10 10 10 10 10 10 10 10 10 10 10 10 10 10 10 10 10 10 76 172 40 10 10 10 10 10 10 10 10 10 10 10 10 10 10 10 10 10 10 10 10 10 10 10 10 10 10 10 10 10 10 10 10 10 10 10 10 10 10 10 10 10 10 10 10 10 10 10 10 10 10 10 10 10 10 10 10 10 10 10 10 10 10 10 10 10 10 10 10 10 10 10 10 10 10 10 10 10 10 10 10 10 10 10 10 76 172 40 10 10 10 10 10 10 10 10 10 10 10 10 10 10 10 76 172 40 10 10 10 10 10 10 10 10 10 10 10 10 112 144 40 10 10 10 184 88 40 220 60 40 220 60 40 220 60 40 220 60 40 220 60 40 220 60 40 10 10 10 10 10 10 184 88 40 10 10 10 220 60 40 220 60 40 220 60 40 220 60 40 10 10 10 184 88 40 220 60 40 10 10 10 184 88 40 220 60 40 220 60 40 10 10 10 10 10 10 10 10 10 148 116 40 10 10 10 220 60 40 10 10 10 184 88 40 10 10 10 10 10 10 148 116 40 10 10 10 10 10 10 148 116 40 10 10 10 10 10 10 10 10 10 10 10 10 10 10 10 10 10 10 76 172 40 10 10 10 10 10 10 10 10 10 10 10 10 10 10 10 40 200 40 10 10 10 10 10 10 10 10 10 
10 10 10 40 200 40 10 10 10 10 10 10 10 10 10 10 10 10 10 10 10 10 10 10 10 10 10 10 10 10 10 10 10 40 200 40 10 10 10 10 10 10 10 10 10 10 10 10 10 10 10 10 10 10 10 10 10 10 10 10 10 10 10 10 10 10 10 10 10 10 10 10 10 10 10 10 10 10 10 10 10 10 10 10 10 10 10 10 10 10 10 10 10 10 10 10 10 10 10 10 10 10 10 10 10 10 10 10 10 10 10 10 10 10 10 10 10 10 10 10 40 200 40 10 10 10 10 10 10 10 10 10 10 10 10 76 172 40 10 10 10 184 88 40 220 60 40 220 60 40 220 60 40 220 60 40 220 60 40 220 60 40 10 10 10 184 88 40 10 10 10 10 10 10 184 88 40 220 60 40 220 60 40 220 60 40 10 10 10 184 88 40 220 60 40 220 60 40 10 10 10 220 60 40 220 60 40 10 10 10 184 88 40 10 10 10 10 10 10 10 10 10 184 88 40 10 10 10 184 88 40 10 10 10 10 10 10 148 116 40 10 10 10 184 88 40 10 10 10 10 10 10 10 10 10 10 10 10 112 144 40 10 10 10 10 10 10 10 10 10 10 10 10 10 10 10 10 10 10 10 10 10 10 10 10 40 200 40 10 10 10 10 10 10 10 10 10 10 10 10 
40 200 40 10 10 10 10 10 10 10 10 10 10 10 10 10 10 10 40 200 40 10 10 10 10 10 10 10 10 10 10 10 10 10 10 10 10 10 10 10 10 10 10 10 10 76 172 40 10 10 10 10 10 10 10 10 10 10 10 10 10 10 10 10 10 10 10 10 10 10 10 10 10 10 10 10 10 10 10 10 10 10 10 10 10 10 10 10 10 10 10 10 10 10 10 10 10 10 10 10 10 10 10 10 10 10 10 10 10 10 10 10 10 10 10 10 10 10 10 10 10 10 10 10 10 10 10 10 10 10 10 10 76 172 40 10 10 10 184 88 40 220 60 40 220 60 40 220 60 40 220 60 40 220 60 40 220 60 40 220 60 40 10 10 10 10 10 10 10 10 10 148 116 40 220 60 40 220 60 40 220 60 40 10 10 10 184 88 40 220 60 40 220 60 40 10 10 10 184 88 40 220 60 40 220 60 40 10 10 10 10 10 10 184 88 40 10 10 10 10 10 10 220 60 40 10 10 10 10 10 10 10 10 10 148 116 40 220 60 40 10 10 10 10 10 10 10 10 10 148 116 40 10 10 10 10 10 10 10 10 10 10 10 10 10 10 10 10 10 10 76 172 40 10 10 10 10 10 10 10 10 10 10 10 10 10 10 10 10 10 10 10 10 10 10 10 10 10 10 10 
10 10 10 10 10 10 10 10 10 10 10 10 10 10 10 40 200 40 10 10 10 10 10 10 10 10 10 10 10 10 76 172 40 10 10 10 10 10 10 10 10 10 10 10 10 10 10 10 10 10 10 10 10 10 10 10 10 10 10 10 40 200 40 10 10 10 10 10 10 10 10 10 10 10 10 10 10 10 10 10 10 10 10 10 10 10 10 10 10 10 10 10 10 10 10 10 10 10 10 10 10 10 10 10 10 10 10 10 10 10 10 10 10 10 10 10 10 10 10 10 10 10 10 10 10 10 10 10 10 10 10 10 10 10 10 184 88 40 220 60 40 220 60 40 220 60 40 220 60 40 220 60 40 220 60 40 220 60 40 10 10 10 184 88 40 10 10 10 10 10 10 220 60 40 220 60 40 220 60 40 10 10 10 184 88 40 220 60 40 220 60 40 10 10 10 184 88 40 220 60 40 220 60 40 220 60 40 10 10 10 10 10 10 10 10 10 10 10 10 148 116 40 220 60 40 10 10 10 10 10 10 10 10 10 220 60 40 220 60 40 10 10 10 10 10 10 10 10 10 10 10 10 10 10 10 10 10 10 112 144 40 10 10 10 10 10 10 10 10 10 10 10 10 10 10 10 10 10 10 10 10 10 76 172 40 10 10 10 10 10 10 10 10 10 10 10 10 10 10 10 
10 10 10 10 10 10 10 10 10 10 10 10 10 10 10 10 10 10 10 10 10 10 10 10 112 144 40 10 10 10 10 10 10 10 10 10 10 10 10 10 10 10 10 10 10 40 200 40 10 10 10 10 10 10 10 10 10 10 10 10 10 10 10 10 10 10 10 10 10 10 10 10 10 10 10 40 200 40 10 10 10 10 10 10 10 10 10 10 10 10 10 10 10 10 10 10 10 10 10 10 10 10 10 10 10 10 10 10 10 10 10 10 10 10 10 10 10 10 10 10 10 10 10 10 10 10 10 10 10 10 10 10 10 10 10 220 60 40 220 60 40 220 60 40 220 60 40 220 60 40 220 60 40 220 60 40 10 10 10 184 88 40 10 10 10 184 88 40 10 10 10 220 60 40 220 60 40 10 10 10 184 88 40 220 60 40 220 60 40 220 60 40 10 10 10 220 60 40 220 60 40 220 60 40 220 60 40 10 10 10 10 10 10 10 10 10 10 10 10 220 60 40 10 10 10 184 88 40 10 10 10 10 10 10 220 60 40 10 10 10 184 88 40 10 10 10 10 10 10 10 10 10 10 10 10 10 10 10 10 10 10 10 10 10 10 10 10 10 10 10 76 172 40 10 10 10 10 10 10 10 10 10 10 10 10 10 10 10 10 10 10 10 10 10 76 172 40 10 10 10 
10 10 10 10 10 10 10 10 10 40 200 40 10 10 10 10 10 10 10 10 10 10 10 10 10 10 10 10 10 10 10 10 10 10 10 10 76 172 40 10 10 10 10 10 10 10 10 10 10 10 10 10 10 10 10 10 10 10 10 10 40 200 40 10 10 10 10 10 10 10 10 10 10 10 10 10 10 10 10 10 10 10 10 10 10 10 10 10 10 10 40 200 40 10 10 10 10 10 10 10 10 10 10 10 10 10 10 10 10 10 10 10 10 10 10 10 10 10 10 10 10 10 10 10 10 10 10 10 10 10 10 10 10 10 10 220 60 40 220 60 40 220 60 40 220 60 40 220 60 40 220 60 40 10 10 10 184 88 40 220 60 40 10 10 10 220 60 40 10 10 10 220 60 40 10 10 10 184 88 40 220 60 40 220 60 40 220 60 40 10 10 10 184 88 40 220 60 40 220 60 40 220 60 40 10 10 10 184 88 40 10 10 10 10 10 10 10 10 10 10 10 10 184 88 40 10 10 10 10 10 10 148 116 40 10 10 10 184 88 40 10 10 10 10 10 10 148 116 40 10 10 10 10 10 10 10 10 10 10 10 10 10 10 10 10 10 10 10 10 10 10 10 10 10 10 10 10 10 10 10 10 10 10 10 10 40 200 40 10 10 10 10 10 10 10 10 10 10 10 10 
40 200 40 10 10 10 10 10 10 10 10 10 10 10 10 10 10 10 10 10 10 76 172 40 10 10 10 10 10 10 10 10 10 10 10 10 10 10 10 10 10 10 10 10 10 10 10 10 10 10 10 40 200 40 10 10 10 10 10 10 10 10 10 10 10 10 10 10 10 10 10 10 76 172 40 10 10 10 10 10 10 10 10 10 10 10 10 10 10 10 10 10 10 10 10 10 10 10 10 10 10 10 76 172 40 10 10 10 10 10 10 10 10 10 10 10 10 10 10 10 10 10 10 10 10 10 10 10 10 10 10 10 10 10 10 220 60 40 220 60 40 220 60 40 220 60 40 220 60 40 10 10 10 184 88 40 220 60 40 10 10 10 184 88 40 220 60 40 10 10 10 10 10 10 184 88 40 220 60 40 220 60 40 220 60 40 10 10 10 184 88 40 220 60 40 220 60 40 220 60 40 220 60 40 10 10 10 10 10 10 10 10 10 148 116 40 10 10 10 10 10 10 10 10 10 184 88 40 10 10 10 10 10 10 184 88 40 10 10 10 10 10 10 148 116 40 10 10 10 10 10 10 148 116 40 10 10 10 10 10 10 10 10 10 10 10 10 10 10 10 10 10 10 10 10 10 10 10 10 10 10 10 10 10 10 10 10 10 10 10 10 10 10 10 10 10 10 10 10 10 
10 10 10 10 10 10 10 10 10 10 10 10 76 172 40 10 10 10 10 10 10 10 10 10 10 10 10 10 10 10 10 10 10 10 10 10 40 200 40 10 10 10 10 10 10 10 10 10 10 10 10 10 10 10 10 10 10 10 10 10 10 10 10 76 172 40 10 10 10 10 10 10 10 10 10 10 10 10 10 10 10 10 10 10 10 10 10 40 200 40 10 10 10 10 10 10 10 10 10 10 10 10 10 10 10 10 10 10 10 10 10 10 10 10 10 10 10 40 200 40 10 10 10 10 10 10 10 10 10 10 10 10 10 10 10 220 60 40 220 60 40 220 60 40 220 60 40 10 10 10 184 88 40 220 60 40 10 10 10 184 88 40 220 60 40 220 60 40 10 10 10 10 10 10 220 60 40 220 60 40 220 60 40 10 10 10 184 88 40 220 60 40 220 60 40 220 60 40 220 60 40 220 60 40 10 10 10 10 10 10 10 10 10 10 10 10 10 10 10 148 116 40 10 10 10 10 10 10 10 10 10 148 116 40 10 10 10 10 10 10 148 116 40 10 10 10 10 10 10 148 116 40 10 10 10 10 10 10 10 10 10 112 144 40 10 10 10 10 10 10 10 10 10 10 10 10 10 10 10 10 10 10 10 10 10 10 10 10 10 10 10 10 10 10 10 10 10 10 10 10 
10 10 10 10 10 10 10 10 10 10 10 10 10 10 10 10 10 10 10 10 10 10 10 10 10 10 10 40 200 40 10 10 10 10 10 10 10 10 10 10 10 10 10 10 10 10 10 10 10 10 10 40 200 40 10 10 10 10 10 10 10 10 10 10 10 10 10 10 10 10 10 10 10 10 10 10 10 10 40 200 40 10 10 10 10 10 10 10 10 10 10 10 10 10 10 10 10 10 10 10 10 10 40 200 40 10 10 10 10 10 10 10 10 10 10 10 10 10 10 10 10 10 10 10 10 10 10 10 10 10 10 10 40 200 40 220 60 40 220 60 40 220 60 40 10 10 10 184 88 40 220 60 40 10 10 10 184 88 40 220 60 40 220 60 40 10 10 10 184 88 40 10 10 10 220 60 40 220 60 40 10 10 10 184 88 40 220 60 40 220 60 40 220 60 40 220 60 40 220 60 40 10 10 10 184 88 40 10 10 10 10 10 10 10 10 10 10 10 10 10 10 10 10 10 10 10 10 10 112 144 40 10 10 10 10 10 10 148 116 40 10 10 10 184 88 40 10 10 10 10 10 10 10 10 10 10 10 10 112 144 40 10 10 10 10 10 10 10 10 10 112 144 40 10 10 10 10 10 10 10 10 10 10 10 10 10 10 10 10 10 10 10 10 10 10 10 10 10 10 10 
10 10 10 10 10 10 10 10 10 10 10 10 10 10 10 10 10 10 10 10 10 10 10 10 10 10 10 10 10 10 10 10 10 10 10 10 10 10 10 10 10 10 40 200 40 10 10 10 10 10 10 10 10 10 10 10 10 10 10 10 10 10 10 10 10 10 40 200 40 10 10 10 10 10 10 10 10 10 10 10 10 10 10 10 10 10 10 10 10 10 10 10 10 40 200 40 10 10 10 10 10 10 10 10 10 10 10 10 10 10 10 10 10 10 10 10 10 40 200 40 10 10 10 10 10 10 10 10 10 10 10 10 220 60 40 220 60 40 220 60 40 10 10 10 184 88 40 220 60 40 10 10 10 184 88 40 220 60 40 220 60 40 10 10 10 184 88 40 220 60 40 10 10 10 220 60 40 220 60 40 10 10 10 220 60 40 220 60 40 220 60 40 220 60 40 220 60 40 10 10 10 184 88 40 10 10 10 10 10 10 148 116 40 10 10 10 10 10 10 10 10 10 10 10 10 10 10 10 10 10 10 184 88 40 10 10 10 220 60 40 10 10 10 10 10 10 10 10 10 148 116 40 10 10 10 10 10 10 10 10 10 10 10 10 10 10 10 112 144 40 10 10 10 10 10 10 10 10 10 10 10 10 76 172 40 10 10 10 10 10 10 10 10 10 10 10 10 10 10 10 
10 10 10 10 10 10 10 10 10 10 10 10 10 10 10 10 10 10 10 10 10 10 10 10 10 10 10 10 10 10 10 10 10 10 10 10 10 10 10 10 10 10 10 10 10 10 10 10 10 10 10 10 10 10 76 172 40 10 10 10 10 10 10 10 10 10 10 10 10 10 10 10 10 10 10 10 10 10 10 10 10 40 200 40 10 10 10 10 10 10 10 10 10 10 10 10 10 10 10 10 10 10 10 10 10 10 10 10 40 200 40 10 10 10 10 10 10 10 10 10 10 10 10 10 10 10 10 10 10 76 172 40 220 60 40 220 60 40 220 60 40 10 10 10 220 60 40 10 10 10 184 88 40 220 60 40 220 60 40 220 60 40 10 10 10 220 60 40 220 60 40 10 10 10 220 60 40 10 10 10 184 88 40 220 60 40 220 60 40 220 60 40 220 60 40 220 60 40 10 10 10 10 10 10 10 10 10 148 116 40 10 10 10 10 10 10 148 116 40 10 10 10 10 10 10 10 10 10 10 10 10 220 60 40 10 10 10 10 10 10 184 88 40 10 10 10 10 10 10 10 10 10 10 10 10 10 10 10 112 144 40 10 10 10 10 10 10 10 10 10 10 10 10 10 10 10 112 144 40 10 10 10 10 10 10 10 10 10 10 10 10 10 10 10 10 10 10 40 200 40 
10 10 10 10 10 10 10 10 10 10 10 10 40 200 40 10 10 10 10 10 10 10 10 10 10 10 10 10 10 10 10 10 10 10 10 10 10 10 10 10 10 10 10 10 10 10 10 10 10 10 10 10 10 10 10 10 10 10 10 10 10 10 10 10 10 10 10 10 10 40 200 40 10 10 10 10 10 10 10 10 10 10 10 10 10 10 10 10 10 10 10 10 10 10 10 10 40 200 40 10 10 10 10 10 10 10 10 10 10 10 10 10 10 10 10 10 10 10 10 10 10 10 10 40 200 40 10 10 10 220 60 40 220 60 40 220 60 40 10 10 10 184 88 40 10 10 10 184 88 40 220 60 40 220 60 40 220 60 40 220 60 40 10 10 10 220 60 40 10 10 10 184 88 40 10 10 10 184 88 40 220 60 40 220 60 40 220 60 40 220 60 40 220 60 40 10 10 10 184 88 40 10 10 10 10 10 10 10 10 10 184 88 40 10 10 10 10 10 10 10 10 10 148 116 40 10 10 10 10 10 10 220 60 40 10 10 10 10 10 10 10 10 10 10 10 10 148 116 40 10 10 10 10 10 10 10 10 10 10 10 10 10 10 10 10 10 10 10 10 10 76 172 40 10 10 10 10 10 10 10 10 10 10 10 10 112 144 40 10 10 10 10 10 10 10 10 10 10 10 10 
10 10 10 10 10 10 10 10 10 10 10 10 10 10 10 10 10 10 10 10 10 10 10 10 10 10 10 40 200 40 10 10 10 10 10 10 10 10 10 10 10 10 10 10 10 10 10 10 10 10 10 10 10 10 10 10 10 10 10 10 10 10 10 10 10 10 10 10 10 10 10 10 10 10 10 10 10 10 10 10 10 76 172 40 10 10 10 10 10 10 10 10 10 10 10 10 10 10 10 10 10 10 10 10 10 10 10 10 10 10 10 40 200 40 10 10 10 10 10 10 10 10 10 10 10 10 184 88 40 220 60 40 220 60 40 10 10 10 184 88 40 10 10 10 184 88 40 220 60 40 220 60 40 220 60 40 220 60 40 10 10 10 184 88 40 10 10 10 184 88 40 10 10 10 184 88 40 220 60 40 220 60 40 220 60 40 220 60 40 220 60 40 220 60 40 10 10 10 10 10 10 10 10 10 148 116 40 10 10 10 10 10 10 184 88 40 10 10 10 10 10 10 10 10 10 10 10 10 148 116 40 220 60 40 10 10 10 10 10 10 10 10 10 10 10 10 10 10 10 10 10 10 148 116 40 10 10 10 10 10 10 10 10 10 10 10 10 10 10 10 10 10 10 10 10 10 10 10 10 10 10 10 76 172 40 10 10 10 10 10 10 10 10 10 10 10 10 76 172 40 
10 10 10 10 10 10 10 10 10 10 10 10 40 200 40 10 10 10 10 10 10 10 10 10 10 10 10 10 10 10 10 10 10 10 10 10 10 10 10 76 172 40 10 10 10 10 10 10 10 10 10 10 10 10 10 10 10 10 10 10 10 10 10 10 10 10 10 10 10 10 10 10 10 10 10 10 10 10 10 10 10 10 10 10 10 10 10 10 10 10 10 10 10 76 172 40 10 10 10 10 10 10 10 10 10 10 10 10 10 10 10 10 10 10 10 10 10 10 10 10 10 10 10 76 172 40 220 60 40 220 60 40 10 10 10 184 88 40 10 10 10 184 88 40 220 60 40 220 60 40 220 60 40 220 60 40 10 10 10 184 88 40 10 10 10 184 88 40 220 60 40 10 10 10 220 60 40 220 60 40 220 60 40 220 60 40 220 60 40 220 60 40 220 60 40 10 10 10 10 10 10 10 10 10 10 10 10 10 10 10 148 116 40 10 10 10 10 10 10 148 116 40 10 10 10 10 10 10 220 60 40 220 60 40 10 10 10 10 10 10 10 10 10 10 10 10 10 10 10 10 10 10 10 10 10 10 10 10 10 10 10 112 144 40 10 10 10 10 10 10 10 10 10 10 10 10 10 10 10 10 10 10 10 10 10 10 10 10 10 10 10 112 144 40 10 10 10 10 10 10 
112 144 40 10 10 10 10 10 10 10 10 10 10 10 10 10 10 10 10 10 10 10 10 10 10 10 10 40 200 40 10 10 10 10 10 10 10 10 10 10 10 10 10 10 10 10 10 10 10 10 10 10 10 10 40 200 40 10 10 10 10 10 10 10 10 10 10 10 10 10 10 10 10 10 10 10 10 10 10 10 10 10 10 10 10 10 10 10 10 10 10 10 10 10 10 10 10 10 10 10 10 10 10 10 10 10 10 10 40 200 40 10 10 10 10 10 10 10 10 10 10 10 10 220 60 40 220 60 40 10 10 10 184 88 40 10 10 10 184 88 40 220 60 40 220 60 40 220 60 40 220 60 40 220 60 40 10 10 10 10 10 10 184 88 40 220 60 40 10 10 10 184 88 40 220 60 40 220 60 40 220 60 40 220 60 40 220 60 40 220 60 40 220 60 40 10 10 10 10 10 10 10 10 10 10 10 10 10 10 10 10 10 10 10 10 10 148 116 40 10 10 10 10 10 10 148 116 40 220 60 40 220 60 40 10 10 10 10 10 10 10 10 10 10 10 10 10 10 10 10 10 10 10 10 10 10 10 10 10 10 10 10 10 10 10 10 10 10 10 10 10 10 10 76 172 40 10 10 10 10 10 10 10 10 10 10 10 10 10 10 10 10 10 10 10 10 10 10 10 10 
10 10 10 10 10 10 10 10 10 10 10 10 76 172 40 10 10 10 10 10 10 10 10 10 10 10 10 10 10 10 10 10 10 10 10 10 10 10 10 10 10 10 40 200 40 10 10 10 10 10 10 10 10 10 10 10 10 10 10 10 10 10 10 10 10 10 76 172 40 10 10 10 10 10 10 10 10 10 10 10 10 10 10 10 10 10 10 10 10 10 10 10 10 10 10 10 10 10 10 10 10 10 10 10 10 10 10 10 10 10 10 10 10 10 10 10 10 10 10 10 76 172 40 220 60 40 10 10 10 184 88 40 10 10 10 184 88 40 220 60 40 220 60 40 220 60 40 220 60 40 220 60 40 10 10 10 184 88 40 10 10 10 220 60 40 10 10 10 184 88 40 220 60 40 220 60 40 220 60 40 220 60 40 220 60 40 220 60 40 220 60 40 10 10 10 184 88 40 10 10 10 10 10 10 10 10 10 10 10 10 10 10 10 10 10 10 10 10 10 184 88 40 10 10 10 220 60 40 220 60 40 10 10 10 184 88 40 10 10 10 10 10 10 10 10 10 10 10 10 10 10 10 10 10 10 10 10 10 10 10 10 10 10 10 10 10 10 10 10 10 10 10 10 10 10 10 10 10 10 10 10 10 10 10 10 76 172 40 10 10 10 10 10 10 10 10 10 10 10 10 
10 10 10 10 10 10 10 10 10 10 10 10 10 10 10 10 10 10 10 10 10 10 10 10 10 10 10 40 200 40 10 10 10 10 10 10 10 10 10 10 10 10 10 10 10 10 10 10 10 10 10 10 10 10 10 10 10 40 200 40 10 10 10 10 10 10 10 10 10 10 10 10 10 10 10 10 10 10 10 10 10 40 200 40 10 10 10 10 10 10 10 10 10 10 10 10 10 10 10 10 10 10 10 10 10 10 10 10 10 10 10 10 10 10 10 10 10 10 10 10 220 60 40 10 10 10 184 88 40 10 10 10 184 88 40 220 60 40 220 60 40 220 60 40 220 60 40 220 60 40 10 10 10 184 88 40 220 60 40 10 10 10 220 60 40 10 10 10 220 60 40 220 60 40 220 60 40 220 60 40 220 60 40 220 60 40 220 60 40 10 10 10 184 88 40 10 10 10 10 10 10 148 116 40 10 10 10 10 10 10 10 10 10 10 10 10 10 10 10 220 60 40 10 10 10 220 60 40 10 10 10 184 88 40 10 10 10 184 88 40 10 10 10 10 10 10 10 10 10 10 10 10 10 10 10 10 10 10 10 10 10 10 10 10 10 10 10 10 10 10 10 10 10 10 10 10 10 10 10 10 10 10 10 10 10 10 10 10 10 10 10 10 10 10 10 10 10 76 172 40 
10 10 10 10 10 10 10 10 10 10 10 10 40 200 40 10 10 10 10 10 10 10 10 10 10 10 10 10 10 10 10 10 10 10 10 10 10 10 10 76 172 40 10 10 10 10 10 10 10 10 10 10 10 10 10 10 10 10 10 10 10 10 10 10 10 10 10 10 10 10 10 10 40 200 40 10 10 10 10 10 10 10 10 10 10 10 10 10 10 10 10 10 10 76 172 40 10 10 10 10 10 10 10 10 10 10 10 10 10 10 10 10 10 10 10 10 10 10 10 10 10 10 10 184 88 40 10 10 10 184 88 40 220 60 40 220 60 40 220 60 40 220 60 40 220 60 40 10 10 10 184 88 40 220 60 40 220 60 40 10 10 10 10 10 10 184 88 40 220 60 40 220 60 40 220 60 40 220 60 40 220 60 40 220 60 40 10 10 10 184 88 40 10 10 10 184 88 40 10 10 10 10 10 10 10 10 10 10 10 10 112 144 40 10 10 10 10 10 10 10 10 10 184 88 40 10 10 10 184 88 40 220 60 40 10 10 10 10 10 10 10 10 10 148 116 40 10 10 10 10 10 10 10 10 10 10 10 10 10 10 10 10 10 10 10 10 10 10 10 10 10 10 10 10 10 10 10 10 10 10 10 10 10 10 10 10 10 10 10 10 10 10 10 10 10 10 10 10 10 10 
10 10 10 10 10 10 10 10 10 10 10 10 10 10 10 10 10 10 10 10 10 10 10 10 76 172 40 10 10 10 10 10 10 10 10 10 10 10 10 10 10 10 10 10 10 10 10 10 10 10 10 76 172 40 10 10 10 10 10 10 10 10 10 10 10 10 10 10 10 10 10 10 10 10 10 10 10 10 10 10 10 10 10 10 76 172 40 10 10 10 10 10 10 10 10 10 10 10 10 10 10 10 10 10 10 10 10 10 40 200 40 10 10 10 10 10 10 10 10 10 10 10 10 10 10 10 184 88 40 220 60 40 220 60 40 220 60 40 220 60 40 220 60 40 10 10 10 184 88 40 220 60 40 220 60 40 220 60 40 10 10 10 10 10 10 220 60 40 220 60 40 220 60 40 220 60 40 220 60 40 220 60 40 220 60 40 10 10 10 10 10 10 184 88 40 10 10 10 10 10 10 148 116 40 10 10 10 10 10 10 10 10 10 10 10 10 148 116 40 10 10 10 220 60 40 10 10 10 220 60 40 10 10 10 184 88 40 10 10 10 10 10 10 10 10 10 10 10 10 10 10 10 112 144 40 10 10 10 10 10 10 10 10 10 10 10 10 10 10 10 10 10 10 10 10 10 10 10 10 10 10 10 10 10 10 10 10 10 10 10 10 10 10 10 10 10 10 10 10 10 
10 10 10 10 10 10 10 10 10 10 10 10 10 10 10 10 10 10 10 10 10 10 10 10 10 10 10 10 10 10 10 10 10 10 10 10 10 10 10 40 200 40 10 10 10 10 10 10 10 10 10 10 10 10 10 10 10 10 10 10 10 10 10 10 10 10 40 200 40 10 10 10 10 10 10 10 10 10 10 10 10 10 10 10 10 10 10 10 10 10 10 10 10 10 10 10 76 172 40 10 10 10 10 10 10 10 10 10 10 10 10 10 10 10 10 10 10 10 10 10 10 10 10 40 200 40 220 60 40 220 60 40 220 60 40 220 60 40 220 60 40 10 10 10 184 88 40 220 60 40 220 60 40 220 60 40 10 10 10 184 88 40 10 10 10 220 60 40 220 60 40 220 60 40 220 60 40 220 60 40 220 60 40 10 10 10 184 88 40 10 10 10 10 10 10 184 88 40 10 10 10 10 10 10 10 10 10 10 10 10 112 144 40 10 10 10 220 60 40 10 10 10 10 10 10 184 88 40 10 10 10 184 88 40 10 10 10 10 10 10 148 116 40 10 10 10 10 10 10 10 10 10 10 10 10 10 10 10 10 10 10 10 10 10 76 172 40 10 10 10 10 10 10 10 10 10 10 10 10 10 10 10 10 10 10 10 10 10 10 10 10 10 10 10 10 10 10 10 10 10 
10 10 10 10 10 10 10 10 10 10 10 10 10 10 10 10 10 10 10 10 10 10 10 10 10 10 10 10 10 10 10 10 10 10 10 10 10 10 10 10 10 10 10 10 10 10 10 10 10 10 10 10 10 10 40 200 40 10 10 10 10 10 10 10 10 10 10 10 10 10 10 10 10 10 10 10 10 10 10 10 10 40 200 40 10 10 10 10 10 10 10 10 10 10 10 10 10 10 10 10 10 10 10 10 10 10 10 10 10 10 10 40 200 40 10 10 10 10 10 10 10 10 10 220 60 40 220 60 40 220 60 40 220 60 40 220 60 40 10 10 10 184 88 40 220 60 40 220 60 40 220 60 40 10 10 10 184 88 40 10 10 10 184 88 40 220 60 40 220 60 40 220 60 40 220 60 40 220 60 40 10 10 10 184 88 40 10 10 10 184 88 40 10 10 10 10 10 10 10 10 10 148 116 40 10 10 10 10 10 10 10 10 10 184 88 40 10 10 10 184 88 40 10 10 10 10 10 10 184 88 40 10 10 10 184 88 40 10 10 10 10 10 10 10 10 10 148 116 40 10 10 10 10 10 10 10 10 10 10 10 10 10 10 10 10 10 10 10 10 10 10 10 10 10 10 10 76 172 40 10 10 10 10 10 10 10 10 10 10 10 10 10 10 10 10 10 10 10 10 10 
10 10 10 10 10 10 10 10 10 10 10 10 10 10 10 10 10 10 10 10 10 10 10 10 10 10 10 10 10 10 10 10 10 10 10 10 10 10 10 10 10 10 10 10 10 10 10 10 10 10 10 10 10 10 10 10 10 10 10 10 10 10 10 10 10 10 10 10 10 40 200 40 10 10 10 10 10 10 10 10 10 10 10 10 10 10 10 10 10 10 10 10 10 76 172 40 10 10 10 10 10 10 10 10 10 10 10 10 10 10 10 10 10 10 10 10 10 10 10 10 112 144 40 220 60 40 220 60 40 220 60 40 220 60 40 220 60 40 10 10 10 220 60 40 220 60 40 220 60 40 10 10 10 184 88 40 10 10 10 184 88 40 220 60 40 220 60 40 220 60 40 220 60 40 220 60 40 10 10 10 184 88 40 10 10 10 184 88 40 10 10 10 184 88 40 10 10 10 10 10 10 10 10 10 10 10 10 10 10 10 112 144 40 10 10 10 184 88 40 10 10 10 184 88 40 10 10 10 10 10 10 184 88 40 10 10 10 10 10 10 148 116 40 10 10 10 10 10 10 10 10 10 10 10 10 112 144 40 10 10 10 10 10 10 10 10 10 10 10 10 10 10 10 10 10 10 10 10 10 10 10 10 10 10 10 10 10 10 10 10 10 40 200 40 10 10 10 10 10 10 
10 10 10 76 172 40 10 10 10 10 10 10 10 10 10 10 10 10 10 10 10 10 10 10 10 10 10 10 10 10 10 10 10 10 10 10 10 10 10 10 10 10 10 10 10 10 10 10 10 10 10 10 10 10 10 10 10 10 10 10 10 10 10 10 10 10 10 10 10 10 10 10 10 10 10 10 10 10 10 10 10 10 10 10 40 200 40 10 10 10 10 10 10 10 10 10 10 10 10 10 10 10 10 10 10 10 10 10 40 200 40 10 10 10 10 10 10 10 10 10 220 60 40 220 60 40 220 60 40 220 60 40 220 60 40 220 60 40 10 10 10 220 60 40 220 60 40 220 60 40 10 10 10 220 60 40 10 10 10 220 60 40 220 60 40 220 60 40 220 60 40 220 60 40 220 60 40 10 10 10 220 60 40 10 10 10 220 60 40 10 10 10 10 10 10 184 88 40 10 10 10 10 10 10 10 10 10 10 10 10 10 10 10 184 88 40 220 60 40 10 10 10 10 10 10 184 88 40 10 10 10 10 10 10 10 10 10 148 116 40 10 10 10 10 10 10 10 10 10 112 144 40 10 10 10 10 10 10 10 10 10 10 10 10 10 10 10 76 172 40 10 10 10 10 10 10 10 10 10 10 10 10 10 10 10 10 10 10 10 10 10 10 10 10 10 10 10 10 10 10 
10 10 10 10 10 10 10 10 10 10 10 10 10 10 10 10 10 10 40 200 40 10 10 10 10 10 10 10 10 10 10 10 10 10 10 10 10 10 10 10 10 10 10 10 10 10 10 10 10 10 10 10 10 10 10 10 10 10 10 10 10 10 10 10 10 10 10 10 10 10 10 10 10 10 10 10 10 10 10 10 10 10 10 10 10 10 10 10 10 10 10 10 10 10 10 10 10 10 10 40 200 40 10 10 10 10 10 10 10 10 10 10 10 10 10 10 10 112 144 40 220 60 40 220 60 40 220 60 40 220 60 40 220 60 40 10 10 10 184 88 40 220 60 40 220 60 40 10 10 10 184 88 40 10 10 10 184 88 40 220 60 40 220 60 40 220 60 40 220 60 40 220 60 40 10 10 10 184 88 40 220 60 40 10 10 10 10 10 10 184 88 40 10 10 10 10 10 10 10 10 10 148 116 40 10 10 10 10 10 10 10 10 10 220 60 40 220 60 40 10 10 10 10 10 10 10 10 10 10 10 10 148 116 40 10 10 10 10 10 10 10 10 10 10 10 10 112 144 40 10 10 10 10 10 10 10 10 10 112 144 40 10 10 10 10 10 10 10 10 10 10 10 10 10 10 10 10 10 10 10 10 10 40 200 40 10 10 10 10 10 10 10 10 10 10 10 10 10 10 10 
10 10 10 10 10 10 10 10 10 10 10 10 10 10 10 10 10 10 10 10 10 10 10 10 10 10 10 10 10 10 10 10 10 40 200 40 10 10 10 10 10 10 10 10 10 10 10 10 10 10 10 10 10 10 10 10 10 10 10 10 10 10 10 10 10 10 10 10 10 10 10 10 10 10 10 10 10 10 10 10 10 10 10 10 10 10 10 10 10 10 10 10 10 10 10 10 10 10 10 10 10 10 10 10 10 10 10 10 10 10 10 10 10 10 40 200 40 220 60 40 220 60 40 220 60 40 220 60 40 220 60 40 10 10 10 184 88 40 220 60 40 220 60 40 10 10 10 184 88 40 10 10 10 184 88 40 220 60 40 220 60 40 220 60 40 220 60 40 220 60 40 10 10 10 184 88 40 220 60 40 220 60 40 10 10 10 10 10 10 10 10 10 10 10 10 148 116 40 10 10 10 10 10 10 10 10 10 148 116 40 10 10 10 220 60 40 10 10 10 184 88 40 10 10 10 10 10 10 10 10 10 10 10 10 10 10 10 10 10 10 112 144 40 10 10 10 10 10 10 10 10 10 10 10 10 112 144 40 10 10 10 10 10 10 10 10 10 10 10 10 76 172 40 10 10 10 10 10 10 10 10 10 10 10 10 10 10 10 10 10 10 10 10 10 76 172 40 10 10 10 
10 10 10 10 10 10 10 10 10 40 200 40 10 10 10 10 10 10 10 10 10 10 10 10 10 10 10 10 10 10 10 10 10 10 10 10 10 10 10 10 10 10 10 10 10 10 10 10 40 200 40 10 10 10 10 10 10 10 10 10 10 10 10 10 10 10 10 10 10 10 10 10 10 10 10 10 10 10 10 10 10 10 10 10 10 10 10 10 10 10 10 10 10 10 10 10 10 10 10 10 10 10 10 10 10 10 10 10 10 10 10 10 10 10 220 60 40 220 60 40 220 60 40 220 60 40 220 60 40 10 10 10 184 88 40 220 60 40 220 60 40 10 10 10 184 88 40 220 60 40 10 10 10 220 60 40 220 60 40 220 60 40 220 60 40 220 60 40 10 10 10 184 88 40 220 60 40 220 60 40 220 60 40 10 10 10 10 10 10 10 10 10 10 10 10 10 10 10 10 10 10 148 116 40 10 10 10 220 60 40 10 10 10 10 10 10 184 88 40 10 10 10 10 10 10 148 116 40 10 10 10 10 10 10 10 10 10 10 10 10 10 10 10 10 10 10 10 10 10 10 10 10 76 172 40 10 10 10 10 10 10 10 10 10 10 10 10 76 172 40 10 10 10 10 10 10 10 10 10 10 10 10 10 10 10 40 200 40 10 10 10 10 10 10 10 10 10 10 10 10 
10 10 10 10 10 10 10 10 10 10 10 10 10 10 10 10 10 10 10 10 10 10 10 10 40 200 40 10 10 10 10 10 10 10 10 10 10 10 10 10 10 10 10 10 10 10 10 10 10 10 10 10 10 10 10 10 10 10 10 10 10 10 10 40 200 40 10 10 10 10 10 10 10 10 10 10 10 10 10 10 10 10 10 10 10 10 10 10 10 10 10 10 10 10 10 10 10 10 10 10 10 10 10 10 10 10 10 10 10 10 10 10 10 10 220 60 40 220 60 40 220 60 40 220 60 40 10 10 10 184 88 40 220 60 40 220 60 40 10 10 10 184 88 40 220 60 40 10 10 10 184 88 40 220 60 40 220 60 40 220 60 40 220 60 40 10 10 10 184 88 40 220 60 40 220 60 40 220 60 40 10 10 10 184 88 40 10 10 10 10 10 10 10 10 10 10 10 10 10 10 10 10 10 10 184 88 40 220 60 40 10 10 10 10 10 10 10 10 10 184 88 40 10 10 10 10 10 10 10 10 10 10 10 10 112 144 40 10 10 10 10 10 10 10 10 10 10 10 10 10 10 10 10 10 10 10 10 10 10 10 10 112 144 40 10 10 10 10 10 10 10 10 10 10 10 10 10 10 10 10 10 10 40 200 40 10 10 10 10 10 10 10 10 10 10 10 10 76 172 40 
10 10 10 10 10 10 10 10 10 10 10 10 40 200 40 10 10 10 10 10 10 10 10 10 10 10 10 10 10 10 10 10 10 10 10 10 10 10 10 40 200 40 10 10 10 10 10 10 10 10 10 10 10 10 10 10 10 10 10 10 10 10 10 10 10 10 10 10 10 10 10 10 10 10 10 10 10 10 40 200 40 10 10 10 10 10 10 10 10 10 10 10 10 10 10 10 10 10 10 10 10 10 10 10 10 10 10 10 10 10 10 10 10 10 220 60 40 220 60 40 220 60 40 10 10 10 184 88 40 220 60 40 220 60 40 220 60 40 10 10 10 220 60 40 10 10 10 184 88 40 220 60 40 220 60 40 220 60 40 220 60 40 10 10 10 184 88 40 220 60 40 220 60 40 220 60 40 10 10 10 184 88 40 10 10 10 10 10 10 148 116 40 10 10 10 10 10 10 10 10 10 10 10 10 220 60 40 220 60 40 10 10 10 10 10 10 10 10 10 10 10 10 10 10 10 148 116 40 10 10 10 10 10 10 10 10 10 10 10 10 10 10 10 10 10 10 76 172 40 10 10 10 10 10 10 10 10 10 10 10 10 10 10 10 10 10 10 10 10 10 112 144 40 10 10 10 10 10 10 10 10 10 10 10 10 10 10 10 10 10 10 10 10 10 76 172 40 10 10 10 
10 10 10 10 10 10 10 10 10 40 200 40 10 10 10 10 10 10 10 10 10 10 10 10 76 172 40 10 10 10 10 10 10 10 10 10 10 10 10 10 10 10 10 10 10 10 10 10 10 10 10 10 10 10 40 200 40 10 10 10 10 10 10 10 10 10 10 10 10 10 10 10 10 10 10 10 10 10 10 10 10 10 10 10 10 10 10 10 10 10 76 172 40 10 10 10 10 10 10 10 10 10 10 10 10 10 10 10 10 10 10 10 10 10 220 60 40 220 60 40 10 10 10 184 88 40 220 60 40 220 60 40 220 60 40 220 60 40 10 10 10 10 10 10 184 88 40 220 60 40 220 60 40 220 60 40 220 60 40 10 10 10 184 88 40 220 60 40 220 60 40 220 60 40 220 60 40 10 10 10 10 10 10 10 10 10 148 116 40 10 10 10 10 10 10 10 10 10 112 144 40 10 10 10 220 60 40 10 10 10 184 88 40 10 10 10 10 10 10 10 10 10 10 10 10 10 10 10 10 10 10 10 10 10 112 144 40 10 10 10 10 10 10 10 10 10 10 10 10 10 10 10 10 10 10 10 10 10 10 10 10 40 200 40 10 10 10 10 10 10 10 10 10 10 10 10 10 10 10 112 144 40 10 10 10 10 10 10 10 10 10 10 10 10 10 10 10 10 10 10 
10 10 10 10 10 10 10 10 10 10 10 10 10 10 10 10 10 10 10 10 10 76 172 40 10 10 10 10 10 10 10 10 10 10 10 10 10 10 10 40 200 40 10 10 10 10 10 10 10 10 10 10 10 10 10 10 10 10 10 10 10 10 10 10 10 10 10 10 10 40 200 40 10 10 10 10 10 10 10 10 10 10 10 10 10 10 10 10 10 10 10 10 10 10 10 10 10 10 10 10 10 10 10 10 10 40 200 40 10 10 10 10 10 10 220 60 40 10 10 10 184 88 40 220 60 40 220 60 40 220 60 40 220 60 40 10 10 10 184 88 40 10 10 10 220 60 40 220 60 40 220 60 40 220 60 40 10 10 10 184 88 40 220 60 40 220 60 40 220 60 40 220 60 40 220 60 40 10 10 10 10 10 10 10 10 10 10 10 10 10 10 10 10 10 10 112 144 40 10 10 10 184 88 40 10 10 10 184 88 40 10 10 10 10 10 10 148 116 40 10 10 10 10 10 10 10 10 10 10 10 10 10 10 10 10 10 10 10 10 10 10 10 10 112 144 40 10 10 10 10 10 10 10 10 10 10 10 10 10 10 10 10 10 10 10 10 10 10 10 10 10 10 10 10 10 10 40 200 40 10 10 10 10 10 10 10 10 10 10 10 10 76 172 40 10 10 10 10 10 10 
10 10 10 10 10 10 40 200 40 10 10 10 10 10 10 10 10 10 10 10 10 10 10 10 10 10 10 10 10 10 10 10 10 10 10 10 40 200 40 10 10 10 10 10 10 10 10 10 10 10 10 10 10 10 40 200 40 10 10 10 10 10 10 10 10 10 10 10 10 10 10 10 10 10 10 10 10 10 10 10 10 76 172 40 10 10 10 10 10 10 10 10 10 10 10 10 10 10 10 10 10 10 10 10 10 10 10 10 184 88 40 10 10 10 10 10 10 184 88 40 220 60 40 220 60 40 220 60 40 220 60 40 220 60 40 10 10 10 10 10 10 184 88 40 220 60 40 220 60 40 220 60 40 10 10 10 184 88 40 220 60 40 220 60 40 220 60 40 220 60 40 220 60 40 10 10 10 184 88 40 10 10 10 10 10 10 10 10 10 10 10 10 10 10 10 10 10 10 184 88 40 10 10 10 184 88 40 10 10 10 10 10 10 148 116 40 10 10 10 10 10 10 10 10 10 112 144 40 10 10 10 10 10 10 10 10 10 10 10 10 10 10 10 10 10 10 10 10 10 10 10 10 10 10 10 76 172 40 10 10 10 10 10 10 10 10 10 10 10 10 10 10 10 10 10 10 10 10 10 10 10 10 10 10 10 112 144 40 10 10 10 10 10 10 10 10 10 10 10 10 
10 10 10 10 10 10 10 10 10 10 10 10 10 10 10 10 10 10 10 10 10 40 200 40 10 10 10 10 10 10 10 10 10 10 10 10 10 10 10 10 10 10 10 10 10 10 10 10 76 172 40 10 10 10 10 10 10 10 10 10 10 10 10 10 10 10 76 172 40 10 10 10 10 10 10 10 10 10 10 10 10 10 10 10 10 10 10 10 10 10 10 10 10 76 172 40 10 10 10 10 10 10 10 10 10 10 10 10 10 10 10 10 10 10 148 116 40 220 60 40 220 60 40 220 60 40 220 60 40 220 60 40 10 10 10 184 88 40 10 10 10 220 60 40 220 60 40 220 60 40 10 10 10 184 88 40 220 60 40 220 60 40 220 60 40 220 60 40 220 60 40 10 10 10 184 88 40 10 10 10 184 88 40 10 10 10 10 10 10 10 10 10 10 10 10 10 10 10 220 60 40 10 10 10 10 10 10 10 10 10 148 116 40 10 10 10 10 10 10 10 10 10 112 144 40 10 10 10 10 10 10 10 10 10 10 10 10 76 172 40 10 10 10 10 10 10 10 10 10 10 10 10 10 10 10 10 10 10 10 10 10 10 10 10 10 10 10 10 10 10 40 200 40 10 10 10 10 10 10 10 10 10 10 10 10 10 10 10 10 10 10 10 10 10 10 10 10 76 172 40 
10 10 10 10 10 10 10 10 10 10 10 10 40 200 40 10 10 10 10 10 10 10 10 10 10 10 10 10 10 10 10 10 10 10 10 10 40 200 40 10 10 10 10 10 10 10 10 10 10 10 10 10 10 10 10 10 10 10 10 10 10 10 10 40 200 40 10 10 10 10 10 10 10 10 10 10 10 10 76 172 40 10 10 10 10 10 10 10 10 10 10 10 10 10 10 10 10 10 10 10 10 10 10 10 10 10 10 10 40 200 40 10 10 10 220 60 40 220 60 40 220 60 40 220 60 40 220 60 40 10 10 10 184 88 40 220 60 40 10 10 10 220 60 40 220 60 40 10 10 10 184 88 40 220 60 40 220 60 40 220 60 40 220 60 40 220 60 40 220 60 40 10 10 10 10 10 10 184 88 40 10 10 10 184 88 40 10 10 10 10 10 10 10 10 10 10 10 10 10 10 10 184 88 40 10 10 10 10 10 10 10 10 10 10 10 10 10 10 10 112 144 40 10 10 10 10 10 10 10 10 10 10 10 10 76 172 40 10 10 10 10 10 10 10 10 10 10 10 10 10 10 10 40 200 40 10 10 10 10 10 10 10 10 10 10 10 10 10 10 10 10 10 10 10 10 10 10 10 10 10 10 10 10 10 10 40 200 40 10 10 10 10 10 10 10 10 10 10 10 10 
40 200 40 10 10 10 10 10 10 10 10 10 10 10 10 10 10 10 10 10 10 10 10 10 10 10 10 40 200 40 10 10 10 10 10 10 10 10 10 10 10 10 10 10 10 10 10 10 76 172 40 10 10 10 10 10 10 10 10 10 10 10 10 10 10 10 10 10 10 10 10 10 10 10 10 76 172 40 10 10 10 10 10 10 10 10 10 10 10 10 10 10 10 40 200 40 10 10 10 10 10 10 10 10 10 10 10 10 220 60 40 10 10 10 220 60 40 220 60 40 220 60 40 220 60 40 10 10 10 184 88 40 220 60 40 220 60 40 10 10 10 220 60 40 10 10 10 184 88 40 220 60 40 220 60 40 220 60 40 220 60 40 220 60 40 220 60 40 10 10 10 184 88 40 10 10 10 10 10 10 184 88 40 10 10 10 10 10 10 148 116 40 10 10 10 10 10 10 10 10 10 10 10 10 184 88 40 10 10 10 10 10 10 10 10 10 10 10 10 10 10 10 10 10 10 10 10 10 112 144 40 10 10 10 10 10 10 10 10 10 10 10 10 10 10 10 10 10 10 40 200 40 10 10 10 10 10 10 10 10 10 10 10 10 10 10 10 40 200 40 10 10 10 10 10 10 10 10 10 10 10 10 10 10 10 10 10 10 10 10 10 10 10 10 10 10 10 10 10 10 
10 10 10 10 10 10 10 10 10 10 10 10 10 10 10 40 200 40 10 10 10 10 10 10 10 10 10 10 10 10 10 10 10 10 10 10 10 10 10 76 172 40 10 10 10 10 10 10 10 10 10 10 10 10 10 10 10 10 10 10 76 172 40 10 10 10 10 10 10 10 10 10 10 10 10 10 10 10 10 10 10 10 10 10 10 10 10 76 172 40 10 10 10 10 10 10 10 10 10 10 10 10 112 144 40 10 10 10 10 10 10 184 88 40 220 60 40 220 60 40 220 60 40 10 10 10 184 88 40 220 60 40 220 60 40 10 10 10 184 88 40 10 10 10 184 88 40 220 60 40 220 60 40 220 60 40 220 60 40 220 60 40 220 60 40 10 10 10 184 88 40 10 10 10 184 88 40 10 10 10 10 10 10 184 88 40 10 10 10 10 10 10 10 10 10 10 10 10 112 144 40 10 10 10 10 10 10 184 88 40 10 10 10 10 10 10 10 10 10 10 10 10 10 10 10 10 10 10 10 10 10 10 10 10 10 10 10 10 10 10 76 172 40 10 10 10 10 10 10 10 10 10 10 10 10 10 10 10 10 10 10 10 10 10 40 200 40 10 10 10 10 10 10 10 10 10 10 10 10 76 172 40 10 10 10 10 10 10 10 10 10 10 10 10 10 10 10 10 10 10 
10 10 10 10 10 10 10 10 10 10 10 10 10 10 10 10 10 10 10 10 10 10 10 10 10 10 10 76 172 40 10 10 10 10 10 10 10 10 10 10 10 10 10 10 10 10 10 10 10 10 10 10 10 10 40 200 40 10 10 10 10 10 10 10 10 10 10 10 10 10 10 10 10 10 10 40 200 40 10 10 10 10 10 10 10 10 10 10 10 10 10 10 10 10 10 10 10 10 10 76 172 40 10 10 10 10 10 10 148 116 40 220 60 40 220 60 40 220 60 40 10 10 10 184 88 40 220 60 40 220 60 40 10 10 10 184 88 40 10 10 10 184 88 40 220 60 40 220 60 40 220 60 40 220 60 40 220 60 40 220 60 40 10 10 10 184 88 40 220 60 40 10 10 10 10 10 10 184 88 40 10 10 10 10 10 10 184 88 40 10 10 10 10 10 10 10 10 10 10 10 10 184 88 40 10 10 10 10 10 10 10 10 10 148 116 40 10 10 10 10 10 10 10 10 10 10 10 10 10 10 10 10 10 10 10 10 10 10 10 10 10 10 10 10 10 10 10 10 10 10 10 10 10 10 10 40 200 40 10 10 10 10 10 10 10 10 10 10 10 10 10 10 10 10 10 10 76 172 40 10 10 10 10 10 10 10 10 10 10 10 10 76 172 40 10 10 10 10 10 10 
10 10 10 10 10 10 40 200 40 10 10 10 10 10 10 10 10 10 10 10 10 10 10 10 10 10 10 10 10 10 10 10 10 10 10 10 10 10 10 76 172 40 10 10 10 10 10 10 10 10 10 10 10 10 10 10 10 10 10 10 10 10 10 10 10 10 10 10 10 40 200 40 10 10 10 10 10 10 10 10 10 10 10 10 10 10 10 76 172 40 10 10 10 10 10 10 10 10 10 10 10 10 184 88 40 10 10 10 220 60 40 220 60 40 220 60 40 10 10 10 184 88 40 220 60 40 220 60 40 10 10 10 184 88 40 220 60 40 10 10 10 220 60 40 220 60 40 220 60 40 220 60 40 220 60 40 220 60 40 220 60 40 10 10 10 220 60 40 220 60 40 10 10 10 10 10 10 10 10 10 184 88 40 10 10 10 10 10 10 184 88 40 10 10 10 10 10 10 10 10 10 10 10 10 10 10 10 148 116 40 10 10 10 10 10 10 10 10 10 148 116 40 10 10 10 10 10 10 10 10 10 10 10 10 10 10 10 10 10 10 10 10 10 10 10 10 10 10 10 10 10 10 10 10 10 10 10 10 10 10 10 10 10 10 10 10 10 76 172 40 10 10 10 10 10 10 10 10 10 10 10 10 10 10 10 10 10 10 76 172 40 10 10 10 10 10 10 10 10 10 
10 10 10 40 200 40 10 10 10 10 10 10 10 10 10 10 10 10 10 10 10 40 200 40 10 10 10 10 10 10 10 10 10 10 10 10 10 10 10 10 10 10 10 10 10 10 10 10 10 10 10 76 172 40 10 10 10 10 10 10 10 10 10 10 10 10 10 10 10 10 10 10 10 10 10 10 10 10 10 10 10 10 10 10 40 200 40 10 10 10 10 10 10 10 10 10 10 10 10 76 172 40 220 60 40 10 10 10 220 60 40 220 60 40 10 10 10 184 88 40 220 60 40 220 60 40 10 10 10 184 88 40 220 60 40 10 10 10 184 88 40 220 60 40 220 60 40 220 60 40 220 60 40 220 60 40 220 60 40 10 10 10 184 88 40 220 60 40 10 10 10 184 88 40 10 10 10 10 10 10 10 10 10 10 10 10 148 116 40 10 10 10 184 88 40 10 10 10 10 10 10 10 10 10 10 10 10 10 10 10 10 10 10 10 10 10 112 144 40 10 10 10 10 10 10 148 116 40 10 10 10 10 10 10 10 10 10 10 10 10 10 10 10 10 10 10 10 10 10 10 10 10 10 10 10 10 10 10 10 10 10 10 10 10 10 10 10 10 10 10 10 10 10 10 10 10 10 10 10 76 172 40 10 10 10 10 10 10 10 10 10 10 10 10 10 10 10 10 10 10 
10 10 10 10 10 10 10 10 10 10 10 10 10 10 10 76 172 40 10 10 10 10 10 10 10 10 10 10 10 10 10 10 10 10 10 10 40 200 40 10 10 10 10 10 10 10 10 10 10 10 10 10 10 10 10 10 10 10 10 10 10 10 10 10 10 10 40 200 40 10 10 10 10 10 10 10 10 10 10 10 10 10 10 10 10 10 10 10 10 10 10 10 10 10 10 10 76 172 40 220 60 40 10 10 10 184 88 40 220 60 40 10 10 10 184 88 40 220 60 40 220 60 40 10 10 10 184 88 40 220 60 40 10 10 10 184 88 40 220 60 40 220 60 40 220 60 40 220 60 40 220 60 40 220 60 40 10 10 10 184 88 40 220 60 40 10 10 10 184 88 40 10 10 10 10 10 10 148 116 40 10 10 10 10 10 10 10 10 10 184 88 40 10 10 10 10 10 10 148 116 40 10 10 10 10 10 10 10 10 10 10 10 10 10 10 10 10 10 10 10 10 10 148 116 40 10 10 10 10 10 10 10 10 10 112 144 40 10 10 10 10 10 10 10 10 10 10 10 10 10 10 10 10 10 10 10 10 10 10 10 10 10 10 10 10 10 10 10 10 10 10 10 10 10 10 10 10 10 10 10 10 10 10 10 10 10 10 10 10 10 10 10 10 10 40 200 40 10 10 10 
10 10 10 10 10 10 10 10 10 40 200 40 10 10 10 10 10 10 10 10 10 10 10 10 10 10 10 76 172 40 10 10 10 10 10 10 10 10 10 10 10 10 10 10 10 10 10 10 76 172 40 10 10 10 10 10 10 10 10 10 10 10 10 10 10 10 10 10 10 10 10 10 10 10 10 10 10 10 10 10 10 40 200 40 10 10 10 10 10 10 10 10 10 10 10 10 220 60 40 220 60 40 10 10 10 220 60 40 220 60 40 10 10 10 220 60 40 220 60 40 220 60 40 10 10 10 220 60 40 10 10 10 184 88 40 220 60 40 220 60 40 220 60 40 220 60 40 220 60 40 220 60 40 10 10 10 184 88 40 220 60 40 10 10 10 184 88 40 10 10 10 10 10 10 148 116 40 10 10 10 10 10 10 10 10 10 112 144 40 10 10 10 184 88 40 10 10 10 10 10 10 10 10 10 10 10 10 112 144 40 10 10 10 10 10 10 10 10 10 10 10 10 10 10 10 10 10 10 148 116 40 10 10 10 10 10 10 10 10 10 10 10 10 10 10 10 76 172 40 10 10 10 10 10 10 10 10 10 10 10 10 10 10 10 10 10 10 10 10 10 10 10 10 10 10 10 10 10 10 10 10 10 10 10 10 10 10 10 10 10 10 10 10 10 10 10 10 10 10 10 
10 10 10 10 10 10 10 10 10 10 10 10 10 10 10 10 10 10 10 10 10 10 10 10 40 200 40 10 10 10 10 10 10 10 10 10 10 10 10 76 172 40 10 10 10 10 10 10 10 10 10 10 10 10 10 10 10 10 10 10 10 10 10 40 200 40 10 10 10 10 10 10 10 10 10 10 10 10 10 10 10 10 10 10 10 10 10 10 10 10 112 144 40 10 10 10 220 60 40 10 10 10 184 88 40 220 60 40 10 10 10 184 88 40 220 60 40 220 60 40 10 10 10 184 88 40 10 10 10 184 88 40 220 60 40 220 60 40 220 60 40 220 60 40 220 60 40 220 60 40 10 10 10 184 88 40 220 60 40 10 10 10 184 88 40 10 10 10 10 10 10 148 116 40 10 10 10 10 10 10 10 10 10 112 144 40 10 10 10 184 88 40 10 10 10 10 10 10 148 116 40 10 10 10 10 10 10 10 10 10 10 10 10 10 10 10 112 144 40 10 10 10 10 10 10 10 10 10 10 10 10 10 10 10 10 10 10 112 144 40 10 10 10 10 10 10 10 10 10 10 10 10 10 10 10 10 10 10 10 10 10 40 200 40 10 10 10 10 10 10 10 10 10 10 10 10 10 10 10 10 10 10 10 10 10 10 10 10 10 10 10 10 10 10 10 10 10 10 10 10 
10 10 10 10 10 10 10 10 10 10 10 10 10 10 10 10 10 10 10 10 10 10 10 10 10 10 10 10 10 10 10 10 10 112 144 40 10 10 10 10 10 10 10 10 10 10 10 10 10 10 10 10 10 10 40 200 40 10 10 10 10 10 10 10 10 10 10 10 10 10 10 10 10 10 10 10 10 10 40 200 40 10 10 10 10 10 10 10 10 10 10 10 10 184 88 40 220 60 40 10 10 10 220 60 40 10 10 10 184 88 40 220 60 40 220 60 40 220 60 40 10 10 10 220 60 40 10 10 10 220 60 40 220 60 40 220 60 40 220 60 40 220 60 40 220 60 40 10 10 10 184 88 40 220 60 40 10 10 10 184 88 40 10 10 10 10 10 10 148 116 40 10 10 10 10 10 10 148 116 40 10 10 10 220 60 40 10 10 10 10 10 10 10 10 10 148 116 40 10 10 10 10 10 10 148 116 40 10 10 10 10 10 10 10 10 10 10 10 10 10 10 10 10 10 10 10 10 10 76 172 40 10 10 10 10 10 10 10 10 10 10 10 10 10 10 10 10 10 10 76 172 40 10 10 10 10 10 10 10 10 10 10 10 10 10 10 10 10 10 10 10 10 10 10 10 10 40 200 40 10 10 10 10 10 10 10 10 10 10 10 10 10 10 10 10 10 10 10 10 10 
10 10 10 10 10 10 10 10 10 10 10 10 10 10 10 10 10 10 10 10 10 10 10 10 10 10 10 10 10 10 10 10 10 10 10 10 10 10 10 10 10 10 112 144 40 10 10 10 10 10 10 10 10 10 10 10 10 10 10 10 10 10 10 10 10 10 10 10 10 40 200 40 10 10 10 10 10 10 10 10 10 10 10 10 10 10 10 112 144 40 10 10 10 220 60 40 220 60 40 10 10 10 10 10 10 184 88 40 220 60 40 220 60 40 220 60 40 10 10 10 184 88 40 10 10 10 184 88 40 220 60 40 220 60 40 220 60 40 220 60 40 220 60 40 10 10 10 184 88 40 220 60 40 10 10 10 184 88 40 10 10 10 10 10 10 148 116 40 10 10 10 10 10 10 148 116 40 10 10 10 184 88 40 10 10 10 184 88 40 10 10 10 10 10 10 10 10 10 184 88 40 10 10 10 10 10 10 10 10 10 10 10 10 112 144 40 10 10 10 10 10 10 10 10 10 10 10 10 10 10 10 10 10 10 10 10 10 10 10 10 10 10 10 40 200 40 10 10 10 10 10 10 10 10 10 10 10 10 10 10 10 10 10 10 40 200 40 10 10 10 10 10 10 10 10 10 10 10 10 10 10 10 10 10 10 10 10 10 10 10 10 40 200 40 10 10 10 10 10 10 
10 10 10 10 10 10 40 200 40 10 10 10 10 10 10 10 10 10 10 10 10 10 10 10 10 10 10 10 10 10 10 10 10 10 10 10 10 10 10 10 10 10 10 10 10 10 10 10 10 10 10 112 144 40 10 10 10 10 10 10 10 10 10 10 10 10 10 10 10 10 10 10 10 10 10 10 10 10 10 10 10 10 10 10 40 200 40 10 10 10 184 88 40 220 60 40 10 10 10 184 88 40 10 10 10 220 60 40 220 60 40 220 60 40 10 10 10 184 88 40 10 10 10 184 88 40 220 60 40 220 60 40 220 60 40 220 60 40 220 60 40 220 60 40 10 10 10 220 60 40 220 60 40 10 10 10 10 10 10 184 88 40 10 10 10 10 10 10 10 10 10 148 116 40 220 60 40 10 10 10 10 10 10 184 88 40 10 10 10 10 10 10 148 116 40 10 10 10 10 10 10 10 10 10 148 116 40 10 10 10 10 10 10 10 10 10 10 10 10 10 10 10 10 10 10 76 172 40 10 10 10 10 10 10 10 10 10 10 10 10 10 10 10 10 10 10 10 10 10 10 10 10 10 10 10 10 10 10 40 200 40 10 10 10 10 10 10 10 10 10 10 10 10 10 10 10 76 172 40 10 10 10 10 10 10 10 10 10 10 10 10 10 10 10 10 10 10 10 10 10 
10 10 10 10 10 10 10 10 10 10 10 10 10 10 10 10 10 10 10 10 10 40 200 40 10 10 10 10 10 10 10 10 10 10 10 10 10 10 10 10 10 10 10 10 10 10 10 10 10 10 10 10 10 10 10 10 10 10 10 10 10 10 10 76 172 40 10 10 10 10 10 10 10 10 10 10 10 10 10 10 10 10 10 10 10 10 10 184 88 40 220 60 40 10 10 10 184 88 40 220 60 40 10 10 10 220 60 40 220 60 40 10 10 10 184 88 40 10 10 10 184 88 40 220 60 40 220 60 40 220 60 40 220 60 40 220 60 40 220 60 40 10 10 10 184 88 40 220 60 40 10 10 10 184 88 40 10 10 10 10 10 10 10 10 10 148 116 40 10 10 10 220 60 40 10 10 10 184 88 40 10 10 10 10 10 10 184 88 40 10 10 10 10 10 10 10 10 10 10 10 10 112 144 40 10 10 10 10 10 10 10 10 10 112 144 40 10 10 10 10 10 10 10 10 10 10 10 10 10 10 10 10 10 10 10 10 10 10 10 10 40 200 40 10 10 10 10 10 10 10 10 10 10 10 10 10 10 10 10 10 10 10 10 10 10 10 10 10 10 10 10 10 10 40 200 40 10 10 10 10 10 10 10 10 10 10 10 10 10 10 10 40 200 40 10 10 10 10 10 10 
10 10 10 10 10 10 40 200 40 10 10 10 10 10 10 10 10 10 10 10 10 10 10 10 10 10 10 10 10 10 10 10 10 10 10 10 40 200 40 10 10 10 10 10 10 10 10 10 10 10 10 10 10 10 10 10 10 10 10 10 10 10 10 10 10 10 10 10 10 10 10 10 10 10 10 10 10 10 40 200 40 10 10 10 10 10 10 220 60 40 10 10 10 184 88 40 220 60 40 220 60 40 10 10 10 220 60 40 10 10 10 184 88 40 10 10 10 184 88 40 220 60 40 220 60 40 220 60 40 220 60 40 220 60 40 220 60 40 10 10 10 184 88 40 220 60 40 10 10 10 184 88 40 10 10 10 10 10 10 148 116 40 10 10 10 10 10 10 184 88 40 10 10 10 184 88 40 10 10 10 10 10 10 148 116 40 10 10 10 184 88 40 10 10 10 10 10 10 10 10 10 10 10 10 10 10 10 10 10 10 112 144 40 10 10 10 10 10 10 10 10 10 10 10 10 76 172 40 10 10 10 10 10 10 10 10 10 10 10 10 10 10 10 10 10 10 10 10 10 10 10 10 10 10 10 40 200 40 10 10 10 10 10 10 10 10 10 10 10 10 10 10 10 10 10 10 10 10 10 10 10 10 10 10 10 10 10 10 40 200 40 10 10 10 10 10 10 10 10 10 
76 172 40 10 10 10 10 10 10 10 10 10 10 10 10 10 10 10 10 10 10 40 200 40 10 10 10 10 10 10 10 10 10 10 10 10 10 10 10 10 10 10 10 10 10 10 10 10 10 10 10 40 200 40 10 10 10 10 10 10 10 10 10 10 10 10 10 10 10 10 10 10 10 10 10 10 10 10 10 10 10 10 10 10 148 116 40 10 10 10 184 88 40 220 60 40 220 60 40 10 10 10 184 88 40 10 10 10 184 88 40 220 60 40 10 10 10 220 60 40 220 60 40 220 60 40 220 60 40 220 60 40 220 60 40 10 10 10 184 88 40 220 60 40 10 10 10 184 88 40 10 10 10 10 10 10 148 116 40 10 10 10 10 10 10 148 116 40 220 60 40 10 10 10 10 10 10 10 10 10 148 116 40 10 10 10 184 88 40 10 10 10 10 10 10 148 116 40 10 10 10 10 10 10 10 10 10 10 10 10 10 10 10 10 10 10 10 10 10 112 144 40 10 10 10 10 10 10 10 10 10 10 10 10 10 10 10 76 172 40 10 10 10 10 10 10 10 10 10 10 10 10 10 10 10 10 10 10 10 10 10 10 10 10 10 10 10 10 10 10 40 200 40 10 10 10 10 10 10 10 10 10 10 10 10 10 10 10 10 10 10 10 10 10 10 10 10 10 10 10 
10 10 10 10 10 10 10 10 10 10 10 10 76 172 40 10 10 10 10 10 10 10 10 10 10 10 10 10 10 10 10 10 10 10 10 10 40 200 40 10 10 10 10 10 10 10 10 10 10 10 10 10 10 10 10 10 10 10 10 10 10 10 10 76 172 40 10 10 10 10 10 10 10 10 10 10 10 10 10 10 10 10 10 10 10 10 10 184 88 40 220 60 40 220 60 40 220 60 40 10 10 10 10 10 10 184 88 40 220 60 40 220 60 40 10 10 10 220 60 40 220 60 40 220 60 40 220 60 40 220 60 40 10 10 10 184 88 40 220 60 40 10 10 10 184 88 40 10 10 10 10 10 10 148 116 40 10 10 10 10 10 10 148 116 40 220 60 40 220 60 40 10 10 10 10 10 10 10 10 10 10 10 10 184 88 40 10 10 10 184 88 40 10 10 10 10 10 10 10 10 10 10 10 10 112 144 40 10 10 10 10 10 10 10 10 10 10 10 10 10 10 10 10 10 10 10 10 10 10 10 10 76 172 40 10 10 10 10 10 10 10 10 10 10 10 10 10 10 10 76 172 40 10 10 10 10 10 10 10 10 10 10 10 10 10 10 10 10 10 10 10 10 10 10 10 10 10 10 10 10 10 10 10 10 10 40 200 40 10 10 10 10 10 10 10 10 10 10 10 10 
10 10 10 10 10 10 10 10 10 10 10 10 10 10 10 10 10 10 10 10 10 10 10 10 10 10 10 40 200 40 10 10 10 10 10 10 10 10 10 10 10 10 10 10 10 10 10 10 76 172 40 10 10 10 10 10 10 10 10 10 10 10 10 10 10 10 10 10 10 10 10 10 10 10 10 10 10 10 40 200 40 10 10 10 10 10 10 220 60 40 220 60 40 220 60 40 220 60 40 10 10 10 10 10 10 220 60 40 220 60 40 10 10 10 184 88 40 220 60 40 220 60 40 220 60 40 220 60 40 10 10 10 184 88 40 220 60 40 10 10 10 184 88 40 10 10 10 184 88 40 10 10 10 10 10 10 10 10 10 148 116 40 220 60 40 220 60 40 10 10 10 184 88 40 10 10 10 10 10 10 10 10 10 10 10 10 184 88 40 10 10 10 184 88 40 10 10 10 10 10 10 10 10 10 10 10 10 10 10 10 10 10 10 10 10 10 76 172 40 10 10 10 10 10 10 10 10 10 10 10 10 10 10 10 10 10 10 10 10 10 10 10 10 76 172 40 10 10 10 10 10 10 10 10 10 10 10 10 10 10 10 10 10 10 40 200 40 10 10 10 10 10 10 10 10 10 10 10 10 10 10 10 10 10 10 10 10 10 10 10 10 10 10 10 10 10 10 76 172 40 
10 10 10 10 10 10 10 10 10 10 10 10 40 200 40 10 10 10 10 10 10 10 10 10 10 10 10 10 10 10 10 10 10 10 10 10 10 10 10 10 10 10 40 200 40 10 10 10 10 10 10 10 10 10 10 10 10 10 10 10 10 10 10 40 200 40 10 10 10 10 10 10 10 10 10 10 10 10 10 10 10 184 88 40 10 10 10 220 60 40 220 60 40 220 60 40 10 10 10 184 88 40 10 10 10 220 60 40 10 10 10 184 88 40 220 60 40 220 60 40 220 60 40 220 60 40 220 60 40 10 10 10 220 60 40 10 10 10 184 88 40 10 10 10 184 88 40 10 10 10 184 88 40 10 10 10 10 10 10 220 60 40 220 60 40 10 10 10 184 88 40 10 10 10 184 88 40 10 10 10 10 10 10 10 10 10 10 10 10 184 88 40 10 10 10 10 10 10 148 116 40 10 10 10 10 10 10 10 10 10 10 10 10 10 10 10 10 10 10 10 10 10 10 10 10 10 10 10 10 10 10 40 200 40 10 10 10 10 10 10 10 10 10 10 10 10 10 10 10 10 10 10 10 10 10 10 10 10 40 200 40 10 10 10 10 10 10 10 10 10 10 10 10 10 10 10 10 10 10 40 200 40 10 10 10 10 10 10 10 10 10 10 10 10 10 10 10 10 10 10 
10 10 10 10 10 10 10 10 10 10 10 10 10 10 10 10 10 10 10 10 10 10 10 10 76 172 40 10 10 10 10 10 10 10 10 10 10 10 10 10 10 10 10 10 10 10 10 10 10 10 10 10 10 10 10 10 10 40 200 40 10 10 10 10 10 10 10 10 10 10 10 10 10 10 10 10 10 10 40 200 40 10 10 10 184 88 40 220 60 40 220 60 40 10 10 10 184 88 40 10 10 10 184 88 40 10 10 10 184 88 40 220 60 40 220 60 40 220 60 40 220 60 40 220 60 40 220 60 40 10 10 10 220 60 40 10 10 10 10 10 10 184 88 40 10 10 10 184 88 40 10 10 10 10 10 10 148 116 40 220 60 40 10 10 10 184 88 40 220 60 40 10 10 10 10 10 10 10 10 10 148 116 40 10 10 10 10 10 10 10 10 10 184 88 40 10 10 10 10 10 10 10 10 10 10 10 10 112 144 40 10 10 10 10 10 10 10 10 10 10 10 10 10 10 10 10 10 10 10 10 10 10 10 10 10 10 10 10 10 10 10 10 10 76 172 40 10 10 10 10 10 10 10 10 10 10 10 10 10 10 10 10 10 10 10 10 10 10 10 10 10 10 10 40 200 40 10 10 10 10 10 10 10 10 10 10 10 10 10 10 10 10 10 10 40 200 40 10 10 10 
10 10 10 10 10 10 10 10 10 40 200 40 10 10 10 10 10 10 10 10 10 10 10 10 10 10 10 10 10 10 10 10 10 10 10 10 10 10 10 40 200 40 10 10 10 10 10 10 10 10 10 10 10 10 10 10 10 10 10 10 10 10 10 10 10 10 10 10 10 10 10 10 40 200 40 10 10 10 10 10 10 184 88 40 220 60 40 220 60 40 220 60 40 10 10 10 10 10 10 184 88 40 10 10 10 184 88 40 220 60 40 220 60 40 220 60 40 220 60 40 220 60 40 220 60 40 10 10 10 184 88 40 10 10 10 184 88 40 10 10 10 10 10 10 184 88 40 10 10 10 10 10 10 148 116 40 220 60 40 220 60 40 10 10 10 220 60 40 220 60 40 10 10 10 10 10 10 10 10 10 10 10 10 10 10 10 10 10 10 112 144 40 10 10 10 10 10 10 148 116 40 10 10 10 10 10 10 10 10 10 10 10 10 10 10 10 112 144 40 10 10 10 10 10 10 10 10 10 10 10 10 10 10 10 10 10 10 10 10 10 10 10 10 10 10 10 10 10 10 10 10 10 10 10 10 76 172 40 10 10 10 10 10 10 10 10 10 10 10 10 10 10 10 10 10 10 10 10 10 10 10 10 10 10 10 76 172 40 10 10 10 10 10 10 10 10 10 10 10 10 
40 200 40 10 10 10 10 10 10 10 10 10 10 10 10 10 10 10 10 10 10 10 10 10 40 200 40 10 10 10 10 10 10 10 10 10 10 10 10 10 10 10 10 10 10 10 10 10 10 10 10 10 10 10 40 200 40 10 10 10 10 10 10 10 10 10 10 10 10 10 10 10 10 10 10 10 10 10 148 116 40 220 60 40 220 60 40 220 60 40 220 60 40 10 10 10 10 10 10 220 60 40 10 10 10 220 60 40 220 60 40 220 60 40 220 60 40 220 60 40 220 60 40 10 10 10 184 88 40 10 10 10 184 88 40 10 10 10 10 10 10 148 116 40 10 10 10 10 10 10 148 116 40 220 60 40 220 60 40 10 10 10 184 88 40 220 60 40 220 60 40 10 10 10 10 10 10 10 10 10 10 10 10 10 10 10 10 10 10 10 10 10 184 88 40 10 10 10 10 10 10 10 10 10 148 116 40 10 10 10 10 10 10 10 10 10 10 10 10 10 10 10 10 10 10 10 10 10 76 172 40 10 10 10 10 10 10 10 10 10 10 10 10 10 10 10 10 10 10 10 10 10 10 10 10 10 10 10 10 10 10 10 10 10 10 10 10 10 10 10 40 200 40 10 10 10 10 10 10 10 10 10 10 10 10 10 10 10 10 10 10 10 10 10 10 10 10 10 10 10 
10 10 10 10 10 10 10 10 10 10 10 10 10 10 10 40 200 40 10 10 10 10 10 10 10 10 10 10 10 10 10 10 10 10 10 10 10 10 10 40 200 40 10 10 10 10 10 10 10 10 10 10 10 10 10 10 10 10 10 10 10 10 10 10 10 10 76 172 40 10 10 10 10 10 10 10 10 10 220 60 40 220 60 40 220 60 40 220 60 40 10 10 10 184 88 40 10 10 10 220 60 40 10 10 10 220 60 40 220 60 40 220 60 40 220 60 40 220 60 40 10 10 10 184 88 40 10 10 10 184 88 40 10 10 10 10 10 10 148 116 40 10 10 10 184 88 40 10 10 10 220 60 40 220 60 40 220 60 40 10 10 10 220 60 40 220 60 40 220 60 40 10 10 10 10 10 10 10 10 10 10 10 10 10 10 10 10 10 10 10 10 10 10 10 10 10 10 10 148 116 40 10 10 10 10 10 10 10 10 10 10 10 10 112 144 40 10 10 10 10 10 10 10 10 10 10 10 10 10 10 10 10 10 10 10 10 10 10 10 10 76 172 40 10 10 10 10 10 10 10 10 10 10 10 10 10 10 10 10 10 10 10 10 10 10 10 10 10 10 10 10 10 10 10 10 10 10 10 10 10 10 10 76 172 40 10 10 10 10 10 10 10 10 10 10 10 10 10 10 10 
10 10 10 10 10 10 10 10 10 10 10 10 10 10 10 10 10 10 10 10 10 10 10 10 10 10 10 10 10 10 40 200 40 10 10 10 10 10 10 10 10 10 10 10 10 10 10 10 10 10 10 76 172 40 10 10 10 10 10 10 10 10 10 10 10 10 10 10 10 10 10 10 10 10 10 112 144 40 220 60 40 220 60 40 220 60 40 10 10 10 184 88 40 220 60 40 10 10 10 10 10 10 184 88 40 220 60 40 220 60 40 220 60 40 220 60 40 10 10 10 184 88 40 10 10 10 184 88 40 10 10 10 10 10 10 148 116 40 10 10 10 184 88 40 10 10 10 184 88 40 220 60 40 220 60 40 10 10 10 184 88 40 220 60 40 220 60 40 10 10 10 184 88 40 10 10 10 10 10 10 10 10 10 10 10 10 10 10 10 10 10 10 10 10 10 10 10 10 10 10 10 10 10 10 10 10 10 112 144 40 10 10 10 10 10 10 10 10 10 10 10 10 112 144 40 10 10 10 10 10 10 10 10 10 10 10 10 10 10 10 10 10 10 10 10 10 10 10 10 10 10 10 10 10 10 40 200 40 10 10 10 10 10 10 10 10 10 10 10 10 10 10 10 10 10 10 10 10 10 10 10 10 10 10 10 10 10 10 10 10 10 10 10 10 10 10 10 40 200 40 
10 10 10 10 10 10 10 10 10 10 10 10 40 200 40 10 10 10 10 10 10 10 10 10 10 10 10 10 10 10 10 10 10 10 10 10 10 10 10 10 10 10 76 172 40 10 10 10 10 10 10 10 10 10 10 10 10 10 10 10 10 10 10 10 10 10 40 200 40 10 10 10 10 10 10 220 60 40 220 60 40 220 60 40 10 10 10 184 88 40 220 60 40 10 10 10 184 88 40 10 10 10 220 60 40 220 60 40 220 60 40 220 60 40 10 10 10 184 88 40 10 10 10 184 88 40 10 10 10 10 10 10 148 116 40 10 10 10 184 88 40 10 10 10 184 88 40 220 60 40 220 60 40 220 60 40 10 10 10 220 60 40 220 60 40 10 10 10 184 88 40 10 10 10 10 10 10 148 116 40 10 10 10 10 10 10 10 10 10 10 10 10 10 10 10 10 10 10 10 10 10 10 10 10 10 10 10 10 10 10 10 10 10 10 10 10 10 10 10 76 172 40 10 10 10 10 10 10 10 10 10 10 10 10 76 172 40 10 10 10 10 10 10 10 10 10 10 10 10 10 10 10 10 10 10 10 10 10 10 10 10 10 10 10 10 10 10 76 172 40 10 10 10 10 10 10 10 10 10 10 10 10 10 10 10 10 10 10 10 10 10 10 10 10 10 10 10 10 10 10 
10 10 10 10 10 10 10 10 10 10 10 10 10 10 10 10 10 10 10 10 10 10 10 10 10 10 10 40 200 40 10 10 10 10 10 10 10 10 10 10 10 10 10 10 10 10 10 10 10 10 10 10 10 10 76 172 40 10 10 10 10 10 10 10 10 10 10 10 10 10 10 10 148 116 40 220 60 40 220 60 40 10 10 10 184 88 40 220 60 40 10 10 10 184 88 40 10 10 10 184 88 40 220 60 40 220 60 40 220 60 40 220 60 40 10 10 10 10 10 10 184 88 40 10 10 10 184 88 40 10 10 10 220 60 40 10 10 10 10 10 10 184 88 40 220 60 40 220 60 40 220 60 40 220 60 40 10 10 10 220 60 40 10 10 10 184 88 40 10 10 10 184 88 40 10 10 10 10 10 10 10 10 10 10 10 10 112 144 40 10 10 10 10 10 10 10 10 10 10 10 10 10 10 10 10 10 10 10 10 10 10 10 10 10 10 10 10 10 10 10 10 10 10 10 10 10 10 10 10 10 10 76 172 40 10 10 10 10 10 10 10 10 10 10 10 10 76 172 40 10 10 10 10 10 10 10 10 10 10 10 10 10 10 10 10 10 10 10 10 10 10 10 10 10 10 10 10 10 10 10 10 10 40 200 40 10 10 10 10 10 10 10 10 10 10 10 10 10 10 10 
10 10 10 10 10 10 10 10 10 10 10 10 10 10 10 10 10 10 10 10 10 10 10 10 10 10 10 10 10 10 10 10 10 10 10 10 10 10 10 10 10 10 40 200 40 10 10 10 10 10 10 10 10 10 10 10 10 10 10 10 10 10 10 10 10 10 76 172 40 10 10 10 220 60 40 220 60 40 10 10 10 184 88 40 220 60 40 10 10 10 184 88 40 10 10 10 184 88 40 220 60 40 220 60 40 220 60 40 220 60 40 10 10 10 184 88 40 10 10 10 10 10 10 184 88 40 10 10 10 184 88 40 10 10 10 184 88 40 10 10 10 220 60 40 220 60 40 220 60 40 220 60 40 10 10 10 184 88 40 10 10 10 184 88 40 220 60 40 10 10 10 10 10 10 10 10 10 148 116 40 10 10 10 10 10 10 10 10 10 10 10 10 10 10 10 10 10 10 76 172 40 10 10 10 10 10 10 10 10 10 10 10 10 10 10 10 10 10 10 10 10 10 10 10 10 10 10 10 10 10 10 10 10 10 10 10 10 10 10 10 10 10 10 76 172 40 10 10 10 10 10 10 10 10 10 10 10 10 10 10 10 40 200 40 10 10 10 10 10 10 10 10 10 10 10 10 10 10 10 10 10 10 10 10 10 10 10 10 10 10 10 10 10 10 10 10 10 40 200 40 
10 10 10 10 10 10 10 10 10 76 172 40 10 10 10 10 10 10 10 10 10 10 10 10 10 10 10 10 10 10 10 10 10 10 10 10 10 10 10 10 10 10 10 10 10 10 10 10 10 10 10 10 10 10 10 10 10 40 200 40 10 10 10 10 10 10 10 10 10 184 88 40 220 60 40 10 10 10 184 88 40 220 60 40 10 10 10 184 88 40 10 10 10 184 88 40 220 60 40 220 60 40 220 60 40 220 60 40 10 10 10 184 88 40 10 10 10 184 88 40 10 10 10 10 10 10 184 88 40 220 60 40 10 10 10 10 10 10 184 88 40 220 60 40 220 60 40 220 60 40 10 10 10 184 88 40 10 10 10 184 88 40 220 60 40 220 60 40 10 10 10 10 10 10 10 10 10 10 10 10 10 10 10 148 116 40 10 10 10 10 10 10 10 10 10 10 10 10 10 10 10 10 10 10 10 10 10 10 10 10 10 10 10 40 200 40 10 10 10 10 10 10 10 10 10 10 10 10 10 10 10 10 10 10 10 10 10 10 10 10 10 10 10 10 10 10 10 10 10 10 10 10 10 10 10 10 10 10 40 200 40 10 10 10 10 10 10 10 10 10 10 10 10 10 10 10 40 200 40 10 10 10 10 10 10 10 10 10 10 10 10 10 10 10 10 10 10 10 10 10 
10 10 10 10 10 10 10 10 10 10 10 10 10 10 10 10 10 10 10 10 10 76 172 40 10 10 10 10 10 10 10 10 10 10 10 10 10 10 10 10 10 10 10 10 10 10 10 10 10 10 10 10 10 10 10 10 10 10 10 10 10 10 10 10 10 10 112 144 40 220 60 40 220 60 40 10 10 10 220 60 40 10 10 10 184 88 40 220 60 40 10 10 10 220 60 40 220 60 40 220 60 40 220 60 40 220 60 40 10 10 10 10 10 10 184 88 40 10 10 10 10 10 10 148 116 40 220 60 40 10 10 10 184 88 40 10 10 10 220 60 40 220 60 40 220 60 40 10 10 10 184 88 40 10 10 10 184 88 40 220 60 40 220 60 40 10 10 10 184 88 40 10 10 10 10 10 10 10 10 10 10 10 10 10 10 10 10 10 10 148 116 40 10 10 10 10 10 10 10 10 10 10 10 10 10 10 10 10 10 10 10 10 10 10 10 10 10 10 10 10 10 10 10 10 10 76 172 40 10 10 10 10 10 10 10 10 10 10 10 10 10 10 10 10 10 10 10 10 10 10 10 10 10 10 10 10 10 10 10 10 10 10 10 10 10 10 10 10 10 10 76 172 40 10 10 10 10 10 10 10 10 10 10 10 10 10 10 10 10 10 10 40 200 40 10 10 10 10 10 10 
10 10 10 10 10 10 40 200 40 10 10 10 10 10 10 10 10 10 10 10 10 10 10 10 10 10 10 10 10 10 10 10 10 10 10 10 40 200 40 10 10 10 10 10 10 10 10 10 10 10 10 10 10 10 10 10 10 10 10 10 10 10 10 10 10 10 220 60 40 220 60 40 10 10 10 184 88 40 10 10 10 184 88 40 220 60 40 10 10 10 184 88 40 220 60 40 220 60 40 220 60 40 220 60 40 10 10 10 184 88 40 10 10 10 10 10 10 10 10 10 148 116 40 220 60 40 10 10 10 184 88 40 10 10 10 184 88 40 220 60 40 220 60 40 220 60 40 10 10 10 10 10 10 184 88 40 220 60 40 220 60 40 220 60 40 10 10 10 10 10 10 10 10 10 148 116 40 10 10 10 10 10 10 10 10 10 10 10 10 10 10 10 10 10 10 10 10 10 112 144 40 10 10 10 10 10 10 10 10 10 10 10 10 10 10 10 10 10 10 10 10 10 10 10 10 10 10 10 10 10 10 10 10 10 10 10 10 76 172 40 10 10 10 10 10 10 10 10 10 10 10 10 10 10 10 10 10 10 10 10 10 10 10 10 10 10 10 10 10 10 10 10 10 10 10 10 10 10 10 10 10 10 10 10 10 40 200 40 10 10 10 10 10 10 10 10 10 10 10 10 
40 200 40 10 10 10 10 10 10 10 10 10 10 10 10 10 10 10 10 10 10 40 200 40 10 10 10 10 10 10 10 10 10 10 10 10 10 10 10 10 10 10 10 10 10 10 10 10 10 10 10 40 200 40 10 10 10 10 10 10 10 10 10 10 10 10 220 60 40 220 60 40 10 10 10 220 60 40 10 10 10 220 60 40 220 60 40 10 10 10 220 60 40 220 60 40 220 60 40 220 60 40 10 10 10 184 88 40 10 10 10 10 10 10 148 116 40 10 10 10 220 60 40 10 10 10 184 88 40 10 10 10 184 88 40 220 60 40 220 60 40 220 60 40 10 10 10 184 88 40 10 10 10 220 60 40 220 60 40 220 60 40 220 60 40 10 10 10 10 10 10 10 10 10 10 10 10 10 10 10 10 10 10 112 144 40 10 10 10 10 10 10 10 10 10 10 10 10 10 10 10 10 10 10 10 10 10 10 10 10 76 172 40 10 10 10 10 10 10 10 10 10 10 10 10 10 10 10 10 10 10 10 10 10 10 10 10 10 10 10 10 10 10 10 10 10 10 10 10 76 172 40 10 10 10 10 10 10 10 10 10 10 10 10 10 10 10 10 10 10 10 10 10 10 10 10 10 10 10 10 10 10 10 10 10 10 10 10 10 10 10 10 10 10 10 10 10 10 10 10 
10 10 10 10 10 10 10 10 10 10 10 10 76 172 40 10 10 10 10 10 10 10 10 10 10 10 10 10 10 10 10 10 10 10 10 10 40 200 40 10 10 10 10 10 10 10 10 10 10 10 10 10 10 10 10 10 10 10 10 10 10 10 10 76 172 40 220 60 40 10 10 10 184 88 40 220 60 40 10 10 10 220 60 40 10 10 10 184 88 40 220 60 40 220 60 40 220 60 40 220 60 40 10 10 10 10 10 10 10 10 10 148 116 40 10 10 10 184 88 40 10 10 10 184 88 40 10 10 10 184 88 40 220 60 40 220 60 40 220 60 40 10 10 10 184 88 40 10 10 10 184 88 40 220 60 40 220 60 40 220 60 40 10 10 10 184 88 40 10 10 10 10 10 10 10 10 10 10 10 10 10 10 10 10 10 10 10 10 10 10 10 10 112 144 40 10 10 10 10 10 10 10 10 10 10 10 10 10 10 10 10 10 10 10 10 10 10 10 10 10 10 10 10 10 10 40 200 40 10 10 10 10 10 10 10 10 10 10 10 10 10 10 10 10 10 10 10 10 10 10 10 10 10 10 10 10 10 10 10 10 10 10 10 10 40 200 40 10 10 10 10 10 10 10 10 10 10 10 10 10 10 10 10 10 10 10 10 10 10 10 10 10 10 10 10 10 10 10 10 10 
10 10 10 10 10 10 10 10 10 10 10 10 10 10 10 10 10 10 10 10 10 10 10 10 10 10 10 40 200 40 10 10 10 10 10 10 10 10 10 10 10 10 10 10 10 10 10 10 10 10 10 40 200 40 10 10 10 10 10 10 10 10 10 220 60 40 10 10 10 184 88 40 220 60 40 220 60 40 10 10 10 10 10 10 184 88 40 220 60 40 220 60 40 220 60 40 220 60 40 220 60 40 10 10 10 10 10 10 10 10 10 10 10 10 184 88 40 10 10 10 184 88 40 10 10 10 184 88 40 220 60 40 220 60 40 220 60 40 10 10 10 184 88 40 10 10 10 184 88 40 220 60 40 220 60 40 220 60 40 10 10 10 184 88 40 10 10 10 10 10 10 148 116 40 10 10 10 10 10 10 10 10 10 10 10 10 10 10 10 10 10 10 10 10 10 10 10 10 10 10 10 10 10 10 76 172 40 10 10 10 10 10 10 10 10 10 10 10 10 10 10 10 10 10 10 10 10 10 10 10 10 10 10 10 10 10 10 76 172 40 10 10 10 10 10 10 10 10 10 10 10 10 10 10 10 10 10 10 10 10 10 10 10 10 10 10 10 10 10 10 10 10 10 10 10 10 76 172 40 10 10 10 10 10 10 10 10 10 10 10 10 10 10 10 10 10 10 10 10 10 
10 10 10 10 10 10 10 10 10 10 10 10 10 10 10 10 10 10 10 10 10 10 10 10 10 10 10 10 10 10 10 10 10 10 10 10 10 10 10 10 10 10 40 200 40 10 10 10 10 10 10 10 10 10 10 10 10 10 10 10 112 144 40 10 10 10 184 88 40 220 60 40 220 60 40 10 10 10 184 88 40 10 10 10 220 60 40 220 60 40 220 60 40 220 60 40 220 60 40 220 60 40 10 10 10 10 10 10 10 10 10 10 10 10 10 10 10 184 88 40 220 60 40 10 10 10 220 60 40 220 60 40 220 60 40 10 10 10 184 88 40 10 10 10 184 88 40 220 60 40 220 60 40 220 60 40 10 10 10 184 88 40 10 10 10 10 10 10 148 116 40 10 10 10 10 10 10 148 116 40 10 10 10 10 10 10 10 10 10 10 10 10 10 10 10 10 10 10 10 10 10 10 10 10 10 10 10 10 10 10 10 10 10 10 10 10 10 10 10 40 200 40 10 10 10 10 10 10 10 10 10 10 10 10 10 10 10 10 10 10 10 10 10 10 10 10 10 10 10 10 10 10 40 200 40 10 10 10 10 10 10 10 10 10 10 10 10 10 10 10 10 10 10 10 10 10 10 10 10 10 10 10 10 10 10 10 10 10 10 10 10 40 200 40 10 10 10 10 10 10 
10 10 10 10 10 10 40 200 40 10 10 10 10 10 10 10 10 10 10 10 10 10 10 10 10 10 10 10 10 10 10 10 10 10 10 10 10 10 10 10 10 10 10 10 10 10 10 10 10 10 10 10 10 10 76 172 40 10 10 10 220 60 40 10 10 10 220 60 40 220 60 40 10 10 10 184 88 40 10 10 10 184 88 40 220 60 40 220 60 40 220 60 40 220 60 40 220 60 40 220 60 40 10 10 10 10 10 10 10 10 10 10 10 10 10 10 10 220 60 40 10 10 10 184 88 40 220 60 40 220 60 40 10 10 10 184 88 40 220 60 40 10 10 10 220 60 40 220 60 40 220 60 40 10 10 10 184 88 40 10 10 10 184 88 40 10 10 10 10 10 10 184 88 40 10 10 10 10 10 10 10 10 10 10 10 10 112 144 40 10 10 10 10 10 10 10 10 10 10 10 10 10 10 10 10 10 10 10 10 10 10 10 10 10 10 10 10 10 10 10 10 10 10 10 10 10 10 10 10 10 10 10 10 10 40 200 40 10 10 10 10 10 10 10 10 10 10 10 10 10 10 10 10 10 10 10 10 10 10 10 10 10 10 10 10 10 10 40 200 40 10 10 10 10 10 10 10 10 10 10 10 10 10 10 10 10 10 10 10 10 10 10 10 10 10 10 10 10 10 10 
10 10 10 10 10 10 10 10 10 10 10 10 10 10 10 10 10 10 76 172 40 10 10 10 10 10 10 10 10 10 10 10 10 10 10 10 10 10 10 10 10 10 10 10 10 10 10 10 10 10 10 10 10 10 10 10 10 184 88 40 10 10 10 184 88 40 220 60 40 10 10 10 184 88 40 10 10 10 184 88 40 220 60 40 220 60 40 220 60 40 220 60 40 220 60 40 220 60 40 10 10 10 184 88 40 10 10 10 10 10 10 10 10 10 10 10 10 10 10 10 184 88 40 220 60 40 220 60 40 10 10 10 184 88 40 220 60 40 10 10 10 184 88 40 220 60 40 220 60 40 10 10 10 184 88 40 10 10 10 184 88 40 10 10 10 10 10 10 148 116 40 10 10 10 184 88 40 10 10 10 10 10 10 10 10 10 10 10 10 10 10 10 10 10 10 112 144 40 10 10 10 10 10 10 10 10 10 10 10 10 10 10 10 10 10 10 10 10 10 10 10 10 10 10 10 10 10 10 10 10 10 10 10 10 10 10 10 10 10 10 10 10 10 10 10 10 10 10 10 40 200 40 10 10 10 10 10 10 10 10 10 10 10 10 10 10 10 10 10 10 10 10 10 10 10 10 10 10 10 10 10 10 40 200 40 10 10 10 10 10 10 10 10 10 10 10 10 10 10 10 
10 10 10 10 10 10 10 10 10 10 10 10 10 10 10 10 10 10 10 10 10 10 10 10 10 10 10 10 10 10 10 10 10 40 200 40 10 10 10 10 10 10 10 10 10 10 10 10 10 10 10 10 10 10 10 10 10 10 10 10 184 88 40 220 60 40 10 10 10 184 88 40 10 10 10 184 88 40 220 60 40 220 60 40 220 60 40 220 60 40 220 60 40 220 60 40 10 10 10 184 88 40 10 10 10 184 88 40 10 10 10 10 10 10 10 10 10 10 10 10 220 60 40 220 60 40 10 10 10 184 88 40 220 60 40 220 60 40 10 10 10 220 60 40 220 60 40 10 10 10 184 88 40 10 10 10 184 88 40 10 10 10 10 10 10 148 116 40 220 60 40 10 10 10 10 10 10 184 88 40 10 10 10 10 10 10 10 10 10 10 10 10 10 10 10 10 10 10 10 10 10 10 10 10 10 10 10 76 172 40 10 10 10 10 10 10 10 10 10 10 10 10 10 10 10 10 10 10 10 10 10 10 10 10 10 10 10 10 10 10 10 10 10 10 10 10 10 10 10 10 10 10 10 10 10 10 10 10 10 10 10 10 10 10 40 200 40 10 10 10 10 10 10 10 10 10 10 10 10 10 10 10 10 10 10 10 10 10 10 10 10 10 10 10 10 10 10 40 200 40 
10 10 10 10 10 10 10 10 10 76 172 40 10 10 10 10 10 10 10 10 10 10 10 10 10 10 10 10 10 10 10 10 10 10 10 10 10 10 10 10 10 10 10 10 10 10 10 10 40 200 40 10 10 10 10 10 10 10 10 10 220 60 40 10 10 10 184 88 40 10 10 10 184 88 40 220 60 40 220 60 40 220 60 40 220 60 40 220 60 40 220 60 40 10 10 10 184 88 40 10 10 10 184 88 40 10 10 10 10 10 10 148 116 40 10 10 10 10 10 10 220 60 40 10 10 10 184 88 40 220 60 40 220 60 40 10 10 10 184 88 40 220 60 40 220 60 40 10 10 10 10 10 10 184 88 40 10 10 10 10 10 10 148 116 40 220 60 40 10 10 10 184 88 40 10 10 10 10 10 10 10 10 10 148 116 40 10 10 10 10 10 10 10 10 10 10 10 10 10 10 10 10 10 10 10 10 10 10 10 10 10 10 10 10 10 10 10 10 10 76 172 40 10 10 10 10 10 10 10 10 10 10 10 10 10 10 10 10 10 10 10 10 10 10 10 10 10 10 10 10 10 10 10 10 10 10 10 10 10 10 10 10 10 10 10 10 10 10 10 10 10 10 10 10 10 10 76 172 40 10 10 10 10 10 10 10 10 10 10 10 10 10 10 10 10 10 10 10 10 10 
10 10 10 10 10 10 10 10 10 10 10 10 10 10 10 10 10 10 10 10 10 10 10 10 40 200 40 10 10 10 10 10 10 10 10 10 10 10 10 10 10 10 10 10 10 10 10 10 10 10 10 10 10 10 10 10 10 112 144 40 220 60 40 10 10 10 10 10 10 184 88 40 220 60 40 220 60 40 220 60 40 220 60 40 220 60 40 220 60 40 220 60 40 10 10 10 220 60 40 10 10 10 10 10 10 184 88 40 10 10 10 10 10 10 184 88 40 10 10 10 220 60 40 10 10 10 220 60 40 220 60 40 220 60 40 10 10 10 220 60 40 220 60 40 10 10 10 184 88 40 10 10 10 10 10 10 10 10 10 148 116 40 220 60 40 10 10 10 184 88 40 10 10 10 184 88 40 10 10 10 10 10 10 10 10 10 10 10 10 148 116 40 10 10 10 10 10 10 10 10 10 10 10 10 10 10 10 10 10 10 10 10 10 10 10 10 10 10 10 10 10 10 10 10 10 10 10 10 10 10 10 10 10 10 40 200 40 10 10 10 10 10 10 10 10 10 10 10 10 10 10 10 10 10 10 10 10 10 10 10 10 10 10 10 10 10 10 10 10 10 10 10 10 10 10 10 10 10 10 10 10 10 10 10 10 10 10 10 76 172 40 10 10 10 10 10 10 10 10 10 
10 10 10 40 200 40 10 10 10 10 10 10 10 10 10 10 10 10 10 10 10 10 10 10 10 10 10 10 10 10 10 10 10 10 10 10 10 10 10 40 200 40 10 10 10 10 10 10 10 10 10 10 10 10 10 10 10 220 60 40 220 60 40 10 10 10 10 10 10 220 60 40 220 60 40 220 60 40 220 60 40 220 60 40 220 60 40 220 60 40 10 10 10 184 88 40 10 10 10 184 88 40 10 10 10 10 10 10 184 88 40 10 10 10 10 10 10 184 88 40 10 10 10 184 88 40 220 60 40 220 60 40 10 10 10 184 88 40 220 60 40 220 60 40 10 10 10 10 10 10 10 10 10 148 116 40 10 10 10 220 60 40 10 10 10 184 88 40 220 60 40 10 10 10 10 10 10 10 10 10 148 116 40 10 10 10 10 10 10 10 10 10 10 10 10 10 10 10 112 144 40 10 10 10 10 10 10 10 10 10 10 10 10 10 10 10 10 10 10 10 10 10 10 10 10 10 10 10 10 10 10 10 10 10 10 10 10 10 10 10 10 10 10 10 10 10 10 10 10 40 200 40 10 10 10 10 10 10 10 10 10 10 10 10 10 10 10 10 10 10 10 10 10 10 10 10 10 10 10 10 10 10 10 10 10 10 10 10 10 10 10 10 10 10 10 10 10 10 10 10 
10 10 10 10 10 10 10 10 10 10 10 10 10 10 10 10 10 10 40 200 40 10 10 10 10 10 10 10 10 10 10 10 10 10 10 10 10 10 10 10 10 10 10 10 10 10 10 10 10 10 10 10 10 10 40 200 40 220 60 40 220 60 40 10 10 10 10 10 10 220 60 40 220 60 40 220 60 40 220 60 40 220 60 40 220 60 40 10 10 10 184 88 40 10 10 10 184 88 40 10 10 10 10 10 10 148 116 40 10 10 10 10 10 10 148 116 40 10 10 10 184 88 40 220 60 40 220 60 40 10 10 10 184 88 40 220 60 40 220 60 40 220 60 40 10 10 10 10 10 10 10 10 10 220 60 40 10 10 10 220 60 40 10 10 10 220 60 40 10 10 10 184 88 40 10 10 10 10 10 10 10 10 10 10 10 10 10 10 10 112 144 40 10 10 10 10 10 10 10 10 10 10 10 10 10 10 10 10 10 10 76 172 40 10 10 10 10 10 10 10 10 10 10 10 10 10 10 10 10 10 10 10 10 10 10 10 10 10 10 10 10 10 10 10 10 10 10 10 10 10 10 10 10 10 10 10 10 10 10 10 10 10 10 10 40 200 40 10 10 10 10 10 10 10 10 10 10 10 10 10 10 10 10 10 10 10 10 10 10 10 10 10 10 10 10 10 10 10 10 10 
10 10 10 10 10 10 10 10 10 10 10 10 10 10 10 10 10 10 10 10 10 10 10 10 10 10 10 10 10 10 10 10 10 40 200 40 10 10 10 10 10 10 10 10 10 10 10 10 10 10 10 10 10 10 220 60 40 220 60 40 10 10 10 184 88 40 10 10 10 220 60 40 220 60 40 220 60 40 220 60 40 220 60 40 10 10 10 184 88 40 220 60 40 10 10 10 10 10 10 10 10 10 148 116 40 10 10 10 10 10 10 148 116 40 220 60 40 10 10 10 220 60 40 220 60 40 10 10 10 184 88 40 220 60 40 220 60 40 220 60 40 10 10 10 184 88 40 10 10 10 10 10 10 10 10 10 184 88 40 220 60 40 10 10 10 10 10 10 184 88 40 10 10 10 10 10 10 148 116 40 10 10 10 10 10 10 10 10 10 10 10 10 10 10 10 10 10 10 10 10 10 76 172 40 10 10 10 10 10 10 10 10 10 10 10 10 10 10 10 10 10 10 10 10 10 40 200 40 10 10 10 10 10 10 10 10 10 10 10 10 10 10 10 10 10 10 10 10 10 10 10 10 10 10 10 10 10 10 10 10 10 10 10 10 10 10 10 10 10 10 10 10 10 10 10 10 10 10 10 40 200 40 10 10 10 10 10 10 10 10 10 10 10 10 10 10 10 10 10 10 
10 10 10 10 10 10 10 10 10 10 10 10 10 10 10 10 10 10 10 10 10 10 10 10 10 10 10 10 10 10 10 10 10 10 10 10 10 10 10 10 10 10 10 10 10 10 10 10 40 200 40 10 10 10 220 60 40 10 10 10 184 88 40 220 60 40 10 10 10 220 60 40 220 60 40 220 60 40 220 60 40 220 60 40 10 10 10 220 60 40 10 10 10 184 88 40 10 10 10 10 10 10 10 10 10 184 88 40 10 10 10 220 60 40 10 10 10 184 88 40 220 60 40 10 10 10 184 88 40 220 60 40 220 60 40 220 60 40 220 60 40 10 10 10 10 10 10 10 10 10 148 116 40 10 10 10 220 60 40 10 10 10 184 88 40 10 10 10 10 10 10 10 10 10 148 116 40 10 10 10 10 10 10 10 10 10 112 144 40 10 10 10 10 10 10 10 10 10 10 10 10 10 10 10 10 10 10 10 10 10 10 10 10 10 10 10 40 200 40 10 10 10 10 10 10 10 10 10 10 10 10 10 10 10 10 10 10 76 172 40 10 10 10 10 10 10 10 10 10 10 10 10 10 10 10 10 10 10 10 10 10 10 10 10 10 10 10 10 10 10 10 10 10 10 10 10 10 10 10 10 10 10 10 10 10 10 10 10 10 10 10 10 10 10 40 200 40 10 10 10 
10 10 10 10 10 10 10 10 10 40 200 40 10 10 10 10 10 10 10 10 10 10 10 10 10 10 10 10 10 10 10 10 10 10 10 10 10 10 10 10 10 10 10 10 10 10 10 10 220 60 40 10 10 10 10 10 10 184 88 40 220 60 40 220 60 40 10 10 10 220 60 40 220 60 40 220 60 40 220 60 40 10 10 10 184 88 40 10 10 10 184 88 40 10 10 10 10 10 10 148 116 40 10 10 10 10 10 10 184 88 40 10 10 10 184 88 40 220 60 40 10 10 10 184 88 40 220 60 40 220 60 40 220 60 40 220 60 40 10 10 10 184 88 40 10 10 10 10 10 10 10 10 10 184 88 40 10 10 10 184 88 40 10 10 10 10 10 10 148 116 40 10 10 10 10 10 10 10 10 10 10 10 10 112 144 40 10 10 10 10 10 10 10 10 10 112 144 40 10 10 10 10 10 10 10 10 10 10 10 10 10 10 10 10 10 10 10 10 10 10 10 10 10 10 10 10 10 10 10 10 10 40 200 40 10 10 10 10 10 10 10 10 10 10 10 10 10 10 10 10 10 10 40 200 40 10 10 10 10 10 10 10 10 10 10 10 10 10 10 10 10 10 10 10 10 10 10 10 10 10 10 10 10 10 10 10 10 10 10 10 10 10 10 10 10 10 10 10 10 10 
10 10 10 10 10 10 10 10 10 10 10 10 10 10 10 10 10 10 10 10 10 76 172 40 10 10 10 10 10 10 10 10 10 10 10 10 10 10 10 10 10 10 10 10 10 10 10 10 10 10 10 184 88 40 10 10 10 220 60 40 220 60 40 220 60 40 10 10 10 220 60 40 220 60 40 220 60 40 10 10 10 184 88 40 220 60 40 10 10 10 10 10 10 10 10 10 148 116 40 10 10 10 10 10 10 148 116 40 10 10 10 184 88 40 220 60 40 10 10 10 184 88 40 220 60 40 220 60 40 220 60 40 220 60 40 220 60 40 10 10 10 10 10 10 10 10 10 148 116 40 10 10 10 10 10 10 184 88 40 10 10 10 10 10 10 148 116 40 10 10 10 10 10 10 10 10 10 112 144 40 10 10 10 10 10 10 10 10 10 10 10 10 112 144 40 10 10 10 10 10 10 10 10 10 112 144 40 10 10 10 10 10 10 10 10 10 10 10 10 10 10 10 10 10 10 10 10 10 10 10 10 10 10 10 10 10 10 10 10 10 10 10 10 76 172 40 10 10 10 10 10 10 10 10 10 10 10 10 10 10 10 10 10 10 10 10 10 40 200 40 10 10 10 10 10 10 10 10 10 10 10 10 10 10 10 10 10 10 10 10 10 10 10 10 10 10 10 10 10 10 
10 10 10 10 10 10 10 10 10 10 10 10 10 10 10 10 10 10 10 10 10 10 10 10 10 10 10 10 10 10 10 10 10 76 172 40 10 10 10 10 10 10 10 10 10 10 10 10 10 10 10 10 10 10 184 88 40 220 60 40 220 60 40 10 10 10 184 88 40 220 60 40 220 60 40 10 10 10 184 88 40 220 60 40 220 60 40 10 10 10 10 10 10 10 10 10 10 10 10 10 10 10 148 116 40 10 10 10 184 88 40 220 60 40 10 10 10 184 88 40 220 60 40 220 60 40 220 60 40 220 60 40 220 60 40 10 10 10 184 88 40 10 10 10 10 10 10 10 10 10 10 10 10 148 116 40 10 10 10 10 10 10 148 116 40 10 10 10 10 10 10 10 10 10 112 144 40 10 10 10 10 10 10 10 10 10 10 10 10 76 172 40 10 10 10 10 10 10 148 116 40 10 10 10 10 10 10 10 10 10 10 10 10 10 10 10 76 172 40 10 10 10 10 10 10 10 10 10 10 10 10 10 10 10 10 10 10 10 10 10 10 10 10 10 10 10 10 10 10 10 10 10 10 10 10 76 172 40 10 10 10 10 10 10 10 10 10 10 10 10 10 10 10 10 10 10 10 10 10 76 172 40 10 10 10 10 10 10 10 10 10 10 10 10 10 10 10 10 10 10 
10 10 10 10 10 10 10 10 10 10 10 10 10 10 10 10 10 10 10 10 10 10 10 10 10 10 10 10 10 10 10 10 10 10 10 10 10 10 10 10 10 10 10 10 10 10 10 10 40 200 40 10 10 10 220 60 40 220 60 40 220 60 40 10 10 10 220 60 40 220 60 40 10 10 10 184 88 40 220 60 40 220 60 40 10 10 10 184 88 40 10 10 10 10 10 10 10 10 10 10 10 10 10 10 10 184 88 40 220 60 40 220 60 40 10 10 10 220 60 40 220 60 40 220 60 40 220 60 40 220 60 40 220 60 40 10 10 10 10 10 10 10 10 10 148 116 40 10 10 10 10 10 10 10 10 10 10 10 10 148 116 40 10 10 10 10 10 10 10 10 10 112 144 40 10 10 10 10 10 10 10 10 10 112 144 40 10 10 10 10 10 10 10 10 10 148 116 40 10 10 10 10 10 10 10 10 10 112 144 40 10 10 10 10 10 10 10 10 10 10 10 10 10 10 10 10 10 10 10 10 10 40 200 40 10 10 10 10 10 10 10 10 10 10 10 10 10 10 10 10 10 10 10 10 10 10 10 10 10 10 10 10 10 10 10 10 10 76 172 40 10 10 10 10 10 10 10 10 10 10 10 10 10 10 10 10 10 10 10 10 10 10 10 10 40 200 40 10 10 10 
10 10 10 10 10 10 10 10 10 40 200 40 10 10 10 10 10 10 10 10 10 10 10 10 10 10 10 10 10 10 10 10 10 10 10 10 10 10 10 10 10 10 10 10 10 10 10 10 10 10 10 184 88 40 220 60 40 220 60 40 10 10 10 184 88 40 220 60 40 220 60 40 10 10 10 220 60 40 220 60 40 10 10 10 184 88 40 10 10 10 184 88 40 10 10 10 10 10 10 10 10 10 10 10 10 220 60 40 220 60 40 10 10 10 184 88 40 220 60 40 220 60 40 220 60 40 220 60 40 220 60 40 10 10 10 184 88 40 10 10 10 10 10 10 10 10 10 10 10 10 10 10 10 112 144 40 10 10 10 10 10 10 10 10 10 10 10 10 112 144 40 10 10 10 10 10 10 10 10 10 112 144 40 10 10 10 10 10 10 10 10 10 112 144 40 10 10 10 10 10 10 10 10 10 112 144 40 10 10 10 10 10 10 10 10 10 10 10 10 76 172 40 10 10 10 10 10 10 10 10 10 10 10 10 10 10 10 10 10 10 10 10 10 10 10 10 40 200 40 10 10 10 10 10 10 10 10 10 10 10 10 10 10 10 10 10 10 10 10 10 10 10 10 10 10 10 10 10 10 10 10 10 40 200 40 10 10 10 10 10 10 10 10 10 10 10 10 10 10 10 
10 10 10 10 10 10 10 10 10 10 10 10 10 10 10 10 10 10 10 10 10 10 10 10 40 200 40 10 10 10 10 10 10 10 10 10 10 10 10 10 10 10 10 10 10 10 10 10 10 10 10 220 60 40 220 60 40 10 10 10 184 88 40 220 60 40 220 60 40 220 60 40 10 10 10 220 60 40 10 10 10 184 88 40 220 60 40 10 10 10 10 10 10 184 88 40 10 10 10 10 10 10 10 10 10 220 60 40 10 10 10 184 88 40 220 60 40 220 60 40 220 60 40 220 60 40 220 60 40 10 10 10 184 88 40 10 10 10 10 10 10 148 116 40 10 10 10 10 10 10 10 10 10 10 10 10 10 10 10 10 10 10 10 10 10 76 172 40 10 10 10 10 10 10 148 116 40 10 10 10 10 10 10 10 10 10 10 10 10 112 144 40 10 10 10 10 10 10 148 116 40 10 10 10 10 10 10 10 10 10 10 10 10 112 144 40 10 10 10 10 10 10 10 10 10 10 10 10 10 10 10 10 10 10 40 200 40 10 10 10 10 10 10 10 10 10 10 10 10 10 10 10 10 10 10 10 10 10 10 10 10 40 200 40 10 10 10 10 10 10 10 10 10 10 10 10 10 10 10 10 10 10 10 10 10 10 10 10 10 10 10 10 10 10 10 10 10 40 200 40 
10 10 10 10 10 10 10 10 10 76 172 40 10 10 10 10 10 10 10 10 10 10 10 10 10 10 10 10 10 10 10 10 10 10 10 10 76 172 40 10 10 10 10 10 10 10 10 10 10 10 10 220 60 40 220 60 40 10 10 10 220 60 40 220 60 40 220 60 40 10 10 10 184 88 40 10 10 10 184 88 40 220 60 40 10 10 10 184 88 40 10 10 10 10 10 10 10 10 10 148 116 40 10 10 10 10 10 10 184 88 40 220 60 40 220 60 40 220 60 40 220 60 40 220 60 40 10 10 10 184 88 40 10 10 10 10 10 10 148 116 40 10 10 10 10 10 10 148 116 40 10 10 10 10 10 10 10 10 10 10 10 10 10 10 10 10 10 10 10 10 10 148 116 40 10 10 10 10 10 10 10 10 10 112 144 40 10 10 10 10 10 10 10 10 10 148 116 40 10 10 10 10 10 10 148 116 40 10 10 10 10 10 10 10 10 10 10 10 10 10 10 10 112 144 40 10 10 10 10 10 10 10 10 10 10 10 10 10 10 10 10 10 10 10 10 10 10 10 10 40 200 40 10 10 10 10 10 10 10 10 10 10 10 10 10 10 10 10 10 10 10 10 10 76 172 40 10 10 10 10 10 10 10 10 10 10 10 10 10 10 10 10 10 10 10 10 10 10 10 10 
10 10 10 10 10 10 10 10 10 10 10 10 10 10 10 10 10 10 10 10 10 10 10 10 40 200 40 10 10 10 10 10 10 10 10 10 10 10 10 10 10 10 10 10 10 112 144 40 10 10 10 220 60 40 220 60 40 10 10 10 220 60 40 220 60 40 10 10 10 184 88 40 10 10 10 184 88 40 220 60 40 220 60 40 10 10 10 10 10 10 10 10 10 148 116 40 10 10 10 10 10 10 184 88 40 10 10 10 220 60 40 220 60 40 220 60 40 220 60 40 220 60 40 10 10 10 184 88 40 10 10 10 184 88 40 10 10 10 10 10 10 10 10 10 148 116 40 10 10 10 10 10 10 10 10 10 112 144 40 10 10 10 10 10 10 10 10 10 10 10 10 10 10 10 10 10 10 10 10 10 112 144 40 10 10 10 10 10 10 10 10 10 112 144 40 10 10 10 184 88 40 10 10 10 10 10 10 10 10 10 10 10 10 112 144 40 10 10 10 10 10 10 10 10 10 10 10 10 10 10 10 10 10 10 76 172 40 10 10 10 10 10 10 10 10 10 10 10 10 10 10 10 10 10 10 10 10 10 10 10 10 10 10 10 40 200 40 10 10 10 10 10 10 10 10 10 10 10 10 10 10 10 10 10 10 76 172 40 10 10 10 10 10 10 10 10 10 10 10 10 
40 200 40 10 10 10 10 10 10 10 10 10 10 10 10 10 10 10 10 10 10 10 10 10 10 10 10 10 10 10 10 10 10 10 10 10 10 10 10 40 200 40 10 10 10 10 10 10 184 88 40 220 60 40 10 10 10 184 88 40 220 60 40 10 10 10 184 88 40 10 10 10 184 88 40 220 60 40 220 60 40 220 60 40 10 10 10 10 10 10 10 10 10 10 10 10 10 10 10 148 116 40 10 10 10 184 88 40 220 60 40 220 60 40 220 60 40 220 60 40 10 10 10 184 88 40 10 10 10 184 88 40 10 10 10 10 10 10 148 116 40 10 10 10 10 10 10 10 10 10 10 10 10 112 144 40 10 10 10 10 10 10 10 10 10 10 10 10 76 172 40 10 10 10 10 10 10 10 10 10 10 10 10 10 10 10 148 116 40 10 10 10 10 10 10 184 88 40 10 10 10 184 88 40 10 10 10 10 10 10 10 10 10 10 10 10 10 10 10 10 10 10 10 10 10 76 172 40 10 10 10 10 10 10 10 10 10 10 10 10 10 10 10 10 10 10 10 10 10 40 200 40 10 10 10 10 10 10 10 10 10 10 10 10 10 10 10 10 10 10 10 10 10 10 10 10 10 10 10 40 200 40 10 10 10 10 10 10 10 10 10 10 10 10 10 10 10 10 10 10 
10 10 10 10 10 10 10 10 10 10 10 10 10 10 10 40 200 40 10 10 10 10 10 10 10 10 10 10 10 10 10 10 10 10 10 10 10 10 10 10 10 10 10 10 10 148 116 40 220 60 40 10 10 10 184 88 40 220 60 40 10 10 10 184 88 40 10 10 10 184 88 40 220 60 40 220 60 40 220 60 40 10 10 10 184 88 40 10 10 10 10 10 10 10 10 10 10 10 10 10 10 10 184 88 40 220 60 40 220 60 40 220 60 40 220 60 40 10 10 10 184 88 40 10 10 10 184 88 40 10 10 10 10 10 10 148 116 40 10 10 10 10 10 10 10 10 10 112 144 40 10 10 10 10 10 10 10 10 10 10 10 10 10 10 10 76 172 40 10 10 10 10 10 10 10 10 10 10 10 10 10 10 10 40 200 40 10 10 10 10 10 10 148 116 40 220 60 40 10 10 10 10 10 10 10 10 10 148 116 40 10 10 10 10 10 10 10 10 10 10 10 10 10 10 10 10 10 10 10 10 10 10 10 10 10 10 10 76 172 40 10 10 10 10 10 10 10 10 10 10 10 10 10 10 10 10 10 10 10 10 10 10 10 10 40 200 40 10 10 10 10 10 10 10 10 10 10 10 10 10 10 10 10 10 10 10 10 10 10 10 10 10 10 10 40 200 40 10 10 10 
10 10 10 10 10 10 10 10 10 40 200 40 10 10 10 10 10 10 10 10 10 10 10 10 10 10 10 76 172 40 10 10 10 10 10 10 10 10 10 10 10 10 10 10 10 220 60 40 10 10 10 184 88 40 220 60 40 10 10 10 184 88 40 10 10 10 184 88 40 220 60 40 220 60 40 220 60 40 10 10 10 184 88 40 10 10 10 184 88 40 10 10 10 10 10 10 10 10 10 10 10 10 220 60 40 220 60 40 220 60 40 220 60 40 10 10 10 184 88 40 10 10 10 184 88 40 10 10 10 10 10 10 148 116 40 10 10 10 10 10 10 10 10 10 112 144 40 10 10 10 10 10 10 10 10 10 10 10 10 76 172 40 10 10 10 10 10 10 10 10 10 10 10 10 10 10 10 10 10 10 40 200 40 10 10 10 184 88 40 10 10 10 220 60 40 10 10 10 184 88 40 10 10 10 10 10 10 10 10 10 10 10 10 10 10 10 112 144 40 10 10 10 10 10 10 10 10 10 10 10 10 10 10 10 10 10 10 10 10 10 10 10 10 10 10 10 10 10 10 76 172 40 10 10 10 10 10 10 10 10 10 10 10 10 10 10 10 10 10 10 10 10 10 10 10 10 76 172 40 10 10 10 10 10 10 10 10 10 10 10 10 10 10 10 10 10 10 10 10 10 
10 10 10 10 10 10 10 10 10 10 10 10 10 10 10 10 10 10 10 10 10 10 10 10 40 200 40 10 10 10 10 10 10 10 10 10 10 10 10 76 172 40 10 10 10 10 10 10 184 88 40 220 60 40 220 60 40 10 10 10 10 10 10 184 88 40 220 60 40 220 60 40 220 60 40 10 10 10 184 88 40 10 10 10 184 88 40 10 10 10 10 10 10 148 116 40 10 10 10 10 10 10 220 60 40 220 60 40 220 60 40 10 10 10 184 88 40 10 10 10 184 88 40 10 10 10 10 10 10 148 116 40 10 10 10 10 10 10 10 10 10 112 144 40 10 10 10 10 10 10 10 10 10 10 10 10 76 172 40 10 10 10 10 10 10 10 10 10 10 10 10 10 10 10 40 200 40 10 10 10 10 10 10 184 88 40 10 10 10 184 88 40 10 10 10 184 88 40 10 10 10 10 10 10 148 116 40 10 10 10 10 10 10 10 10 10 10 10 10 10 10 10 10 10 10 10 10 10 76 172 40 10 10 10 10 10 10 10 10 10 10 10 10 10 10 10 10 10 10 10 10 10 10 10 10 10 10 10 10 10 10 10 10 10 40 200 40 10 10 10 10 10 10 10 10 10 10 10 10 10 10 10 10 10 10 10 10 10 76 172 40 10 10 10 10 10 10 10 10 10 
10 10 10 40 200 40 10 10 10 10 10 10 10 10 10 10 10 10 10 10 10 10 10 10 10 10 10 10 10 10 10 10 10 112 144 40 10 10 10 10 10 10 10 10 10 148 116 40 220 60 40 220 60 40 220 60 40 10 10 10 10 10 10 220 60 40 220 60 40 220 60 40 10 10 10 184 88 40 10 10 10 184 88 40 10 10 10 184 88 40 10 10 10 10 10 10 10 10 10 148 116 40 220 60 40 220 60 40 220 60 40 10 10 10 220 60 40 10 10 10 10 10 10 10 10 10 148 116 40 10 10 10 10 10 10 10 10 10 112 144 40 10 10 10 10 10 10 10 10 10 10 10 10 76 172 40 10 10 10 10 10 10 10 10 10 10 10 10 10 10 10 40 200 40 10 10 10 10 10 10 148 116 40 220 60 40 10 10 10 10 10 10 184 88 40 10 10 10 184 88 40 10 10 10 10 10 10 10 10 10 148 116 40 10 10 10 10 10 10 10 10 10 10 10 10 10 10 10 10 10 10 10 10 10 10 10 10 10 10 10 10 10 10 40 200 40 10 10 10 10 10 10 10 10 10 10 10 10 10 10 10 10 10 10 10 10 10 10 10 10 10 10 10 10 10 10 10 10 10 40 200 40 10 10 10 10 10 10 10 10 10 10 10 10 10 10 10 10 10 10 
10 10 10 10 10 10 10 10 10 10 10 10 10 10 10 10 10 10 40 200 40 10 10 10 10 10 10 10 10 10 10 10 10 10 10 10 10 10 10 148 116 40 10 10 10 220 60 40 220 60 40 220 60 40 220 60 40 10 10 10 10 10 10 220 60 40 220 60 40 10 10 10 184 88 40 10 10 10 184 88 40 10 10 10 184 88 40 10 10 10 184 88 40 10 10 10 10 10 10 220 60 40 220 60 40 220 60 40 220 60 40 10 10 10 10 10 10 184 88 40 10 10 10 10 10 10 10 10 10 10 10 10 148 116 40 10 10 10 10 10 10 10 10 10 10 10 10 10 10 10 76 172 40 10 10 10 10 10 10 10 10 10 10 10 10 10 10 10 40 200 40 10 10 10 10 10 10 148 116 40 220 60 40 10 10 10 184 88 40 10 10 10 220 60 40 10 10 10 10 10 10 10 10 10 148 116 40 10 10 10 10 10 10 10 10 10 10 10 10 112 144 40 10 10 10 10 10 10 10 10 10 10 10 10 10 10 10 10 10 10 10 10 10 10 10 10 10 10 10 10 10 10 10 10 10 10 10 10 40 200 40 10 10 10 10 10 10 10 10 10 10 10 10 10 10 10 10 10 10 10 10 10 10 10 10 10 10 10 10 10 10 10 10 10 40 200 40 10 10 10 
10 10 10 10 10 10 10 10 10 40 200 40 10 10 10 10 10 10 10 10 10 10 10 10 10 10 10 10 10 10 76 172 40 10 10 10 10 10 10 220 60 40 10 10 10 220 60 40 220 60 40 220 60 40 10 10 10 184 88 40 10 10 10 220 60 40 220 60 40 10 10 10 10 10 10 184 88 40 10 10 10 184 88 40 10 10 10 184 88 40 10 10 10 10 10 10 148 116 40 220 60 40 220 60 40 220 60 40 220 60 40 10 10 10 10 10 10 10 10 10 184 88 40 10 10 10 10 10 10 10 10 10 10 10 10 10 10 10 10 10 10 112 144 40 10 10 10 10 10 10 10 10 10 10 10 10 10 10 10 10 10 10 76 172 40 10 10 10 10 10 10 10 10 10 148 116 40 220 60 40 10 10 10 184 88 40 10 10 10 184 88 40 10 10 10 184 88 40 10 10 10 10 10 10 10 10 10 10 10 10 10 10 10 112 144 40 10 10 10 10 10 10 10 10 10 10 10 10 10 10 10 76 172 40 10 10 10 10 10 10 10 10 10 10 10 10 10 10 10 10 10 10 10 10 10 10 10 10 10 10 10 10 10 10 10 10 10 10 10 10 76 172 40 10 10 10 10 10 10 10 10 10 10 10 10 10 10 10 10 10 10 10 10 10 10 10 10 10 10 10 
10 10 10 10 10 10 10 10 10 10 10 10 10 10 10 10 10 10 10 10 10 10 10 10 40 200 40 10 10 10 10 10 10 10 10 10 148 116 40 10 10 10 184 88 40 220 60 40 220 60 40 10 10 10 184 88 40 220 60 40 10 10 10 220 60 40 220 60 40 10 10 10 10 10 10 10 10 10 184 88 40 220 60 40 10 10 10 10 10 10 10 10 10 148 116 40 220 60 40 220 60 40 220 60 40 220 60 40 220 60 40 10 10 10 10 10 10 10 10 10 10 10 10 184 88 40 10 10 10 10 10 10 10 10 10 10 10 10 10 10 10 10 10 10 10 10 10 10 10 10 112 144 40 10 10 10 10 10 10 10 10 10 10 10 10 10 10 10 10 10 10 112 144 40 220 60 40 10 10 10 184 88 40 220 60 40 10 10 10 10 10 10 184 88 40 10 10 10 10 10 10 148 116 40 10 10 10 10 10 10 10 10 10 10 10 10 10 10 10 10 10 10 10 10 10 76 172 40 10 10 10 10 10 10 10 10 10 10 10 10 10 10 10 76 172 40 10 10 10 10 10 10 10 10 10 10 10 10 10 10 10 10 10 10 10 10 10 10 10 10 10 10 10 10 10 10 10 10 10 10 10 10 10 10 10 40 200 40 10 10 10 10 10 10 10 10 10 10 10 10 
10 10 10 10 10 10 10 10 10 10 10 10 10 10 10 10 10 10 10 10 10 10 10 10 10 10 10 10 10 10 10 10 10 112 144 40 220 60 40 10 10 10 220 60 40 220 60 40 10 10 10 184 88 40 220 60 40 10 10 10 184 88 40 220 60 40 220 60 40 10 10 10 10 10 10 10 10 10 220 60 40 10 10 10 184 88 40 10 10 10 10 10 10 220 60 40 220 60 40 220 60 40 220 60 40 220 60 40 10 10 10 184 88 40 10 10 10 10 10 10 10 10 10 10 10 10 184 88 40 10 10 10 10 10 10 10 10 10 10 10 10 10 10 10 10 10 10 10 10 10 10 10 10 10 10 10 10 10 10 10 10 10 76 172 40 10 10 10 10 10 10 220 60 40 10 10 10 184 88 40 220 60 40 10 10 10 184 88 40 10 10 10 10 10 10 10 10 10 148 116 40 10 10 10 10 10 10 10 10 10 112 144 40 10 10 10 10 10 10 10 10 10 10 10 10 10 10 10 10 10 10 10 10 10 10 10 10 76 172 40 10 10 10 10 10 10 10 10 10 10 10 10 10 10 10 10 10 10 40 200 40 10 10 10 10 10 10 10 10 10 10 10 10 10 10 10 10 10 10 10 10 10 10 10 10 10 10 10 10 10 10 10 10 10 10 10 10 76 172 40 
10 10 10 10 10 10 10 10 10 10 10 10 40 200 40 10 10 10 10 10 10 10 10 10 10 10 10 10 10 10 10 10 10 220 60 40 10 10 10 184 88 40 220 60 40 10 10 10 184 88 40 220 60 40 220 60 40 10 10 10 220 60 40 220 60 40 10 10 10 184 88 40 10 10 10 10 10 10 220 60 40 10 10 10 10 10 10 10 10 10 148 116 40 220 60 40 220 60 40 220 60 40 220 60 40 10 10 10 184 88 40 10 10 10 184 88 40 10 10 10 10 10 10 10 10 10 10 10 10 10 10 10 148 116 40 10 10 10 10 10 10 10 10 10 10 10 10 10 10 10 10 10 10 10 10 10 10 10 10 10 10 10 10 10 10 10 10 10 148 116 40 220 60 40 10 10 10 220 60 40 10 10 10 184 88 40 10 10 10 10 10 10 148 116 40 10 10 10 10 10 10 10 10 10 10 10 10 112 144 40 10 10 10 10 10 10 10 10 10 10 10 10 76 172 40 10 10 10 10 10 10 10 10 10 10 10 10 10 10 10 10 10 10 10 10 10 10 10 10 76 172 40 10 10 10 10 10 10 10 10 10 10 10 10 10 10 10 10 10 10 10 10 10 40 200 40 10 10 10 10 10 10 10 10 10 10 10 10 10 10 10 10 10 10 10 10 10 10 10 10 
10 10 10 10 10 10 10 10 10 10 10 10 10 10 10 10 10 10 10 10 10 10 10 10 10 10 10 40 200 40 10 10 10 10 10 10 184 88 40 220 60 40 220 60 40 10 10 10 220 60 40 220 60 40 220 60 40 10 10 10 220 60 40 10 10 10 184 88 40 10 10 10 10 10 10 148 116 40 10 10 10 184 88 40 10 10 10 10 10 10 220 60 40 220 60 40 220 60 40 220 60 40 10 10 10 184 88 40 220 60 40 10 10 10 10 10 10 10 10 10 148 116 40 10 10 10 10 10 10 10 10 10 10 10 10 10 10 10 10 10 10 112 144 40 10 10 10 10 10 10 10 10 10 10 10 10 10 10 10 10 10 10 10 10 10 10 10 10 220 60 40 10 10 10 184 88 40 10 10 10 184 88 40 10 10 10 10 10 10 148 116 40 10 10 10 10 10 10 10 10 10 112 144 40 10 10 10 10 10 10 10 10 10 10 10 10 112 144 40 10 10 10 10 10 10 10 10 10 10 10 10 10 10 10 76 172 40 10 10 10 10 10 10 10 10 10 10 10 10 10 10 10 10 10 10 10 10 10 10 10 10 10 10 10 40 200 40 10 10 10 10 10 10 10 10 10 10 10 10 10 10 10 10 10 10 10 10 10 40 200 40 10 10 10 10 10 10 10 10 10 
10 10 10 40 200 40 10 10 10 10 10 10 10 10 10 10 10 10 10 10 10 10 10 10 10 10 10 10 10 10 184 88 40 10 10 10 220 60 40 220 60 40 220 60 40 10 10 10 220 60 40 220 60 40 10 10 10 184 88 40 220 60 40 10 10 10 10 10 10 184 88 40 10 10 10 10 10 10 184 88 40 10 10 10 10 10 10 148 116 40 220 60 40 220 60 40 220 60 40 10 10 10 184 88 40 220 60 40 10 10 10 184 88 40 10 10 10 10 10 10 10 10 10 10 10 10 148 116 40 10 10 10 10 10 10 10 10 10 10 10 10 10 10 10 10 10 10 10 10 10 112 144 40 10 10 10 10 10 10 10 10 10 10 10 10 10 10 10 220 60 40 10 10 10 10 10 10 184 88 40 10 10 10 184 88 40 10 10 10 10 10 10 10 10 10 148 116 40 10 10 10 10 10 10 10 10 10 10 10 10 10 10 10 76 172 40 10 10 10 10 10 10 10 10 10 10 10 10 76 172 40 10 10 10 10 10 10 10 10 10 10 10 10 10 10 10 10 10 10 40 200 40 10 10 10 10 10 10 10 10 10 10 10 10 10 10 10 10 10 10 10 10 10 10 10 10 76 172 40 10 10 10 10 10 10 10 10 10 10 10 10 10 10 10 10 10 10 10 10 10 
10 10 10 10 10 10 10 10 10 10 10 10 10 10 10 10 10 10 40 200 40 10 10 10 10 10 10 10 10 10 220 60 40 10 10 10 220 60 40 220 60 40 220 60 40 10 10 10 220 60 40 10 10 10 184 88 40 220 60 40 10 10 10 184 88 40 10 10 10 10 10 10 10 10 10 148 116 40 10 10 10 10 10 10 148 116 40 220 60 40 220 60 40 220 60 40 220 60 40 10 10 10 220 60 40 10 10 10 184 88 40 10 10 10 10 10 10 148 116 40 10 10 10 10 10 10 10 10 10 10 10 10 10 10 10 112 144 40 10 10 10 10 10 10 10 10 10 10 10 10 10 10 10 10 10 10 10 10 10 10 10 10 76 172 40 10 10 10 220 60 40 10 10 10 10 10 10 220 60 40 10 10 10 10 10 10 184 88 40 10 10 10 10 10 10 10 10 10 10 10 10 148 116 40 10 10 10 10 10 10 10 10 10 10 10 10 10 10 10 10 10 10 10 10 10 76 172 40 10 10 10 10 10 10 10 10 10 10 10 10 10 10 10 40 200 40 10 10 10 10 10 10 10 10 10 10 10 10 10 10 10 10 10 10 40 200 40 10 10 10 10 10 10 10 10 10 10 10 10 10 10 10 10 10 10 10 10 10 10 10 10 40 200 40 10 10 10 10 10 10 
10 10 10 76 172 40 10 10 10 10 10 10 10 10 10 10 10 10 10 10 10 10 10 10 10 10 10 112 144 40 10 10 10 184 88 40 220 60 40 220 60 40 220 60 40 10 10 10 220 60 40 10 10 10 220 60 40 10 10 10 184 88 40 10 10 10 10 10 10 148 116 40 10 10 10 10 10 10 10 10 10 148 116 40 220 60 40 220 60 40 220 60 40 220 60 40 10 10 10 184 88 40 10 10 10 184 88 40 10 10 10 10 10 10 148 116 40 10 10 10 10 10 10 10 10 10 112 144 40 10 10 10 10 10 10 10 10 10 10 10 10 10 10 10 112 144 40 10 10 10 10 10 10 10 10 10 10 10 10 10 10 10 10 10 10 184 88 40 220 60 40 10 10 10 10 10 10 10 10 10 184 88 40 10 10 10 10 10 10 10 10 10 148 116 40 10 10 10 10 10 10 10 10 10 10 10 10 148 116 40 10 10 10 10 10 10 10 10 10 10 10 10 10 10 10 10 10 10 10 10 10 10 10 10 10 10 10 10 10 10 40 200 40 10 10 10 10 10 10 10 10 10 10 10 10 10 10 10 40 200 40 10 10 10 10 10 10 10 10 10 10 10 10 10 10 10 76 172 40 10 10 10 10 10 10 10 10 10 10 10 10 10 10 10 10 10 10 10 10 10 
10 10 10 10 10 10 10 10 10 10 10 10 10 10 10 10 10 10 40 200 40 10 10 10 10 10 10 10 10 10 184 88 40 220 60 40 220 60 40 220 60 40 220 60 40 10 10 10 220 60 40 10 10 10 220 60 40 10 10 10 10 10 10 10 10 10 148 116 40 10 10 10 10 10 10 10 10 10 112 144 40 220 60 40 220 60 40 220 60 40 220 60 40 220 60 40 10 10 10 10 10 10 184 88 40 10 10 10 10 10 10 148 116 40 10 10 10 10 10 10 148 116 40 10 10 10 10 10 10 10 10 10 10 10 10 10 10 10 76 172 40 10 10 10 10 10 10 10 10 10 10 10 10 10 10 10 76 172 40 10 10 10 10 10 10 220 60 40 220 60 40 10 10 10 10 10 10 10 10 10 10 10 10 10 10 10 148 116 40 10 10 10 10 10 10 10 10 10 148 116 40 10 10 10 10 10 10 10 10 10 10 10 10 10 10 10 112 144 40 10 10 10 10 10 10 10 10 10 10 10 10 10 10 10 10 10 10 10 10 10 10 10 10 10 10 10 10 10 10 10 10 10 10 10 10 40 200 40 10 10 10 10 10 10 10 10 10 10 10 10 10 10 10 40 200 40 10 10 10 10 10 10 10 10 10 10 10 10 76 172 40 10 10 10 10 10 10 10 10 10 
76 172 40 10 10 10 10 10 10 10 10 10 10 10 10 10 10 10 10 10 10 10 10 10 148 116 40 10 10 10 220 60 40 220 60 40 220 60 40 220 60 40 10 10 10 184 88 40 10 10 10 184 88 40 10 10 10 184 88 40 10 10 10 10 10 10 10 10 10 10 10 10 148 116 40 10 10 10 220 60 40 220 60 40 220 60 40 220 60 40 220 60 40 10 10 10 184 88 40 10 10 10 10 10 10 10 10 10 148 116 40 10 10 10 10 10 10 148 116 40 10 10 10 10 10 10 10 10 10 112 144 40 10 10 10 10 10 10 10 10 10 10 10 10 10 10 10 10 10 10 10 10 10 40 200 40 10 10 10 184 88 40 10 10 10 220 60 40 10 10 10 184 88 40 10 10 10 10 10 10 10 10 10 10 10 10 10 10 10 10 10 10 148 116 40 10 10 10 10 10 10 10 10 10 148 116 40 10 10 10 10 10 10 10 10 10 10 10 10 10 10 10 10 10 10 112 144 40 10 10 10 10 10 10 10 10 10 10 10 10 10 10 10 10 10 10 10 10 10 10 10 10 10 10 10 10 10 10 10 10 10 10 10 10 10 10 10 76 172 40 10 10 10 10 10 10 10 10 10 10 10 10 10 10 10 76 172 40 10 10 10 10 10 10 10 10 10 10 10 10 
10 10 10 10 10 10 10 10 10 10 10 10 10 10 10 40 200 40 10 10 10 10 10 10 10 10 10 184 88 40 220 60 40 220 60 40 220 60 40 10 10 10 184 88 40 10 10 10 184 88 40 220 60 40 10 10 10 10 10 10 10 10 10 148 116 40 10 10 10 10 10 10 10 10 10 184 88 40 220 60 40 220 60 40 220 60 40 220 60 40 10 10 10 184 88 40 10 10 10 10 10 10 148 116 40 10 10 10 10 10 10 10 10 10 148 116 40 10 10 10 10 10 10 148 116 40 10 10 10 10 10 10 10 10 10 10 10 10 112 144 40 10 10 10 10 10 10 10 10 10 10 10 10 10 10 10 184 88 40 220 60 40 10 10 10 220 60 40 10 10 10 10 10 10 10 10 10 148 116 40 10 10 10 10 10 10 10 10 10 10 10 10 10 10 10 10 10 10 10 10 10 112 144 40 10 10 10 10 10 10 10 10 10 112 144 40 10 10 10 10 10 10 10 10 10 10 10 10 10 10 10 10 10 10 10 10 10 76 172 40 10 10 10 10 10 10 10 10 10 10 10 10 10 10 10 10 10 10 10 10 10 10 10 10 10 10 10 10 10 10 10 10 10 10 10 10 10 10 10 10 10 10 40 200 40 10 10 10 10 10 10 10 10 10 112 144 40 10 10 10 
10 10 10 112 144 40 10 10 10 10 10 10 10 10 10 10 10 10 10 10 10 10 10 10 112 144 40 220 60 40 220 60 40 220 60 40 10 10 10 184 88 40 10 10 10 184 88 40 220 60 40 10 10 10 184 88 40 10 10 10 10 10 10 10 10 10 10 10 10 148 116 40 10 10 10 220 60 40 220 60 40 220 60 40 220 60 40 220 60 40 10 10 10 10 10 10 10 10 10 148 116 40 10 10 10 10 10 10 10 10 10 112 144 40 10 10 10 10 10 10 148 116 40 10 10 10 10 10 10 148 116 40 10 10 10 10 10 10 10 10 10 10 10 10 10 10 10 112 144 40 10 10 10 10 10 10 220 60 40 220 60 40 10 10 10 220 60 40 10 10 10 10 10 10 10 10 10 10 10 10 10 10 10 148 116 40 10 10 10 10 10 10 10 10 10 10 10 10 10 10 10 10 10 10 10 10 10 10 10 10 112 144 40 10 10 10 10 10 10 10 10 10 10 10 10 76 172 40 10 10 10 10 10 10 10 10 10 10 10 10 10 10 10 10 10 10 10 10 10 76 172 40 10 10 10 10 10 10 10 10 10 10 10 10 10 10 10 10 10 10 10 10 10 10 10 10 10 10 10 10 10 10 10 10 10 10 10 10 10 10 10 112 144 40 10 10 10 10 10 10 
112 144 40 10 10 10 10 10 10 10 10 10 112 144 40 10 10 10 10 10 10 10 10 10 220 60 40 220 60 40 220 60 40 10 10 10 184 88 40 220 60 40 10 10 10 220 60 40 10 10 10 184 88 40 10 10 10 10 10 10 148 116 40 10 10 10 10 10 10 10 10 10 184 88 40 220 60 40 220 60 40 220 60 40 220 60 40 10 10 10 184 88 40 10 10 10 10 10 10 10 10 10 10 10 10 10 10 10 112 144 40 10 10 10 184 88 40 10 10 10 10 10 10 184 88 40 10 10 10 10 10 10 10 10 10 148 116 40 10 10 10 10 10 10 10 10 10 10 10 10 184 88 40 10 10 10 220 60 40 10 10 10 184 88 40 10 10 10 184 88 40 10 10 10 10 10 10 10 10 10 10 10 10 10 10 10 10 10 10 148 116 40 10 10 10 10 10 10 10 10 10 10 10 10 10 10 10 10 10 10 10 10 10 10 10 10 10 10 10 10 10 10 76 172 40 10 10 10 10 10 10 10 10 10 10 10 10 76 172 40 10 10 10 10 10 10 10 10 10 10 10 10 10 10 10 10 10 10 10 10 10 76 172 40 10 10 10 10 10 10 10 10 10 10 10 10 10 10 10 10 10 10 10 10 10 10 10 10 10 10 10 10 10 10 10 10 10 10 10 10 
10 10 10 10 10 10 10 10 10 112 144 40 10 10 10 10 10 10 10 10 10 112 144 40 220 60 40 220 60 40 10 10 10 184 88 40 220 60 40 220 60 40 10 10 10 10 10 10 184 88 40 10 10 10 184 88 40 10 10 10 10 10 10 10 10 10 10 10 10 112 144 40 220 60 40 220 60 40 220 60 40 220 60 40 220 60 40 10 10 10 10 10 10 184 88 40 10 10 10 10 10 10 10 10 10 10 10 10 10 10 10 184 88 40 10 10 10 10 10 10 148 116 40 10 10 10 10 10 10 148 116 40 10 10 10 10 10 10 10 10 10 10 10 10 112 144 40 10 10 10 220 60 40 10 10 10 10 10 10 184 88 40 220 60 40 10 10 10 10 10 10 184 88 40 10 10 10 10 10 10 10 10 10 10 10 10 10 10 10 10 10 10 10 10 10 10 10 10 112 144 40 10 10 10 10 10 10 10 10 10 10 10 10 10 10 10 10 10 10 10 10 10 10 10 10 10 10 10 10 10 10 112 144 40 10 10 10 10 10 10 10 10 10 10 10 10 10 10 10 10 10 10 40 200 40 10 10 10 10 10 10 10 10 10 10 10 10 10 10 10 10 10 10 76 172 40 10 10 10 10 10 10 10 10 10 10 10 10 10 10 10 10 10 10 10 10 10 10 10 10 
10 10 10 10 10 10 10 10 10 10 10 10 10 10 10 10 10 10 112 144 40 220 60 40 220 60 40 10 10 10 184 88 40 220 60 40 220 60 40 220 60 40 10 10 10 10 10 10 10 10 10 184 88 40 10 10 10 10 10 10 148 116 40 10 10 10 10 10 10 220 60 40 220 60 40 220 60 40 220 60 40 220 60 40 10 10 10 184 88 40 10 10 10 10 10 10 184 88 40 10 10 10 10 10 10 10 10 10 10 10 10 10 10 10 10 10 10 148 116 40 10 10 10 184 88 40 10 10 10 10 10 10 10 10 10 10 10 10 112 144 40 10 10 10 220 60 40 10 10 10 10 10 10 184 88 40 10 10 10 220 60 40 10 10 10 184 88 40 10 10 10 10 10 10 184 88 40 10 10 10 10 10 10 10 10 10 10 10 10 10 10 10 10 10 10 10 10 10 10 10 10 10 10 10 10 10 10 10 10 10 76 172 40 10 10 10 10 10 10 10 10 10 10 10 10 10 10 10 10 10 10 10 10 10 10 10 10 10 10 10 10 10 10 76 172 40 10 10 10 10 10 10 10 10 10 10 10 10 10 10 10 10 10 10 10 10 10 40 200 40 10 10 10 10 10 10 10 10 10 10 10 10 10 10 10 76 172 40 10 10 10 10 10 10 10 10 10 10 10 10 
40 200 40 10 10 10 10 10 10 10 10 10 10 10 10 10 10 10 220 60 40 220 60 40 220 60 40 10 10 10 220 60 40 220 60 40 220 60 40 10 10 10 184 88 40 10 10 10 10 10 10 10 10 10 184 88 40 10 10 10 10 10 10 10 10 10 148 116 40 220 60 40 220 60 40 220 60 40 220 60 40 10 10 10 184 88 40 10 10 10 184 88 40 10 10 10 10 10 10 10 10 10 148 116 40 10 10 10 10 10 10 10 10 10 10 10 10 220 60 40 10 10 10 10 10 10 10 10 10 148 116 40 10 10 10 10 10 10 220 60 40 10 10 10 10 10 10 184 88 40 10 10 10 10 10 10 184 88 40 10 10 10 184 88 40 10 10 10 10 10 10 148 116 40 10 10 10 10 10 10 148 116 40 10 10 10 10 10 10 10 10 10 10 10 10 10 10 10 10 10 10 10 10 10 10 10 10 10 10 10 10 10 10 10 10 10 10 10 10 10 10 10 10 10 10 40 200 40 10 10 10 10 10 10 10 10 10 10 10 10 10 10 10 10 10 10 10 10 10 10 10 10 10 10 10 10 10 10 40 200 40 10 10 10 10 10 10 10 10 10 10 10 10 10 10 10 10 10 10 10 10 10 40 200 40 10 10 10 10 10 10 10 10 10 10 10 10 10 10 10 
10 10 10 10 10 10 10 10 10 10 10 10 76 172 40 10 10 10 220 60 40 220 60 40 10 10 10 184 88 40 220 60 40 220 60 40 10 10 10 184 88 40 10 10 10 184 88 40 10 10 10 10 10 10 10 10 10 10 10 10 148 116 40 10 10 10 220 60 40 220 60 40 220 60 40 220 60 40 10 10 10 184 88 40 10 10 10 184 88 40 10 10 10 184 88 40 10 10 10 10 10 10 10 10 10 10 10 10 10 10 10 112 144 40 10 10 10 10 10 10 184 88 40 10 10 10 10 10 10 10 10 10 10 10 10 148 116 40 10 10 10 184 88 40 10 10 10 10 10 10 10 10 10 148 116 40 10 10 10 184 88 40 10 10 10 10 10 10 148 116 40 10 10 10 10 10 10 148 116 40 10 10 10 10 10 10 148 116 40 10 10 10 10 10 10 10 10 10 10 10 10 10 10 10 10 10 10 10 10 10 10 10 10 10 10 10 10 10 10 10 10 10 10 10 10 10 10 10 10 10 10 10 10 10 10 10 10 10 10 10 40 200 40 10 10 10 10 10 10 10 10 10 10 10 10 10 10 10 10 10 10 10 10 10 10 10 10 10 10 10 10 10 10 40 200 40 10 10 10 10 10 10 10 10 10 10 10 10 10 10 10 10 10 10 10 10 10 40 200 40 
10 10 10 10 10 10 10 10 10 76 172 40 10 10 10 184 88 40 220 60 40 220 60 40 10 10 10 220 60 40 220 60 40 10 10 10 184 88 40 10 10 10 184 88 40 10 10 10 10 10 10 148 116 40 10 10 10 10 10 10 10 10 10 184 88 40 220 60 40 220 60 40 220 60 40 10 10 10 184 88 40 10 10 10 184 88 40 220 60 40 10 10 10 10 10 10 10 10 10 148 116 40 10 10 10 10 10 10 10 10 10 10 10 10 10 10 10 148 116 40 10 10 10 10 10 10 148 116 40 10 10 10 10 10 10 10 10 10 184 88 40 10 10 10 10 10 10 148 116 40 10 10 10 10 10 10 184 88 40 10 10 10 10 10 10 148 116 40 10 10 10 184 88 40 10 10 10 10 10 10 10 10 10 148 116 40 10 10 10 10 10 10 10 10 10 112 144 40 10 10 10 10 10 10 10 10 10 10 10 10 10 10 10 10 10 10 10 10 10 10 10 10 10 10 10 10 10 10 10 10 10 10 10 10 10 10 10 10 10 10 10 10 10 10 10 10 10 10 10 10 10 10 10 10 10 40 200 40 10 10 10 10 10 10 10 10 10 10 10 10 10 10 10 10 10 10 10 10 10 10 10 10 10 10 10 10 10 10 40 200 40 10 10 10 10 10 10 10 10 10 
76 172 40 10 10 10 10 10 10 10 10 10 184 88 40 220 60 40 220 60 40 10 10 10 184 88 40 220 60 40 10 10 10 184 88 40 10 10 10 184 88 40 10 10 10 10 10 10 148 116 40 10 10 10 10 10 10 10 10 10 112 144 40 220 60 40 220 60 40 220 60 40 10 10 10 184 88 40 220 60 40 10 10 10 220 60 40 220 60 40 10 10 10 10 10 10 10 10 10 10 10 10 10 10 10 10 10 10 112 144 40 10 10 10 10 10 10 10 10 10 184 88 40 10 10 10 10 10 10 10 10 10 10 10 10 112 144 40 10 10 10 10 10 10 148 116 40 10 10 10 184 88 40 10 10 10 10 10 10 10 10 10 148 116 40 10 10 10 184 88 40 10 10 10 184 88 40 10 10 10 10 10 10 10 10 10 10 10 10 10 10 10 112 144 40 10 10 10 10 10 10 10 10 10 10 10 10 76 172 40 10 10 10 10 10 10 10 10 10 10 10 10 10 10 10 10 10 10 10 10 10 10 10 10 10 10 10 10 10 10 10 10 10 10 10 10 10 10 10 10 10 10 10 10 10 10 10 10 10 10 10 10 10 10 10 10 10 10 10 10 40 200 40 10 10 10 10 10 10 10 10 10 10 10 10 10 10 10 10 10 10 10 10 10 10 10 10 10 10 10 
10 10 10 10 10 10 148 116 40 10 10 10 220 60 40 220 60 40 10 10 10 184 88 40 220 60 40 10 10 10 184 88 40 10 10 10 184 88 40 10 10 10 10 10 10 148 116 40 10 10 10 10 10 10 10 10 10 112 144 40 220 60 40 220 60 40 220 60 40 220 60 40 10 10 10 220 60 40 220 60 40 10 10 10 220 60 40 10 10 10 184 88 40 10 10 10 10 10 10 10 10 10 10 10 10 10 10 10 10 10 10 10 10 10 10 10 10 112 144 40 10 10 10 10 10 10 148 116 40 10 10 10 10 10 10 10 10 10 10 10 10 148 116 40 10 10 10 184 88 40 10 10 10 10 10 10 148 116 40 10 10 10 10 10 10 184 88 40 10 10 10 184 88 40 10 10 10 10 10 10 148 116 40 10 10 10 10 10 10 10 10 10 10 10 10 10 10 10 10 10 10 10 10 10 76 172 40 10 10 10 10 10 10 10 10 10 10 10 10 10 10 10 40 200 40 10 10 10 10 10 10 10 10 10 10 10 10 10 10 10 10 10 10 10 10 10 10 10 10 10 10 10 10 10 10 10 10 10 10 10 10 10 10 10 10 10 10 10 10 10 10 10 10 10 10 10 10 10 10 10 10 10 10 10 10 40 200 40 10 10 10 10 10 10 10 10 10 10 10 10 
40 200 40 10 10 10 220 60 40 10 10 10 220 60 40 10 10 10 184 88 40 220 60 40 220 60 40 10 10 10 220 60 40 10 10 10 10 10 10 10 10 10 148 116 40 10 10 10 10 10 10 10 10 10 112 144 40 220 60 40 220 60 40 220 60 40 220 60 40 10 10 10 184 88 40 220 60 40 10 10 10 184 88 40 10 10 10 184 88 40 10 10 10 10 10 10 148 116 40 10 10 10 10 10 10 10 10 10 10 10 10 10 10 10 10 10 10 10 10 10 10 10 10 148 116 40 10 10 10 10 10 10 10 10 10 112 144 40 10 10 10 220 60 40 10 10 10 10 10 10 10 10 10 148 116 40 10 10 10 184 88 40 10 10 10 10 10 10 184 88 40 10 10 10 10 10 10 148 116 40 10 10 10 10 10 10 10 10 10 112 144 40 10 10 10 10 10 10 10 10 10 10 10 10 10 10 10 10 10 10 10 10 10 10 10 10 76 172 40 10 10 10 10 10 10 10 10 10 10 10 10 10 10 10 76 172 40 10 10 10 10 10 10 10 10 10 10 10 10 10 10 10 10 10 10 10 10 10 10 10 10 10 10 10 10 10 10 10 10 10 10 10 10 10 10 10 10 10 10 10 10 10 10 10 10 10 10 10 10 10 10 10 10 10 10 10 10 10 10 10 
10 10 10 184 88 40 10 10 10 184 88 40 10 10 10 184 88 40 220 60 40 220 60 40 10 10 10 184 88 40 220 60 40 10 10 10 10 10 10 10 10 10 10 10 10 10 10 10 10 10 10 112 144 40 220 60 40 220 60 40 220 60 40 220 60 40 10 10 10 184 88 40 220 60 40 10 10 10 184 88 40 220 60 40 10 10 10 10 10 10 10 10 10 148 116 40 10 10 10 10 10 10 10 10 10 112 144 40 10 10 10 10 10 10 10 10 10 10 10 10 10 10 10 10 10 10 10 10 10 148 116 40 10 10 10 10 10 10 184 88 40 10 10 10 184 88 40 10 10 10 10 10 10 10 10 10 184 88 40 10 10 10 184 88 40 10 10 10 10 10 10 10 10 10 148 116 40 10 10 10 10 10 10 10 10 10 112 144 40 10 10 10 10 10 10 10 10 10 10 10 10 76 172 40 10 10 10 10 10 10 10 10 10 10 10 10 10 10 10 10 10 10 10 10 10 10 10 10 10 10 10 40 200 40 10 10 10 10 10 10 10 10 10 10 10 10 76 172 40 10 10 10 10 10 10 10 10 10 10 10 10 10 10 10 10 10 10 10 10 10 10 10 10 10 10 10 10 10 10 10 10 10 10 10 10 10 10 10 10 10 10 10 10 10 10 10 10 10 10 10 
10 10 10 10 10 10 184 88 40 220 60 40 10 10 10 220 60 40 220 60 40 220 60 40 10 10 10 220 60 40 10 10 10 184 88 40 10 10 10 10 10 10 10 10 10 10 10 10 10 10 10 220 60 40 220 60 40 220 60 40 220 60 40 10 10 10 184 88 40 220 60 40 10 10 10 184 88 40 220 60 40 220 60 40 10 10 10 10 10 10 10 10 10 10 10 10 10 10 10 10 10 10 112 144 40 10 10 10 10 10 10 10 10 10 10 10 10 76 172 40 10 10 10 10 10 10 10 10 10 10 10 10 10 10 10 148 116 40 220 60 40 10 10 10 10 10 10 10 10 10 148 116 40 10 10 10 220 60 40 10 10 10 10 10 10 10 10 10 148 116 40 10 10 10 10 10 10 10 10 10 10 10 10 112 144 40 10 10 10 10 10 10 10 10 10 112 144 40 10 10 10 10 10 10 10 10 10 10 10 10 10 10 10 10 10 10 40 200 40 10 10 10 10 10 10 10 10 10 10 10 10 10 10 10 10 10 10 10 10 10 10 10 10 76 172 40 10 10 10 10 10 10 10 10 10 10 10 10 10 10 10 40 200 40 10 10 10 10 10 10 10 10 10 10 10 10 10 10 10 10 10 10 10 10 10 10 10 10 10 10 10 10 10 10 10 10 10 10 10 10 
10 10 10 10 10 10 220 60 40 10 10 10 184 88 40 220 60 40 220 60 40 10 10 10 184 88 40 10 10 10 184 88 40 10 10 10 10 10 10 148 116 40 10 10 10 10 10 10 10 10 10 220 60 40 220 60 40 220 60 40 10 10 10 184 88 40 220 60 40 10 10 10 184 88 40 220 60 40 220 60 40 220 60 40 10 10 10 10 10 10 10 10 10 10 10 10 10 10 10 10 10 10 10 10 10 10 10 10 10 10 10 10 10 10 76 172 40 10 10 10 10 10 10 10 10 10 10 10 10 10 10 10 40 200 40 220 60 40 220 60 40 10 10 10 10 10 10 10 10 10 10 10 10 184 88 40 220 60 40 10 10 10 10 10 10 10 10 10 10 10 10 10 10 10 10 10 10 112 144 40 10 10 10 10 10 10 10 10 10 10 10 10 112 144 40 10 10 10 10 10 10 10 10 10 10 10 10 76 172 40 10 10 10 10 10 10 10 10 10 10 10 10 10 10 10 10 10 10 10 10 10 40 200 40 10 10 10 10 10 10 10 10 10 10 10 10 10 10 10 10 10 10 10 10 10 10 10 10 40 200 40 10 10 10 10 10 10 10 10 10 10 10 10 10 10 10 40 200 40 10 10 10 10 10 10 10 10 10 10 10 10 10 10 10 10 10 10 10 10 10 
10 10 10 10 10 10 10 10 10 184 88 40 220 60 40 220 60 40 10 10 10 184 88 40 10 10 10 184 88 40 10 10 10 184 88 40 10 10 10 10 10 10 10 10 10 10 10 10 112 144 40 220 60 40 220 60 40 10 10 10 184 88 40 220 60 40 10 10 10 184 88 40 220 60 40 220 60 40 220 60 40 10 10 10 184 88 40 10 10 10 10 10 10 10 10 10 10 10 10 10 10 10 10 10 10 10 10 10 10 10 10 10 10 10 10 10 10 10 10 10 10 10 10 10 10 10 10 10 10 40 200 40 220 60 40 220 60 40 10 10 10 184 88 40 10 10 10 10 10 10 10 10 10 220 60 40 10 10 10 184 88 40 10 10 10 10 10 10 10 10 10 10 10 10 10 10 10 10 10 10 10 10 10 10 10 10 10 10 10 76 172 40 10 10 10 10 10 10 10 10 10 10 10 10 76 172 40 10 10 10 10 10 10 10 10 10 10 10 10 10 10 10 40 200 40 10 10 10 10 10 10 10 10 10 10 10 10 10 10 10 10 10 10 76 172 40 10 10 10 10 10 10 10 10 10 10 10 10 10 10 10 10 10 10 10 10 10 10 10 10 10 10 10 40 200 40 10 10 10 10 10 10 10 10 10 10 10 10 10 10 10 40 200 40 10 10 10 10 10 10 
10 10 10 10 10 10 40 200 40 220 60 40 220 60 40 10 10 10 184 88 40 10 10 10 184 88 40 220 60 40 10 10 10 10 10 10 10 10 10 148 116 40 10 10 10 10 10 10 220 60 40 220 60 40 220 60 40 10 10 10 220 60 40 220 60 40 10 10 10 220 60 40 220 60 40 220 60 40 10 10 10 184 88 40 10 10 10 10 10 10 148 116 40 10 10 10 10 10 10 10 10 10 10 10 10 10 10 10 10 10 10 10 10 10 10 10 10 10 10 10 10 10 10 10 10 10 10 10 10 220 60 40 220 60 40 10 10 10 184 88 40 10 10 10 10 10 10 148 116 40 10 10 10 220 60 40 10 10 10 10 10 10 10 10 10 148 116 40 10 10 10 10 10 10 10 10 10 10 10 10 10 10 10 10 10 10 10 10 10 10 10 10 10 10 10 10 10 10 10 10 10 76 172 40 10 10 10 10 10 10 10 10 10 10 10 10 10 10 10 40 200 40 10 10 10 10 10 10 10 10 10 10 10 10 10 10 10 40 200 40 10 10 10 10 10 10 10 10 10 10 10 10 10 10 10 10 10 10 40 200 40 10 10 10 10 10 10 10 10 10 10 10 10 10 10 10 10 10 10 10 10 10 10 10 10 76 172 40 10 10 10 10 10 10 10 10 10 10 10 10 
40 200 40 10 10 10 220 60 40 220 60 40 220 60 40 10 10 10 10 10 10 184 88 40 220 60 40 10 10 10 184 88 40 10 10 10 10 10 10 10 10 10 10 10 10 148 116 40 220 60 40 220 60 40 10 10 10 184 88 40 220 60 40 10 10 10 184 88 40 220 60 40 220 60 40 10 10 10 184 88 40 10 10 10 10 10 10 148 116 40 10 10 10 10 10 10 10 10 10 112 144 40 10 10 10 10 10 10 10 10 10 10 10 10 10 10 10 10 10 10 10 10 10 10 10 10 10 10 10 220 60 40 220 60 40 10 10 10 10 10 10 10 10 10 148 116 40 10 10 10 184 88 40 10 10 10 184 88 40 10 10 10 10 10 10 10 10 10 10 10 10 10 10 10 112 144 40 10 10 10 10 10 10 10 10 10 10 10 10 10 10 10 10 10 10 10 10 10 10 10 10 10 10 10 10 10 10 10 10 10 10 10 10 10 10 10 40 200 40 10 10 10 10 10 10 10 10 10 10 10 10 76 172 40 10 10 10 10 10 10 10 10 10 10 10 10 10 10 10 76 172 40 10 10 10 10 10 10 10 10 10 10 10 10 10 10 10 10 10 10 10 10 10 40 200 40 10 10 10 10 10 10 10 10 10 10 10 10 10 10 10 10 10 10 10 10 10 10 10 10 
220 60 40 10 10 10 220 60 40 220 60 40 10 10 10 184 88 40 10 10 10 220 60 40 10 10 10 184 88 40 10 10 10 10 10 10 148 116 40 10 10 10 10 10 10 220 60 40 220 60 40 10 10 10 184 88 40 220 60 40 10 10 10 184 88 40 220 60 40 220 60 40 10 10 10 184 88 40 10 10 10 10 10 10 148 116 40 10 10 10 10 10 10 10 10 10 112 144 40 10 10 10 10 10 10 10 10 10 10 10 10 76 172 40 10 10 10 10 10 10 10 10 10 10 10 10 10 10 10 220 60 40 220 60 40 10 10 10 10 10 10 10 10 10 10 10 10 184 88 40 10 10 10 184 88 40 10 10 10 10 10 10 148 116 40 10 10 10 10 10 10 10 10 10 10 10 10 10 10 10 10 10 10 112 144 40 10 10 10 10 10 10 10 10 10 10 10 10 10 10 10 10 10 10 10 10 10 10 10 10 10 10 10 10 10 10 10 10 10 10 10 10 10 10 10 112 144 40 10 10 10 10 10 10 10 10 10 10 10 10 10 10 10 10 10 10 40 200 40 10 10 10 10 10 10 10 10 10 10 10 10 10 10 10 40 200 40 10 10 10 10 10 10 10 10 10 10 10 10 10 10 10 10 10 10 76 172 40 10 10 10 10 10 10 10 10 10 10 10 10 
